; generated by Slic3r 1.2.9 on 2024-07-22 at 06:57:00

; external perimeters extrusion width = 0.40mm
; perimeters extrusion width = 0.40mm
; infill extrusion width = 0.40mm
; solid infill extrusion width = 0.40mm
; top infill extrusion width = 0.40mm

M107
M104 S250 ; set temperature
M83
T0
M116


M109 S250 ; wait for temperature to be reached
G21 ; set units to millimeters
G90 ; use absolute coordinates
M83 ; use relative distances for extrusion
G1 E-3.20000 F3000.00000
G1 Z0.400 F15000.000
G1 X-11.398 Y1.214 F15000.000
G1 Z0.350 F15000.000
G1 E3.20000 F3000.00000
G1 X-16.716 Y-48.738 E4.44027 F960.000
G1 X-16.740 Y-49.188 E0.03983
G1 X-16.740 Y-54.088 E0.43312
G1 X-16.345 Y-55.878 E0.16202
G1 X-15.233 Y-57.335 E0.16202
G1 X-13.610 Y-58.187 E0.16202
G1 X-12.491 Y-58.338 E0.09986
G1 X12.409 Y-58.338 E2.20096
G1 X14.199 Y-57.942 E0.16202
G1 X15.656 Y-56.830 E0.16202 F960.000
G1 X16.509 Y-55.208 E0.16202
G1 X16.659 Y-54.095 E0.09926
G1 X16.731 Y-5.447 E4.30004
G1 X16.649 Y-3.889 E0.13789
G1 X12.547 Y54.383 E5.16355
G1 X12.027 Y56.141 E0.16202
G1 X10.816 Y57.516 E0.16202
G1 X9.137 Y58.253 E0.16202
G1 X8.012 Y58.324 E0.09969
G1 X-1.865 Y57.633 E0.87511
G1 X-3.622 Y57.114 E0.16202
G1 X-4.998 Y55.903 E0.16202
G1 X-5.794 Y53.844 E0.19512
G1 X-11.391 Y1.273 E4.67308
G1 X-10.770 Y1.207 F15000.000
G1 X-16.095 Y-48.804 E4.44557 F960.000
G1 X-16.115 Y-49.188 E0.03397
G1 X-16.115 Y-54.088 E0.43312
G1 X-15.721 Y-55.732 E0.14948
G1 X-14.623 Y-57.019 E0.14948
G1 X-12.491 Y-57.713 E0.19825
G1 X12.409 Y-57.713 E2.20096
G1 X14.054 Y-57.318 E0.14948
G1 X15.341 Y-56.221 E0.14948 F960.000
G1 X16.034 Y-54.094 E0.19776
G1 X16.107 Y-5.480 E4.29706
G1 X16.025 Y-3.933 E0.13690
G1 X11.924 Y54.339 E5.16355
G1 X11.415 Y55.952 E0.14948
G1 X10.230 Y57.158 E0.14948
G1 X8.055 Y57.701 E0.19811
G1 X-1.821 Y57.010 E0.87511
G1 X-3.434 Y56.502 E0.14948
G1 X-4.641 Y55.317 E0.14948
G1 X-5.173 Y53.778 E0.14396
G1 X-10.764 Y1.267 E4.66778
G1 E-3.20000 F3000.00000
G1 Z0.750 F15000.000
G1 X10.673 Y-2.665 F15000.000
G1 Z0.350 F15000.000
G1 E3.20000 F3000.00000
G1 X6.824 Y52.377 E4.87717 F960.000
G1 X0.139 Y51.910 E0.59229
G1 X4.109 Y-4.856 E5.02989
G1 X4.109 Y-50.788 E4.05997
G1 X-10.891 Y-50.788 E1.32588
G1 X-10.891 Y-52.488 E0.15031
G1 X10.810 Y-52.488 E1.91814
G1 X10.810 Y-16.174 E3.20984
G1 X5.811 Y-15.112 E0.45173 F960.000
G1 X7.079 Y-9.146 E0.53915
G1 X10.810 Y-9.939 E0.33716
G1 X10.810 Y-4.624 E0.46972
G1 X10.677 Y-2.725 E0.16830
G1 X11.300 Y-2.681 F15000.000
G1 X7.404 Y53.044 E4.93770 F960.000
G1 X-0.528 Y52.489 E0.70276
G1 X3.484 Y-4.878 E5.08319
G1 X3.484 Y-50.163 E4.00281
G1 X-11.516 Y-50.163 E1.32588
G1 X-11.516 Y-53.113 E0.26078
G1 X11.435 Y-53.113 E2.02861
G1 X11.435 Y-15.668 E3.30980
G1 X6.552 Y-14.630 E0.44123 F960.000
G1 X7.560 Y-9.887 E0.42868
G1 X11.435 Y-10.710 E0.35013
G1 X11.435 Y-4.603 E0.53986
G1 X11.304 Y-2.741 E0.16493
G1 X11.928 Y-2.698 F15000.000
G1 X7.983 Y53.711 E4.99824 F960.000
G1 X-1.195 Y53.069 E0.81323
G1 X2.859 Y-4.900 E5.13650
G1 X2.859 Y-49.538 E3.94565
G1 X-12.141 Y-49.538 E1.32588
G1 X-12.141 Y-53.738 E0.37125
G1 X12.059 Y-53.738 E2.13909
G1 X12.059 Y-15.162 E3.40976
G1 X7.293 Y-14.149 E0.43073 F960.000
G1 X8.041 Y-10.628 E0.31821
G1 X12.059 Y-11.482 E0.36310
G1 X12.059 Y-5.349 E0.54212
G1 X12.113 Y-5.345 E0.00478
G1 X11.932 Y-2.758 E0.22927
G1 X11.568 Y-2.522 F15000.000
G1 X10.431 Y-4.669 F15000.000
G1 X4.488 Y-10.613 E0.74766 F960.000
G1 X4.488 Y-9.723 E0.07911
G1 X10.383 Y-3.828 E0.74166
G1 X10.325 Y-2.997 E0.07412
G1 X4.488 Y-8.834 E0.73435
G1 X4.488 Y-7.945 E0.07911
G1 X10.267 Y-2.165 E0.72704
G1 X10.209 Y-1.334 E0.07412
G1 X4.488 Y-7.055 E0.71972
G1 X4.488 Y-6.166 E0.07911
G1 X10.151 Y-0.503 E0.71241
G1 X10.093 Y0.328 E0.07412
G1 X4.488 Y-5.277 E0.70510
G1 X4.450 Y-4.425 E0.07579
G1 X10.035 Y1.160 E0.70259
G1 X9.977 Y1.991 E0.07412
G1 X4.392 Y-3.594 E0.70259
G1 X4.333 Y-2.763 E0.07412
G1 X9.918 Y2.822 E0.70259
G1 X9.860 Y3.653 E0.07412
G1 X4.275 Y-1.932 E0.70259
G1 X4.217 Y-1.101 E0.07412
G1 X9.802 Y4.484 E0.70259
G1 X9.744 Y5.316 E0.07412
G1 X4.159 Y-0.269 E0.70259
G1 X4.101 Y0.562 E0.07412
G1 X9.686 Y6.147 E0.70259
G1 X9.628 Y6.978 E0.07412
G1 X4.043 Y1.393 E0.70259
G1 X3.985 Y2.224 E0.07412
G1 X9.570 Y7.809 E0.70259
G1 X9.512 Y8.640 E0.07412
G1 X3.927 Y3.055 E0.70259
G1 X3.868 Y3.887 E0.07412
G1 X9.453 Y9.472 E0.70260
G1 X9.395 Y10.303 E0.07412
G1 X3.810 Y4.718 E0.70260
G1 X3.752 Y5.549 E0.07412
G1 X9.337 Y11.134 E0.70260
G1 X9.279 Y11.965 E0.07412
G1 X3.694 Y6.380 E0.70260
G1 X3.636 Y7.211 E0.07412
G1 X9.221 Y12.797 E0.70260
G1 X9.163 Y13.628 E0.07412
G1 X3.578 Y8.043 E0.70260
G1 X3.520 Y8.874 E0.07412
G1 X9.105 Y14.459 E0.70260
G1 X9.047 Y15.290 E0.07412
G1 X3.461 Y9.705 E0.70260
G1 X3.403 Y10.536 E0.07412
G1 X8.988 Y16.121 E0.70260
G1 X8.930 Y16.953 E0.07412
G1 X3.345 Y11.368 E0.70260
G1 X3.287 Y12.199 E0.07412
G1 X8.872 Y17.784 E0.70260
G1 X8.814 Y18.615 E0.07412
G1 X3.229 Y13.030 E0.70260
G1 X3.171 Y13.861 E0.07412
G1 X8.756 Y19.446 E0.70260
G1 X8.698 Y20.277 E0.07412
G1 X3.113 Y14.692 E0.70261
G1 X3.055 Y15.524 E0.07412
G1 X8.640 Y21.109 E0.70261
G1 X8.582 Y21.940 E0.07412
G1 X2.996 Y16.355 E0.70261
G1 X2.938 Y17.186 E0.07412
G1 X8.523 Y22.771 E0.70261
G1 X8.465 Y23.602 E0.07412
G1 X2.880 Y18.017 E0.70261
G1 X2.822 Y18.848 E0.07412
G1 X8.407 Y24.434 E0.70261
G1 X8.349 Y25.265 E0.07412
G1 X2.764 Y19.680 E0.70261
G1 X2.706 Y20.511 E0.07412
G1 X8.291 Y26.096 E0.70261
G1 X8.233 Y26.927 E0.07412
G1 X2.648 Y21.342 E0.70261
G1 X2.590 Y22.173 E0.07412
G1 X8.175 Y27.758 E0.70261
G1 X8.117 Y28.590 E0.07412
G1 X2.531 Y23.004 E0.70261
G1 X2.473 Y23.836 E0.07412
G1 X8.058 Y29.421 E0.70261
G1 X8.000 Y30.252 E0.07412
G1 X2.415 Y24.667 E0.70261
G1 X2.357 Y25.498 E0.07412
G1 X7.942 Y31.083 E0.70262
G1 X7.884 Y31.915 E0.07412
G1 X2.299 Y26.329 E0.70262
G1 X2.241 Y27.160 E0.07412
G1 X7.826 Y32.746 E0.70262
G1 X7.768 Y33.577 E0.07412
G1 X2.183 Y27.992 E0.70262
G1 X2.124 Y28.823 E0.07412
G1 X7.710 Y34.408 E0.70262
G1 X7.652 Y35.239 E0.07412
G1 X2.066 Y29.654 E0.70262
G1 X2.008 Y30.485 E0.07412
G1 X7.594 Y36.071 E0.70262
G1 X7.535 Y36.902 E0.07412
G1 X1.950 Y31.317 E0.70262
G1 X1.892 Y32.148 E0.07412
G1 X7.477 Y37.733 E0.70262
G1 X7.419 Y38.564 E0.07412
G1 X1.834 Y32.979 E0.70262
G1 X1.776 Y33.810 E0.07412
G1 X7.361 Y39.395 E0.70262
G1 X7.303 Y40.227 E0.07412
G1 X1.718 Y34.641 E0.70262
G1 X1.659 Y35.473 E0.07412
G1 X7.245 Y41.058 E0.70263
G1 X7.187 Y41.889 E0.07412
G1 X1.601 Y36.304 E0.70263
G1 X1.543 Y37.135 E0.07412
G1 X7.129 Y42.720 E0.70263
G1 X7.070 Y43.552 E0.07412
G1 X1.485 Y37.966 E0.70263
G1 X1.427 Y38.797 E0.07412
G1 X7.012 Y44.383 E0.70263
G1 X6.954 Y45.214 E0.07412
G1 X1.369 Y39.629 E0.70263
G1 X1.311 Y40.460 E0.07412
G1 X6.896 Y46.045 E0.70263
G1 X6.838 Y46.876 E0.07412
G1 X1.253 Y41.291 E0.70263
G1 X1.194 Y42.122 E0.07412
G1 X6.780 Y47.708 E0.70263
G1 X6.722 Y48.539 E0.07412
G1 X1.136 Y42.953 E0.70263
G1 X1.078 Y43.785 E0.07412
G1 X6.664 Y49.370 E0.70263
G1 X6.605 Y50.201 E0.07412
G1 X1.020 Y44.616 E0.70263
G1 X0.962 Y45.447 E0.07412
G1 X6.547 Y51.032 E0.70263
G1 X6.489 Y51.864 E0.07412
G1 X0.904 Y46.278 E0.70264
G1 X0.846 Y47.110 E0.07412
G1 X5.641 Y51.905 E0.60330
G1 X4.685 Y51.838 E0.08527
G1 X0.788 Y47.941 E0.49032
G1 X0.729 Y48.772 E0.07412
G1 X3.729 Y51.771 E0.37734
G1 X2.773 Y51.705 E0.08527
G1 X0.671 Y49.603 E0.26437
G1 X0.613 Y50.434 E0.07412
G1 X1.817 Y51.638 E0.15139
G1 X0.860 Y51.571 E0.08527
G1 X0.555 Y51.266 E0.03841
G1 X7.184 Y-8.806 F15000.000
G1 X10.431 Y-5.559 E0.40851 F960.000
G1 X10.431 Y-6.448 E0.07911
G1 X7.917 Y-8.962 E0.31624
G1 X8.651 Y-9.118 E0.06670
G1 X10.431 Y-7.337 E0.22397
G1 X10.431 Y-8.227 E0.07911
G1 X9.384 Y-9.274 E0.13171
G1 X10.118 Y-9.430 E0.06670
G1 X10.431 Y-9.116 E0.03944
G1 X6.611 Y-9.379 F15000.000
G1 X4.488 Y-11.502 E0.26708 F960.000
G1 X4.488 Y-12.391 E0.07911
G1 X6.371 Y-10.508 E0.23689
G1 X6.131 Y-11.638 E0.10270
G1 X4.488 Y-13.281 E0.20670
G1 X4.488 Y-14.170 E0.07911
G1 X5.891 Y-12.767 E0.17651
G1 X5.651 Y-13.896 E0.10270
G1 X4.488 Y-15.059 E0.14632
G1 X5.411 Y-15.026 E0.08217
G1 X4.488 Y-15.949 E0.11613
G1 X4.488 Y-16.838 E0.07911
G1 X5.845 Y-15.481 E0.17074
G1 X6.578 Y-15.637 E0.06670
G1 X4.488 Y-17.727 E0.26300
G1 X4.488 Y-18.617 E0.07911
G1 X7.312 Y-15.793 E0.35526
G1 X8.045 Y-15.949 E0.06670
G1 X4.488 Y-19.506 E0.44753
G1 X4.488 Y-20.395 E0.07911
G1 X8.779 Y-16.104 E0.53979
G1 X9.512 Y-16.260 E0.06670
G1 X4.488 Y-21.285 E0.63206
G1 X4.488 Y-22.174 E0.07911
G1 X10.246 Y-16.416 E0.72432
G1 X10.431 Y-17.120 E0.06475
G1 X4.488 Y-23.063 E0.74766
G1 X4.488 Y-23.953 E0.07911
G1 X10.431 Y-18.009 E0.74766
G1 X10.431 Y-18.899 E0.07911
G1 X4.488 Y-24.842 E0.74766
G1 X4.488 Y-25.731 E0.07911
G1 X10.431 Y-19.788 E0.74766
G1 X10.431 Y-20.678 E0.07911
G1 X4.488 Y-26.621 E0.74766
G1 X4.488 Y-27.510 E0.07911
G1 X10.431 Y-21.567 E0.74766
G1 X10.431 Y-22.456 E0.07911
G1 X4.488 Y-28.399 E0.74766
G1 X4.488 Y-29.289 E0.07911
G1 X10.431 Y-23.346 E0.74766
G1 X10.431 Y-24.235 E0.07911
G1 X4.488 Y-30.178 E0.74766
G1 X4.488 Y-31.067 E0.07911
G1 X10.431 Y-25.124 E0.74766
G1 X10.431 Y-26.014 E0.07911
G1 X4.488 Y-31.957 E0.74766
G1 X4.488 Y-32.846 E0.07911
G1 X10.431 Y-26.903 E0.74766
G1 X10.431 Y-27.792 E0.07911
G1 X4.488 Y-33.736 E0.74766
G1 X4.488 Y-34.625 E0.07911
G1 X10.431 Y-28.682 E0.74766
G1 X10.431 Y-29.571 E0.07911
G1 X4.488 Y-35.514 E0.74766
G1 X4.488 Y-36.404 E0.07911
G1 X10.431 Y-30.460 E0.74766
G1 X10.431 Y-31.350 E0.07911
G1 X4.488 Y-37.293 E0.74766
G1 X4.488 Y-38.182 E0.07911
G1 X10.431 Y-32.239 E0.74766
G1 X10.431 Y-33.128 E0.07911
G1 X4.488 Y-39.072 E0.74766
G1 X4.488 Y-39.961 E0.07911
G1 X10.431 Y-34.018 E0.74766
G1 X10.431 Y-34.907 E0.07911
G1 X4.488 Y-40.850 E0.74766
G1 X4.488 Y-41.740 E0.07911
G1 X10.431 Y-35.796 E0.74766
G1 X10.431 Y-36.686 E0.07911
G1 X4.488 Y-42.629 E0.74766
G1 X4.488 Y-43.518 E0.07911
G1 X10.431 Y-37.575 E0.74766
G1 X10.431 Y-38.464 E0.07911
G1 X4.488 Y-44.408 E0.74766
G1 X4.488 Y-45.297 E0.07911
G1 X10.431 Y-39.354 E0.74766
G1 X10.431 Y-40.243 E0.07911
G1 X4.488 Y-46.186 E0.74766
G1 X4.488 Y-47.076 E0.07911
G1 X10.431 Y-41.132 E0.74766
G1 X10.431 Y-42.022 E0.07911
G1 X4.488 Y-47.965 E0.74766
G1 X4.488 Y-48.854 E0.07911
G1 X10.431 Y-42.911 E0.74766
G1 X10.431 Y-43.800 E0.07911
G1 X4.488 Y-49.744 E0.74766
G1 X4.488 Y-50.633 F15000.000
G1 X10.431 Y-44.690 E0.74766 F960.000
G1 X10.431 Y-45.579 E0.07911
G1 X3.901 Y-52.109 E0.82153
G1 X4.790 Y-52.109 E0.07911
G1 X10.431 Y-46.468 E0.70965
G1 X10.431 Y-47.358 E0.07911
G1 X5.679 Y-52.109 E0.59777
G1 X6.569 Y-52.109 E0.07911
G1 X10.431 Y-48.247 E0.48590
G1 X10.431 Y-49.136 E0.07911
G1 X7.458 Y-52.109 E0.37402
G1 X8.347 Y-52.109 E0.07911
G1 X10.431 Y-50.026 E0.26214
G1 X10.431 Y-50.915 E0.07911
G1 X9.237 Y-52.109 E0.15026
G1 X10.126 Y-52.109 E0.07911
G1 X10.431 Y-51.804 E0.03838
G1 X3.955 Y-51.166 F15000.000
G1 X3.011 Y-52.109 E0.11867 F960.000
G1 X2.122 Y-52.109 E0.07911
G1 X3.065 Y-51.166 E0.11867
G1 X2.176 Y-51.166 E0.07911
G1 X1.233 Y-52.109 E0.11867
G1 X0.343 Y-52.109 E0.07911
G1 X1.287 Y-51.166 E0.11867
G1 X0.397 Y-51.166 E0.07911
G1 X-0.546 Y-52.109 E0.11867
G1 X-1.435 Y-52.109 E0.07911
G1 X-0.492 Y-51.166 E0.11867
G1 X-1.381 Y-51.166 E0.07911
G1 X-2.325 Y-52.109 E0.11867
G1 X-3.214 Y-52.109 E0.07911
G1 X-2.271 Y-51.166 E0.11867
G1 X-3.160 Y-51.166 E0.07911
G1 X-4.103 Y-52.109 E0.11866
G1 X-4.993 Y-52.109 E0.07911
G1 X-4.049 Y-51.166 E0.11866
G1 X-4.939 Y-51.166 E0.07911
G1 X-5.882 Y-52.109 E0.11866
G1 X-6.771 Y-52.109 E0.07911
G1 X-5.828 Y-51.166 E0.11866
G1 X-6.717 Y-51.166 E0.07911
G1 X-7.661 Y-52.109 E0.11866
G1 X-8.550 Y-52.109 E0.07911
G1 X-7.607 Y-51.166 E0.11866
G1 X-8.496 Y-51.166 E0.07911
G1 X-9.439 Y-52.109 E0.11866
G1 X-10.329 Y-52.109 E0.07911
G1 X-9.385 Y-51.166 E0.11866
M104 S246 ; set temperature
G1 E-3.20000 F3000.00000
G1 Z0.750 F15000.000
G1 X11.495 Y-5.110 F15000.000
G1 Z0.550 F15000.000
G1 E3.20000 F3000.00000
G1 X11.495 Y-4.823 E0.00828 F4800.000
G1 X11.511 Y-4.822 E0.00045
G1 X7.460 Y53.109 E1.67612
G1 X-0.592 Y52.546 E0.23298
G1 X3.424 Y-4.880 E1.66151
G1 X3.424 Y-50.102 E1.30523
G1 X-11.576 Y-50.102 E0.43294
G1 X-11.576 Y-53.174 E0.08866
G1 X11.495 Y-53.174 E0.66591
G1 X11.495 Y-15.619 E1.08392
G1 X6.624 Y-14.584 E0.14374 F4800.000
G1 X7.607 Y-9.959 E0.13647
G1 X11.495 Y-10.785 E0.11474
G1 X11.495 Y-5.170 E0.16208
G1 X11.852 Y-5.170 F15000.000
G1 X11.852 Y-5.156 E0.00040 F4800.000
G1 X11.892 Y-5.153 E0.00115
G1 X7.791 Y53.490 E1.69672
G1 X-0.974 Y52.877 E0.25359
G1 X3.067 Y-4.893 E1.67146
G1 X3.067 Y-49.745 E1.29456
G1 X-11.933 Y-49.745 E0.43294
G1 X-11.933 Y-53.531 E0.10927
G1 X11.852 Y-53.531 E0.68652
G1 X11.852 Y-15.330 E1.10258
G1 X7.047 Y-14.309 E0.14178 F4800.000
G1 X7.882 Y-10.382 E0.11586
G1 X11.852 Y-11.226 E0.11716
G1 X11.852 Y-5.230 E0.17307
G1 X12.254 Y-5.202 F15000.000
G1 X12.209 Y-4.388 E0.02352 F4800.000
G1 X12.196 Y-4.388 E0.00038
G1 X8.123 Y53.871 E1.68561
G1 X-1.355 Y53.208 E0.27421
G1 X2.709 Y-4.905 E1.68140
G1 X2.709 Y-49.388 E1.28389
G1 X-12.291 Y-49.388 E0.43294
G1 X-12.291 Y-53.888 E0.12988
G1 X12.209 Y-53.888 E0.70714
G1 X12.209 Y-15.041 E1.12123
G1 X7.471 Y-14.034 E0.13982 F4800.000
G1 X8.157 Y-10.806 E0.09525
G1 X12.209 Y-11.667 E0.11958
G1 X12.209 Y-5.489 E0.17833
G1 X12.274 Y-5.484 E0.00185
G1 X12.258 Y-5.261 E0.00644
G1 X11.896 Y-5.023 F15000.000
G1 E-3.20000 F3000.00000
G1 Z0.950 F15000.000
G1 X11.288 Y-16.164 F15000.000
G1 Z0.550 F15000.000
G1 E3.20000 F3000.00000
G1 X10.832 Y-15.708 E0.01864 F4800.000
G1 X10.189 Y-15.572 E0.01904
G1 X11.288 Y-16.670 E0.04498
G1 X11.288 Y-17.177 E0.01467
G1 X9.546 Y-15.435 E0.07132
G1 X8.902 Y-15.298 E0.01904
G1 X11.288 Y-17.683 E0.09766
G1 X11.288 Y-18.190 E0.01467
G1 X8.259 Y-15.161 E0.12400
G1 X7.616 Y-15.025 E0.01904
G1 X11.288 Y-18.696 E0.15034
G1 E-3.20000 F3000.00000
G1 Z0.950 F15000.000
G1 X-10.671 Y-52.966 F15000.000
G1 Z0.550 F15000.000
G1 E3.20000 F3000.00000
G1 X-11.369 Y-52.268 E0.02857 F4800.000
G1 X-11.369 Y-51.762 E0.01467
G1 X-10.164 Y-52.966 E0.04931
G1 X-9.658 Y-52.966 E0.01467
G1 X-11.369 Y-51.255 E0.07005
G1 X-11.369 Y-50.748 E0.01467
G1 X-9.151 Y-52.966 E0.09080
G1 X-8.645 Y-52.966 E0.01467
G1 X-11.301 Y-50.310 E0.10876
G1 X-10.794 Y-50.310 E0.01467
G1 X-8.138 Y-52.966 E0.10876
G1 X-7.631 Y-52.966 E0.01467
G1 X-10.288 Y-50.310 E0.10876
G1 X-9.781 Y-50.310 E0.01467
G1 X-7.125 Y-52.966 E0.10876
G1 X-6.618 Y-52.966 E0.01467
G1 X-9.274 Y-50.310 E0.10876
G1 X-8.768 Y-50.310 E0.01467
G1 X-6.112 Y-52.966 E0.10876
G1 X-5.605 Y-52.966 E0.01467
G1 X-8.261 Y-50.310 E0.10876
G1 X-7.755 Y-50.310 E0.01467
G1 X-5.099 Y-52.966 E0.10876
G1 X-4.592 Y-52.966 E0.01467
G1 X-7.248 Y-50.310 E0.10876
G1 X-6.742 Y-50.310 E0.01467
G1 X-4.086 Y-52.966 E0.10876
G1 X-3.579 Y-52.966 E0.01467
G1 X-6.235 Y-50.310 E0.10876
G1 X-5.729 Y-50.310 E0.01467
G1 X-3.072 Y-52.966 E0.10876
G1 X-2.566 Y-52.966 E0.01467
G1 X-5.222 Y-50.310 E0.10876
G1 X-4.715 Y-50.310 E0.01467
G1 X-2.059 Y-52.966 E0.10876
G1 X-1.553 Y-52.966 E0.01467
G1 X-4.209 Y-50.310 E0.10876
G1 X-3.702 Y-50.310 E0.01467
G1 X-1.046 Y-52.966 E0.10876
G1 X-0.540 Y-52.966 E0.01467
G1 X-3.196 Y-50.310 E0.10876
G1 X-2.689 Y-50.310 E0.01467
G1 X-0.033 Y-52.966 E0.10876
G1 X0.473 Y-52.966 E0.01467
G1 X-2.183 Y-50.310 E0.10876
G1 X-1.676 Y-50.310 E0.01467
G1 X0.980 Y-52.966 E0.10876
G1 X1.487 Y-52.966 E0.01467
G1 X-1.170 Y-50.310 E0.10876
G1 X-0.663 Y-50.310 E0.01467
G1 X1.993 Y-52.966 E0.10876
G1 X2.500 Y-52.966 E0.01467
G1 X-0.156 Y-50.310 E0.10876
G1 X0.350 Y-50.310 E0.01467
G1 X3.006 Y-52.966 E0.10876
G1 X3.513 Y-52.966 E0.01467
G1 X0.857 Y-50.310 E0.10876
G1 X1.363 Y-50.310 E0.01467
G1 X4.019 Y-52.966 E0.10876
G1 X4.526 Y-52.966 E0.01467
G1 X1.870 Y-50.310 E0.10876
G1 X2.376 Y-50.310 E0.01467
G1 X5.033 Y-52.966 E0.10876
G1 X5.539 Y-52.966 E0.01467
G1 X2.883 Y-50.310 E0.10876
G1 X3.389 Y-50.310 E0.01467
G1 X6.046 Y-52.966 E0.10876
G1 X6.552 Y-52.966 E0.01467
G1 X3.631 Y-50.045 E0.11959
G1 X3.631 Y-49.539 E0.01467
G1 X7.059 Y-52.966 E0.14033
G1 X7.565 Y-52.966 E0.01467
G1 X3.631 Y-49.032 E0.16107
G1 X3.631 Y-48.525 E0.01467
G1 X8.072 Y-52.966 E0.18181
G1 X8.578 Y-52.966 E0.01467
G1 X3.631 Y-48.019 E0.20255
G1 X3.631 Y-47.512 E0.01467
