; generated by Slic3r 1.2.9 on 2024-07-16 at 21:06:56

; external perimeters extrusion width = 0.40mm
; perimeters extrusion width = 0.40mm
; infill extrusion width = 0.40mm
; solid infill extrusion width = 0.40mm
; top infill extrusion width = 0.40mm

M107
M104 S250 ; set temperature
M83
T0
M116


M109 S250 ; wait for temperature to be reached
G21 ; set units to millimeters
G90 ; use absolute coordinates
M83 ; use relative distances for extrusion
G1 E-3.20000 F3000.00000
G1 Z0.400 F15000.000
G1 X-11.149 Y1.187 F15000.000
G1 Z0.350 F15000.000
G1 E3.20000 F3000.00000
G1 X-16.716 Y-51.100 E4.64789 F960.000
G1 X-16.740 Y-51.550 E0.03983
G1 X-16.740 Y-56.450 E0.43312
G1 X-16.345 Y-58.240 E0.16202
G1 X-15.233 Y-59.697 E0.16202
G1 X-13.610 Y-60.550 E0.16202
G1 X-12.491 Y-60.700 E0.09986
G1 X12.409 Y-60.700 E2.20096
G1 X14.199 Y-60.304 E0.16202
G1 X15.656 Y-59.192 E0.16202 F960.000
G1 X16.509 Y-57.570 E0.16202
G1 X16.659 Y-56.457 E0.09926
G1 X16.737 Y-8.039 E4.27979
G1 X16.653 Y-6.328 E0.15141
G1 X12.547 Y52.021 E5.17028
G1 X12.098 Y53.645 E0.14898
G1 X9.699 Y58.373 E0.46859
G1 X8.537 Y59.790 E0.16202
G1 X6.886 Y60.586 E0.16202
G1 X5.909 Y60.700 E0.08689
G1 X1.009 Y60.700 E0.43312
G1 X-0.780 Y60.304 E0.16202
G1 X-2.237 Y59.192 E0.16202
G1 X-2.828 Y58.276 E0.09639
G1 X-5.406 Y52.857 E0.53037
G1 X-5.794 Y51.482 E0.12635
G1 X-11.143 Y1.247 E4.46546
G1 X-10.521 Y1.181 F15000.000
G1 X-16.095 Y-51.166 E4.65319 F960.000
G1 X-16.115 Y-51.550 E0.03397
G1 X-16.115 Y-56.450 E0.43312
G1 X-15.721 Y-58.094 E0.14948
G1 X-14.623 Y-59.381 E0.14948
G1 X-12.491 Y-60.075 E0.19825
G1 X12.409 Y-60.075 E2.20096
G1 X14.054 Y-59.680 E0.14948
G1 X15.341 Y-58.583 E0.14948 F960.000
G1 X16.034 Y-56.456 E0.19776
G1 X16.112 Y-8.038 E4.27979
G1 X16.025 Y-6.295 E0.15417
G1 X11.924 Y51.977 E5.16355
G1 X11.541 Y53.362 E0.12708
G1 X9.142 Y58.090 E0.46859
G1 X8.046 Y59.378 E0.14948
G1 X5.909 Y60.075 E0.19866
G1 X1.009 Y60.075 E0.43312
G1 X-0.635 Y59.680 E0.14948
G1 X-2.264 Y58.007 E0.20641
G1 X-4.841 Y52.589 E0.53037
G1 X-5.173 Y51.415 E0.10777
G1 X-10.515 Y1.240 E4.46016
G1 E-3.20000 F3000.00000
G1 Z0.750 F15000.000
G1 X3.625 Y-0.299 F15000.000
G1 Z0.350 F15000.000
G1 E3.20000 F3000.00000
G1 X4.109 Y-7.218 E0.61307 F960.000
G1 X4.109 Y-53.150 E4.05997
G1 X-10.891 Y-53.150 E1.32588
G1 X-10.891 Y-54.850 E0.15031
G1 X10.810 Y-54.850 E1.91814
G1 X10.810 Y-19.037 E3.16564
G1 X5.811 Y-17.974 E0.45173 F960.000
G1 X7.079 Y-12.008 E0.53914
G1 X10.810 Y-12.801 E0.33716
G1 X10.810 Y-6.987 E0.51392
G1 X6.824 Y50.015 E5.05077
G1 X4.310 Y49.839 E0.22277
G1 X4.310 Y54.850 E0.44295
G1 X2.609 Y54.850 E0.15031
G1 X2.609 Y49.720 E0.45346
G1 X0.139 Y49.547 E0.21885
G1 X3.621 Y-0.240 E4.41151
G1 X2.998 Y-0.283 F15000.000
G1 X3.484 Y-7.240 E0.61644 F960.000
G1 X3.484 Y-52.525 E4.00281
G1 X-11.516 Y-52.525 E1.32588
G1 X-11.516 Y-55.475 E0.26078
G1 X11.435 Y-55.475 E2.02861
G1 X11.435 Y-18.531 E3.26560
G1 X6.552 Y-17.493 E0.44123 F960.000
G1 X7.560 Y-12.749 E0.42868
G1 X11.435 Y-13.572 E0.35013
G1 X11.435 Y-6.965 E0.58406
G1 X7.404 Y50.682 E5.10794
G1 X4.935 Y50.509 E0.21877
G1 X4.935 Y55.475 E0.43895
G1 X1.984 Y55.475 E0.26078
G1 X1.984 Y50.303 E0.45718
G1 X-0.528 Y50.127 E0.22258
G1 X2.994 Y-0.223 E4.46145
G1 X2.370 Y-0.267 F15000.000
G1 X2.859 Y-7.262 E0.61982 F960.000
G1 X2.859 Y-51.900 E3.94565
G1 X-12.141 Y-51.900 E1.32588
G1 X-12.141 Y-56.100 E0.37125
G1 X12.059 Y-56.100 E2.13909
G1 X12.059 Y-18.025 E3.36557
G1 X7.293 Y-17.011 E0.43073 F960.000
G1 X8.041 Y-13.490 E0.31821
G1 X12.059 Y-14.344 E0.36310
G1 X12.059 Y-7.711 E0.58631
G1 X12.113 Y-7.707 E0.00478
G1 X7.983 Y51.349 E5.23282
G1 X5.559 Y51.179 E0.21477
G1 X5.559 Y56.100 E0.43495
G1 X1.359 Y56.100 E0.37125
G1 X1.359 Y50.886 E0.46091
G1 X-1.195 Y50.707 E0.22631
G1 X2.366 Y-0.207 E4.51138
G1 X2.730 Y-0.442 F15000.000
G1 X10.431 Y-7.326 F15000.000
G1 X4.488 Y-13.269 E0.74299 F960.000
G1 X4.488 Y-12.385 E0.07813
G1 X10.403 Y-6.470 E0.73948
G1 X10.345 Y-5.644 E0.07320
G1 X4.488 Y-11.501 E0.73226
G1 X4.488 Y-10.618 E0.07813
G1 X10.288 Y-4.818 E0.72504
G1 X10.230 Y-3.992 E0.07320
G1 X4.488 Y-9.734 E0.71782
G1 X4.488 Y-8.850 E0.07813
G1 X10.172 Y-3.166 E0.71060
G1 X10.114 Y-2.340 E0.07320
G1 X4.488 Y-7.966 E0.70338
G1 X4.471 Y-7.099 E0.07669
G1 X10.056 Y-1.514 E0.69820
G1 X9.999 Y-0.688 E0.07320
G1 X4.414 Y-6.273 E0.69820
G1 X4.356 Y-5.447 E0.07320
G1 X9.941 Y0.138 E0.69820
G1 X9.883 Y0.964 E0.07320
G1 X4.298 Y-4.621 E0.69820
G1 X4.240 Y-3.795 E0.07320
G1 X9.825 Y1.790 E0.69821
G1 X9.768 Y2.616 E0.07320
G1 X4.183 Y-2.969 E0.69821
G1 X4.125 Y-2.143 E0.07320
G1 X9.710 Y3.442 E0.69821
G1 X9.652 Y4.268 E0.07320
G1 X4.067 Y-1.317 E0.69821
G1 X4.009 Y-0.491 E0.07320
G1 X9.594 Y5.094 E0.69821
G1 X9.537 Y5.920 E0.07320
G1 X3.952 Y0.335 E0.69821
G1 X3.894 Y1.161 E0.07320
G1 X9.479 Y6.746 E0.69821
G1 X9.421 Y7.572 E0.07320
G1 X3.836 Y1.987 E0.69821
G1 X3.778 Y2.813 E0.07320
G1 X9.363 Y8.399 E0.69821
G1 X9.306 Y9.225 E0.07320
G1 X3.720 Y3.639 E0.69821
G1 X3.663 Y4.465 E0.07320
G1 X9.248 Y10.051 E0.69821
G1 X9.190 Y10.877 E0.07320
G1 X3.605 Y5.291 E0.69821
G1 X3.547 Y6.118 E0.07320
G1 X9.132 Y11.703 E0.69822
G1 X9.075 Y12.529 E0.07320
G1 X3.489 Y6.944 E0.69822
G1 X3.432 Y7.770 E0.07320
G1 X9.017 Y13.355 E0.69822
G1 X8.959 Y14.181 E0.07320
G1 X3.374 Y8.596 E0.69822
G1 X3.316 Y9.422 E0.07320
G1 X8.901 Y15.007 E0.69822
G1 X8.843 Y15.833 E0.07320
G1 X3.258 Y10.248 E0.69822
G1 X3.201 Y11.074 E0.07320
G1 X8.786 Y16.659 E0.69822
G1 X8.728 Y17.485 E0.07320
G1 X3.143 Y11.900 E0.69822
G1 X3.085 Y12.726 E0.07320
G1 X8.670 Y18.311 E0.69822
G1 X8.612 Y19.137 E0.07320
G1 X3.027 Y13.552 E0.69822
G1 X2.970 Y14.378 E0.07320
G1 X8.555 Y19.963 E0.69822
G1 X8.497 Y20.789 E0.07320
G1 X2.912 Y15.204 E0.69822
G1 X2.854 Y16.030 E0.07320
G1 X8.439 Y21.615 E0.69823
G1 X8.381 Y22.441 E0.07320
G1 X2.796 Y16.856 E0.69823
G1 X2.738 Y17.682 E0.07320
G1 X8.324 Y23.267 E0.69823
G1 X8.266 Y24.093 E0.07320
G1 X2.681 Y18.508 E0.69823
G1 X2.623 Y19.334 E0.07320
G1 X8.208 Y24.919 E0.69823
G1 X8.150 Y25.745 E0.07320
G1 X2.565 Y20.160 E0.69823
G1 X2.507 Y20.986 E0.07320
G1 X8.093 Y26.571 E0.69823
G1 X8.035 Y27.397 E0.07320
G1 X2.450 Y21.812 E0.69823
G1 X2.392 Y22.638 E0.07320
G1 X7.977 Y28.223 E0.69823
G1 X7.919 Y29.049 E0.07320
G1 X2.334 Y23.464 E0.69823
G1 X2.276 Y24.290 E0.07320
G1 X7.862 Y29.875 E0.69823
G1 X7.804 Y30.701 E0.07320
G1 X2.219 Y25.116 E0.69823
G1 X2.161 Y25.942 E0.07320
G1 X7.746 Y31.527 E0.69823
G1 X7.688 Y32.353 E0.07320
G1 X2.103 Y26.768 E0.69824
G1 X2.045 Y27.594 E0.07320
G1 X7.631 Y33.179 E0.69824
G1 X7.573 Y34.005 E0.07320
G1 X1.987 Y28.420 E0.69824
G1 X1.930 Y29.246 E0.07320
G1 X7.515 Y34.831 E0.69824
G1 X7.457 Y35.657 E0.07320
G1 X1.872 Y30.072 E0.69824
G1 X1.814 Y30.898 E0.07320
G1 X7.399 Y36.483 E0.69824
G1 X7.342 Y37.309 E0.07320
G1 X1.756 Y31.724 E0.69824
G1 X1.699 Y32.550 E0.07320
G1 X7.284 Y38.136 E0.69824
G1 X7.226 Y38.962 E0.07320
G1 X1.641 Y33.376 E0.69824
G1 X1.583 Y34.202 E0.07320
G1 X7.168 Y39.788 E0.69824
G1 X7.111 Y40.614 E0.07320
G1 X1.525 Y35.028 E0.69824
G1 X1.468 Y35.854 E0.07320
G1 X7.053 Y41.440 E0.69824
G1 X6.995 Y42.266 E0.07320
G1 X1.410 Y36.680 E0.69825
G1 X1.352 Y37.506 E0.07320
G1 X6.937 Y43.092 E0.69825
G1 X6.880 Y43.918 E0.07320
G1 X1.294 Y38.332 E0.69825
G1 X1.236 Y39.158 E0.07320
G1 X6.822 Y44.744 E0.69825
G1 X6.764 Y45.570 E0.07320
G1 X1.179 Y39.984 E0.69825
G1 X1.121 Y40.810 E0.07320
G1 X6.706 Y46.396 E0.69825
G1 X6.649 Y47.222 E0.07320
G1 X1.063 Y41.636 E0.69825
G1 X1.005 Y42.462 E0.07320
G1 X6.591 Y48.048 E0.69825
G1 X6.533 Y48.874 E0.07320
G1 X0.948 Y43.288 E0.69825
G1 X0.890 Y44.115 E0.07320
G1 X6.369 Y49.594 E0.68501
G1 X5.419 Y49.527 E0.08421
G1 X0.832 Y44.941 E0.57343
G1 X0.774 Y45.767 E0.07320
G1 X4.469 Y49.461 E0.46186
G1 X3.931 Y49.807 F15000.000
G1 X0.717 Y46.593 E0.40187 F960.000
G1 X0.659 Y47.419 E0.07320
G1 X2.568 Y49.328 E0.23873
G1 X2.988 Y49.748 F15000.000
G1 X3.931 Y50.691 E0.11792 F960.000
G1 X3.931 Y51.575 E0.07813
G1 X2.988 Y50.631 E0.11792
G1 X2.988 Y51.515 E0.07813
G1 X3.931 Y52.459 E0.11792
G1 X3.931 Y53.342 E0.07813
G1 X2.988 Y52.399 E0.11792
G1 X2.988 Y53.283 E0.07813
G1 X3.931 Y54.226 E0.11792
G1 X3.293 Y54.472 E0.06045
G1 X2.988 Y54.167 E0.03814
G1 X1.618 Y49.262 F15000.000
G1 X0.601 Y48.245 E0.12716 F960.000
G1 X10.431 Y-11.745 F15000.000
G1 X9.925 Y-12.251 E0.06328 F960.000
G1 X9.196 Y-12.096 E0.06587
G1 X10.431 Y-10.861 E0.15440
G1 X10.431 Y-9.977 E0.07813
G1 X8.467 Y-11.941 E0.24552
G1 X7.738 Y-11.786 E0.06587
G1 X10.431 Y-9.093 E0.33664
G1 X10.431 Y-8.209 E0.07813
G1 X4.488 Y-14.153 E0.74299
G1 X4.488 Y-15.037 E0.07813
G1 X6.429 Y-13.095 E0.24273
G1 X6.191 Y-14.217 E0.10142
G1 X4.488 Y-15.920 E0.21292
G1 X4.488 Y-16.804 E0.07813
G1 X5.953 Y-15.339 E0.18310
G1 X5.714 Y-16.462 E0.10142
G1 X4.488 Y-17.688 E0.15329
G1 X5.476 Y-17.584 E0.08779
G1 X4.488 Y-18.572 E0.12347
G1 X4.488 Y-19.456 E0.07813
G1 X5.643 Y-18.300 E0.14444
G1 X6.372 Y-18.455 E0.06587
G1 X4.488 Y-20.339 E0.23556
G1 X4.488 Y-21.223 E0.07813
G1 X7.101 Y-18.610 E0.32668
G1 X7.830 Y-18.765 E0.06587
G1 X4.488 Y-22.107 E0.41779
G1 X4.488 Y-22.991 E0.07813
G1 X8.559 Y-18.920 E0.50891
G1 X9.288 Y-19.075 E0.06587
G1 X4.488 Y-23.874 E0.60003
G1 X4.488 Y-24.758 E0.07813
G1 X10.016 Y-19.230 E0.69114
G1 X10.431 Y-19.699 E0.05535
G1 X4.488 Y-25.642 E0.74299
G1 X4.488 Y-26.526 E0.07813
G1 X10.431 Y-20.583 E0.74299
G1 X10.431 Y-21.466 E0.07813
G1 X4.488 Y-27.410 E0.74299
G1 X4.488 Y-28.293 E0.07813
G1 X10.431 Y-22.350 E0.74299
G1 X10.431 Y-23.234 E0.07813
G1 X4.488 Y-29.177 E0.74299
G1 X4.488 Y-30.061 E0.07813
G1 X10.431 Y-24.118 E0.74299
G1 X10.431 Y-25.001 E0.07813
G1 X4.488 Y-30.945 E0.74299
G1 X4.488 Y-31.829 E0.07813
G1 X10.431 Y-25.885 E0.74299
G1 X10.431 Y-26.769 E0.07813
G1 X4.488 Y-32.712 E0.74299
G1 X4.488 Y-33.596 E0.07813
G1 X10.431 Y-27.653 E0.74299
G1 X10.431 Y-28.537 E0.07813
G1 X4.488 Y-34.480 E0.74299
G1 X4.488 Y-35.364 E0.07813
G1 X10.431 Y-29.420 E0.74299
G1 X10.431 Y-30.304 E0.07813
G1 X4.488 Y-36.248 E0.74299
G1 X4.488 Y-37.131 E0.07813
G1 X10.431 Y-31.188 E0.74299
G1 X10.431 Y-32.072 E0.07813
G1 X4.488 Y-38.015 E0.74299
G1 X4.488 Y-38.899 E0.07813
G1 X10.431 Y-32.956 E0.74299
G1 X10.431 Y-33.839 E0.07813
G1 X4.488 Y-39.783 E0.74299
G1 X4.488 Y-40.666 E0.07813
G1 X10.431 Y-34.723 E0.74299
G1 X10.431 Y-35.607 E0.07813
G1 X4.488 Y-41.550 E0.74299
G1 X4.488 Y-42.434 E0.07813
G1 X10.431 Y-36.491 E0.74299
G1 X10.431 Y-37.375 E0.07813
G1 X4.488 Y-43.318 E0.74299
G1 X4.488 Y-44.202 E0.07813
G1 X10.431 Y-38.258 E0.74299
G1 X10.431 Y-39.142 E0.07813
G1 X4.488 Y-45.085 E0.74299
G1 X4.488 Y-45.969 E0.07813
G1 X10.431 Y-40.026 E0.74299
G1 X10.431 Y-40.910 E0.07813
G1 X4.488 Y-46.853 E0.74299
G1 X4.488 Y-47.737 E0.07813
G1 X10.431 Y-41.793 E0.74299
G1 X10.431 Y-42.677 E0.07813
G1 X4.488 Y-48.621 E0.74299
G1 X4.488 Y-49.504 E0.07813
G1 X10.431 Y-43.561 E0.74299
G1 X10.431 Y-44.445 E0.07813
G1 X4.488 Y-50.388 E0.74299
G1 X4.488 Y-51.272 E0.07813
G1 X10.431 Y-45.329 E0.74299
G1 X10.431 Y-46.212 E0.07813
G1 X4.488 Y-52.156 E0.74299
G1 X4.488 Y-53.040 F15000.000
G1 X10.431 Y-47.096 E0.74299 F960.000
G1 X10.431 Y-47.980 E0.07813
G1 X3.939 Y-54.472 E0.81155
G1 X4.823 Y-54.472 E0.07813
G1 X10.431 Y-48.864 E0.70106
G1 X10.431 Y-49.748 E0.07813
G1 X5.707 Y-54.472 E0.59057
G1 X6.591 Y-54.472 E0.07813
G1 X10.431 Y-50.631 E0.48009
G1 X10.431 Y-51.515 E0.07813
G1 X7.475 Y-54.472 E0.36960
G1 X8.358 Y-54.472 E0.07813
G1 X10.431 Y-52.399 E0.25912
G1 X10.431 Y-53.283 E0.07813
G1 X9.242 Y-54.472 E0.14863
G1 X10.126 Y-54.472 E0.07813
G1 X10.431 Y-54.167 E0.03814
G1 X3.999 Y-53.528 F15000.000
G1 X3.056 Y-54.472 E0.11792 F960.000
G1 X2.172 Y-54.472 E0.07813
G1 X3.115 Y-53.528 E0.11792
G1 X2.231 Y-53.528 E0.07813
G1 X1.288 Y-54.472 E0.11792
G1 X0.404 Y-54.472 E0.07813
G1 X1.348 Y-53.528 E0.11792
G1 X0.464 Y-53.528 E0.07813
G1 X-0.479 Y-54.472 E0.11792
G1 X-1.363 Y-54.472 E0.07813
G1 X-0.420 Y-53.528 E0.11792
G1 X-1.304 Y-53.528 E0.07813
G1 X-2.247 Y-54.472 E0.11792
G1 X-3.131 Y-54.472 E0.07813
G1 X-2.188 Y-53.528 E0.11792
G1 X-3.071 Y-53.528 E0.07813
G1 X-4.015 Y-54.472 E0.11792
G1 X-4.898 Y-54.472 E0.07813
G1 X-3.955 Y-53.528 E0.11792
G1 X-4.839 Y-53.528 E0.07813
G1 X-5.782 Y-54.472 E0.11792
G1 X-6.666 Y-54.472 E0.07813
G1 X-5.723 Y-53.528 E0.11792
G1 X-6.606 Y-53.528 E0.07813
G1 X-7.550 Y-54.472 E0.11792
G1 X-8.434 Y-54.472 E0.07813
G1 X-7.490 Y-53.528 E0.11792
G1 X-8.374 Y-53.528 E0.07813
G1 X-9.317 Y-54.472 E0.11792
G1 X-10.201 Y-54.472 E0.07813
G1 X-9.258 Y-53.528 E0.11792
G1 X-10.142 Y-53.528 E0.07813
G1 X-10.512 Y-53.899 E0.04632
M104 S246 ; set temperature
G1 E-3.20000 F3000.00000
G1 Z0.750 F15000.000
G1 X11.495 Y-9.235 F15000.000
G1 Z0.550 F15000.000
G1 E3.20000 F3000.00000
G1 X11.495 Y-7.185 E0.05916 F4800.000
G1 X11.511 Y-7.184 E0.00045
G1 X7.460 Y50.747 E1.67612
G1 X4.995 Y50.574 E0.07131
G1 X4.995 Y55.536 E0.14320
G1 X1.924 Y55.536 E0.08866
G1 X1.924 Y50.360 E0.14940
G1 X-0.592 Y50.184 E0.07280
G1 X3.424 Y-7.242 E1.66151
G1 X3.424 Y-52.464 E1.30523
G1 X-11.576 Y-52.464 E0.43294
G1 X-11.576 Y-55.536 E0.08866
G1 X11.495 Y-55.536 E0.66591
G1 X11.495 Y-18.481 E1.06949
G1 X6.624 Y-17.446 E0.14374 F4800.000
G1 X7.607 Y-12.821 E0.13647
G1 X11.495 Y-13.647 E0.11474
G1 X11.495 Y-9.295 E0.12563
G1 X11.852 Y-9.295 F15000.000
G1 X11.852 Y-7.518 E0.05128 F4800.000
G1 X11.892 Y-7.515 E0.00115
G1 X7.791 Y51.128 E1.69672
G1 X5.352 Y50.957 E0.07056
G1 X5.352 Y55.893 E0.14246
G1 X1.567 Y55.893 E0.10927
G1 X1.567 Y50.692 E0.15010
G1 X-0.974 Y50.515 E0.07349
G1 X3.067 Y-7.255 E1.67146
G1 X3.067 Y-52.107 E1.29456
G1 X-11.933 Y-52.107 E0.43294
G1 X-11.933 Y-55.893 E0.10927
G1 X11.852 Y-55.893 E0.68652
G1 X11.852 Y-18.192 E1.08814
G1 X7.047 Y-17.171 E0.14178 F4800.000
G1 X7.882 Y-13.244 E0.11586
G1 X11.852 Y-14.088 E0.11716
G1 X11.852 Y-9.355 E0.13662
G1 X12.209 Y-9.355 F15000.000
G1 X12.209 Y-7.851 E0.04341 F4800.000
G1 X12.274 Y-7.846 E0.00185
G1 X12.209 Y-6.750 E0.03170
G1 X12.196 Y-6.750 E0.00038
G1 X8.123 Y51.509 E1.68561
G1 X5.709 Y51.340 E0.06982
G1 X5.709 Y56.250 E0.14171
G1 X1.209 Y56.250 E0.12988
G1 X1.209 Y51.025 E0.15079
G1 X-1.355 Y50.846 E0.07419
G1 X2.709 Y-7.267 E1.68140
G1 X2.709 Y-51.750 E1.28389
G1 X-12.291 Y-51.750 E0.43294
G1 X-12.291 Y-56.250 E0.12988
G1 X12.209 Y-56.250 E0.70714
G1 X12.209 Y-17.903 E1.10680
G1 X7.471 Y-16.896 E0.13982 F4800.000
G1 X8.157 Y-13.668 E0.09525
G1 X12.209 Y-14.529 E0.11958
G1 X12.209 Y-9.415 E0.14762
G1 X11.863 Y-9.155 F15000.000
G1 X7.830 Y-12.638 F15000.000
G1 X3.631 Y-8.439 E0.17164 F4800.000
G1 X3.631 Y-7.933 E0.01462
G1 X8.473 Y-12.775 E0.19790
G1 X9.115 Y-12.911 E0.01898
G1 X3.631 Y-7.428 E0.22415
G1 X3.614 Y-6.904 E0.01514
G1 X9.757 Y-13.048 E0.25112
G1 X10.399 Y-13.184 E0.01898
G1 X3.576 Y-6.361 E0.27893
G1 X3.538 Y-5.817 E0.01576
G1 X11.042 Y-13.321 E0.30674
G1 X11.288 Y-13.061 E0.01034
G1 X3.500 Y-5.273 E0.31835
G1 X3.462 Y-4.729 E0.01576
G1 X11.288 Y-12.555 E0.31990
G1 X11.288 Y-12.050 E0.01462
G1 X3.424 Y-4.186 E0.32146
G1 X3.386 Y-3.642 E0.01576
G1 X11.288 Y-11.544 E0.32301
G1 X11.288 Y-11.038 E0.01462
G1 X3.348 Y-3.098 E0.32456
G1 X3.310 Y-2.554 E0.01576
G1 X11.288 Y-10.532 E0.32612
G1 X11.288 Y-10.027 E0.01462
G1 X3.272 Y-2.011 E0.32767
G1 X3.233 Y-1.467 E0.01576
G1 X11.288 Y-9.521 E0.32923
G1 X11.288 Y-9.015 E0.01462
G1 X3.195 Y-0.923 E0.33078
G1 X3.157 Y-0.379 E0.01576
G1 X11.288 Y-8.510 E0.33234
G1 X11.288 Y-8.004 E0.01462
G1 X3.119 Y0.164 E0.33389
G1 X3.081 Y0.708 E0.01576
G1 X11.288 Y-7.498 E0.33545
G1 X11.283 Y-6.988 E0.01474
G1 X3.043 Y1.252 E0.33683
G1 X3.005 Y1.796 E0.01576
G1 X11.245 Y-6.444 E0.33683
G1 X11.207 Y-5.901 E0.01575
G1 X2.967 Y2.339 E0.33683
G1 X2.929 Y2.883 E0.01576
G1 X11.169 Y-5.357 E0.33683
G1 X11.131 Y-4.813 E0.01575
G1 X2.891 Y3.427 E0.33683
G1 X2.853 Y3.971 E0.01576
G1 X11.093 Y-4.270 E0.33683
G1 X11.055 Y-3.726 E0.01575
G1 X2.815 Y4.514 E0.33683
G1 X2.777 Y5.058 E0.01576
G1 X11.017 Y-3.182 E0.33683
G1 X10.979 Y-2.638 E0.01575
G1 X2.739 Y5.602 E0.33683
G1 X2.701 Y6.146 E0.01576
G1 X10.941 Y-2.095 E0.33683
G1 X10.903 Y-1.551 E0.01575
G1 X2.663 Y6.689 E0.33683
G1 X2.625 Y7.233 E0.01576
G1 X10.865 Y-1.007 E0.33683
G1 X10.827 Y-0.463 E0.01575
