; generated by Slic3r 1.2.9 on 2024-07-18 at 07:07:40

; external perimeters extrusion width = 0.40mm
; perimeters extrusion width = 0.40mm
; infill extrusion width = 0.40mm
; solid infill extrusion width = 0.40mm
; top infill extrusion width = 0.40mm

M107
M104 S250 ; set temperature
M83
T0
M116


M109 S250 ; wait for temperature to be reached
G21 ; set units to millimeters
G90 ; use absolute coordinates
M83 ; use relative distances for extrusion
G1 E-3.20000 F3000.00000
G1 Z0.400 F15000.000
G1 X0.000 Y12.700 F15000.000
G1 Z0.350 F15000.000
G1 E3.20000 F3000.00000
G1 X-30.450 Y12.700 E2.69153 F960.000
G1 X-32.240 Y12.304 E0.16202
G1 X-33.697 Y11.192 E0.16202
G1 X-34.550 Y9.570 E0.16202
G1 X-34.700 Y8.450 E0.09986
G1 X-34.700 Y-8.450 E1.49382
G1 X-34.304 Y-10.240 E0.16202
G1 X-33.192 Y-11.697 E0.16202
G1 X-31.570 Y-12.550 E0.16202
G1 X-30.450 Y-12.700 E0.09986
G1 X30.450 Y-12.700 E5.38307
G1 X32.240 Y-12.304 E0.16202
G1 X33.697 Y-11.192 E0.16202 F960.000
G1 X34.550 Y-9.570 E0.16202
G1 X34.700 Y-8.450 E0.09986
G1 X34.700 Y8.450 E1.49382
G1 X34.304 Y10.240 E0.16202
G1 X33.192 Y11.697 E0.16202
G1 X31.570 Y12.550 E0.16202
G1 X30.450 Y12.700 E0.09986
G1 X0.060 Y12.700 E2.68623
G1 X0.060 Y12.075 F15000.000
G1 X-30.450 Y12.075 E2.69684 F960.000
G1 X-32.094 Y11.680 E0.14948
G1 X-33.381 Y10.583 E0.14948
G1 X-34.075 Y8.450 E0.19825
G1 X-34.075 Y-8.450 E1.49382
G1 X-33.680 Y-10.094 E0.14948
G1 X-32.583 Y-11.381 E0.14948
G1 X-30.450 Y-12.075 E0.19825
G1 X30.450 Y-12.075 E5.38307
G1 X32.094 Y-11.680 E0.14948
G1 X33.381 Y-10.583 E0.14948 F960.000
G1 X34.075 Y-8.450 E0.19825
G1 X34.075 Y8.450 E1.49382
G1 X33.680 Y10.094 E0.14948
G1 X32.583 Y11.381 E0.14948
G1 X30.450 Y12.075 E0.19825
G1 X0.120 Y12.075 E2.68093
G1 E-3.20000 F3000.00000
G1 Z0.750 F15000.000
G1 X-13.087 Y4.124 F15000.000
G1 Z0.350 F15000.000
G1 E3.20000 F3000.00000
G1 X-13.445 Y4.556 E0.04957 F600.000
G1 X-13.877 Y4.913 E0.04948
G1 X-14.417 Y5.199 E0.05406
G1 X-14.954 Y5.356 E0.04944
G1 X-15.500 Y5.407 E0.04844
G1 X-16.046 Y5.356 E0.04844
G1 X-16.583 Y5.199 E0.04944
G1 X-17.123 Y4.913 E0.05406
G1 X-17.555 Y4.556 E0.04949
G1 X-17.913 Y4.124 E0.04957
G1 X-18.199 Y3.581 E0.05429
G1 X-18.355 Y3.045 E0.04941
G1 X-18.407 Y2.500 E0.04835
G1 X-18.355 Y1.955 E0.04835
G1 X-18.199 Y1.419 E0.04942
G1 X-17.913 Y0.876 E0.05429
G1 X-17.555 Y0.444 E0.04957
G1 X-17.133 Y0.095 E0.04838
G1 X-16.654 Y-0.168 E0.04827
G1 X-16.123 Y-0.341 E0.04933
G1 X-15.519 Y-0.408 E0.05379 F600.000
G1 X-14.956 Y-0.356 E0.04997
G1 X-14.417 Y-0.199 E0.04957
G1 X-13.877 Y0.087 E0.05406
G1 X-13.445 Y0.444 E0.04949
G1 X-13.087 Y0.876 E0.04957
G1 X-12.801 Y1.419 E0.05429
G1 X-12.645 Y1.955 E0.04941
G1 X-12.593 Y2.500 E0.04835
G1 X-12.645 Y3.045 E0.04835
G1 X-12.801 Y3.581 E0.04942
G1 X-13.059 Y4.071 E0.04898
G1 X-13.610 Y3.776 F15000.000
G1 X-13.889 Y4.112 E0.03866 F600.000
G1 X-14.225 Y4.391 E0.03860
G1 X-14.653 Y4.617 E0.04278
G1 X-15.072 Y4.739 E0.03858
G1 X-15.500 Y4.779 E0.03797
G1 X-15.928 Y4.739 E0.03797
G1 X-16.347 Y4.617 E0.03858
G1 X-16.775 Y4.391 E0.04279
G1 X-17.111 Y4.112 E0.03860
G1 X-17.390 Y3.775 E0.03866
G1 X-17.617 Y3.346 E0.04295
G1 X-17.739 Y2.927 E0.03856
G1 X-17.779 Y2.500 E0.03790
G1 X-17.739 Y2.073 E0.03790
G1 X-17.617 Y1.654 E0.03857
G1 X-17.390 Y1.224 E0.04295
G1 X-17.111 Y0.888 E0.03866
G1 X-16.781 Y0.614 E0.03793
G1 X-16.405 Y0.408 E0.03786
G1 X-15.991 Y0.273 E0.03851
G1 X-15.513 Y0.220 E0.04250 F600.000
G1 X-15.073 Y0.261 E0.03903
G1 X-14.653 Y0.383 E0.03866
G1 X-14.225 Y0.609 E0.04279
G1 X-13.889 Y0.888 E0.03860
G1 X-13.610 Y1.224 E0.03866
G1 X-13.383 Y1.654 E0.04295
G1 X-13.261 Y2.073 E0.03856
G1 X-13.221 Y2.500 E0.03790
G1 X-13.261 Y2.927 E0.03790
G1 X-13.383 Y3.346 E0.03856
G1 X-13.582 Y3.722 E0.03764
G1 X-14.132 Y3.427 F15000.000
G1 X-14.332 Y3.668 E0.02775 F600.000
G1 X-14.574 Y3.868 E0.02771
G1 X-14.889 Y4.035 E0.03151
G1 X-15.190 Y4.122 E0.02772
G1 X-15.500 Y4.152 E0.02750
G1 X-15.810 Y4.122 E0.02750
G1 X-16.111 Y4.035 E0.02772
G1 X-16.426 Y3.868 E0.03151
G1 X-16.668 Y3.668 E0.02771
G1 X-16.868 Y3.427 E0.02775
G1 X-17.035 Y3.110 E0.03161
G1 X-17.122 Y2.809 E0.02771
G1 X-17.152 Y2.500 E0.02746
G1 X-17.122 Y2.191 E0.02746
G1 X-17.035 Y1.890 E0.02771
G1 X-16.868 Y1.573 E0.03161
G1 X-16.668 Y1.332 E0.02775
G1 X-16.428 Y1.134 E0.02747
G1 X-16.156 Y0.984 E0.02745
G1 X-15.858 Y0.887 E0.02769
G1 X-15.507 Y0.848 E0.03121 F600.000
G1 X-15.191 Y0.877 E0.02809
G1 X-14.889 Y0.965 E0.02774
G1 X-14.574 Y1.132 E0.03151
G1 X-14.332 Y1.332 E0.02771
G1 X-14.132 Y1.573 E0.02775
G1 X-13.965 Y1.890 E0.03161
G1 X-13.878 Y2.191 E0.02771
G1 X-13.848 Y2.500 E0.02746
G1 X-13.878 Y2.809 E0.02746
G1 X-13.965 Y3.110 E0.02771
G1 X-14.104 Y3.373 E0.02630
G1 X-14.003 Y3.713 F15000.000
G1 X1.593 Y2.500 F15000.000
G1 X1.645 Y1.956 E0.04834 F600.000
G1 X1.801 Y1.419 E0.04942
G1 X2.087 Y0.875 E0.05430
G1 X2.445 Y0.444 E0.04955
G1 X2.867 Y0.095 E0.04838
G1 X3.346 Y-0.168 E0.04827
G1 X3.877 Y-0.341 E0.04934
G1 X4.481 Y-0.408 E0.05378 F600.000
G1 X5.044 Y-0.356 E0.04998
G1 X5.583 Y-0.199 E0.04956
G1 X6.123 Y0.087 E0.05406
G1 X6.555 Y0.444 E0.04949
G1 X6.912 Y0.875 E0.04955
G1 X7.199 Y1.419 E0.05430
G1 X7.355 Y1.955 E0.04942
G1 X7.407 Y2.500 E0.04835
G1 X7.355 Y3.044 E0.04834
G1 X7.199 Y3.581 E0.04942
G1 X6.913 Y4.125 E0.05430
G1 X6.555 Y4.556 E0.04955
G1 X6.133 Y4.905 E0.04838
G1 X5.643 Y5.174 E0.04939
G1 X5.058 Y5.354 E0.05412
G1 X4.500 Y5.407 E0.04955
G1 X3.942 Y5.354 E0.04955
G1 X3.357 Y5.174 E0.05412
G1 X2.867 Y4.905 E0.04939
G1 X2.445 Y4.556 E0.04838
G1 X2.087 Y4.125 E0.04955
G1 X1.801 Y3.581 E0.05430
G1 X1.645 Y3.045 E0.04942
G1 X1.599 Y2.560 E0.04304
G1 X2.221 Y2.501 F15000.000
G1 X2.261 Y2.073 E0.03797 F600.000
G1 X2.383 Y1.654 E0.03857
G1 X2.610 Y1.224 E0.04296
G1 X2.889 Y0.888 E0.03865
G1 X3.219 Y0.614 E0.03793
G1 X3.595 Y0.408 E0.03786
G1 X4.009 Y0.273 E0.03852
G1 X4.487 Y0.220 E0.04249 F600.000
G1 X4.927 Y0.261 E0.03904
G1 X5.347 Y0.383 E0.03865
G1 X5.775 Y0.609 E0.04278
G1 X6.111 Y0.888 E0.03860
G1 X6.390 Y1.224 E0.03865
G1 X6.617 Y1.654 E0.04296
G1 X6.739 Y2.073 E0.03856
G1 X6.779 Y2.500 E0.03790
G1 X6.739 Y2.927 E0.03790
G1 X6.617 Y3.346 E0.03857
G1 X6.390 Y3.776 E0.04296
G1 X6.111 Y4.112 E0.03865
G1 X5.781 Y4.386 E0.03793
G1 X5.398 Y4.595 E0.03854
G1 X4.935 Y4.738 E0.04282
G1 X4.500 Y4.779 E0.03865
G1 X4.065 Y4.738 E0.03865
G1 X3.602 Y4.595 E0.04282
G1 X3.219 Y4.386 E0.03854
G1 X2.889 Y4.112 E0.03793
G1 X2.610 Y3.776 E0.03865
G1 X2.383 Y3.346 E0.04296
G1 X2.261 Y2.927 E0.03856
G1 X2.226 Y2.561 E0.03252
G1 X2.849 Y2.502 F15000.000
G1 X2.878 Y2.191 E0.02761 F600.000
G1 X2.965 Y1.890 E0.02771
G1 X3.132 Y1.573 E0.03161
G1 X3.332 Y1.332 E0.02774
G1 X3.572 Y1.134 E0.02747
G1 X3.844 Y0.984 E0.02745
G1 X4.142 Y0.887 E0.02770
G1 X4.493 Y0.848 E0.03121 F600.000
G1 X4.810 Y0.877 E0.02810
G1 X5.111 Y0.965 E0.02774
G1 X5.426 Y1.132 E0.03151
G1 X5.668 Y1.332 E0.02771
G1 X5.868 Y1.573 E0.02774
G1 X6.035 Y1.890 E0.03161
G1 X6.122 Y2.191 E0.02771
G1 X6.152 Y2.500 E0.02746
G1 X6.122 Y2.809 E0.02746
G1 X6.035 Y3.110 E0.02771
G1 X5.868 Y3.427 E0.03161
G1 X5.668 Y3.668 E0.02774
G1 X5.428 Y3.866 E0.02747
G1 X5.153 Y4.017 E0.02769
G1 X4.813 Y4.122 E0.03153
G1 X4.500 Y4.152 E0.02775
G1 X4.187 Y4.122 E0.02775
G1 X3.847 Y4.017 E0.03153
G1 X3.572 Y3.866 E0.02769
G1 X3.332 Y3.668 E0.02747
G1 X3.132 Y3.427 E0.02774
G1 X2.965 Y3.110 E0.03161
G1 X2.878 Y2.809 E0.02771
G1 X2.854 Y2.561 E0.02200
G1 X2.583 Y2.337 F15000.000
G1 E-3.20000 F3000.00000
G1 Z0.750 F15000.000
G1 X21.593 Y2.500 F15000.000
G1 Z0.350 F15000.000
G1 E3.20000 F3000.00000
G1 X21.645 Y1.955 E0.04835 F600.000
G1 X21.801 Y1.419 E0.04941
G1 X22.087 Y0.876 E0.05429
G1 X22.445 Y0.444 E0.04957
G1 X22.867 Y0.095 E0.04839
G1 X23.346 Y-0.168 E0.04826
G1 X23.877 Y-0.341 E0.04934
G1 X24.481 Y-0.408 E0.05379 F600.000
G1 X25.044 Y-0.356 E0.04997
G1 X25.583 Y-0.199 E0.04957
G1 X26.123 Y0.087 E0.05406
G1 X26.555 Y0.444 E0.04948
G1 X26.913 Y0.876 E0.04958
G1 X27.199 Y1.419 E0.05429
G1 X27.355 Y1.955 E0.04941
G1 X27.407 Y2.500 E0.04834
G1 X27.355 Y3.045 E0.04835
G1 X27.199 Y3.581 E0.04941
G1 X26.913 Y4.124 E0.05429
G1 X26.555 Y4.556 E0.04957
G1 X26.123 Y4.913 E0.04949
G1 X25.583 Y5.199 E0.05406
G1 X25.046 Y5.356 E0.04944
G1 X24.500 Y5.407 E0.04844
G1 X23.954 Y5.356 E0.04844
G1 X23.417 Y5.199 E0.04944
G1 X22.877 Y4.913 E0.05406
G1 X22.445 Y4.556 E0.04949
G1 X22.087 Y4.124 E0.04958
G1 X21.801 Y3.581 E0.05429
G1 X21.645 Y3.045 E0.04941
G1 X21.599 Y2.560 E0.04304
G1 X22.221 Y2.501 F15000.000
G1 X22.261 Y2.073 E0.03799 F600.000
G1 X22.383 Y1.654 E0.03856
G1 X22.610 Y1.225 E0.04295
G1 X22.889 Y0.888 E0.03866
G1 X23.219 Y0.614 E0.03793
G1 X23.595 Y0.408 E0.03786
G1 X24.009 Y0.273 E0.03851
G1 X24.487 Y0.220 E0.04250 F600.000
G1 X24.927 Y0.261 E0.03903
G1 X25.347 Y0.383 E0.03865
G1 X25.775 Y0.609 E0.04279
G1 X26.111 Y0.888 E0.03860
G1 X26.390 Y1.225 E0.03866
G1 X26.617 Y1.654 E0.04295
G1 X26.739 Y2.073 E0.03856
G1 X26.779 Y2.500 E0.03790
G1 X26.739 Y2.927 E0.03790
G1 X26.617 Y3.346 E0.03856
G1 X26.390 Y3.775 E0.04295
G1 X26.111 Y4.112 E0.03866
G1 X25.775 Y4.391 E0.03860
G1 X25.347 Y4.617 E0.04278
G1 X24.928 Y4.739 E0.03858
G1 X24.500 Y4.779 E0.03797
G1 X24.072 Y4.739 E0.03797
G1 X23.653 Y4.617 E0.03858
G1 X23.225 Y4.391 E0.04278
G1 X22.889 Y4.112 E0.03860
G1 X22.610 Y3.775 E0.03866
G1 X22.383 Y3.346 E0.04295
G1 X22.261 Y2.927 E0.03856
G1 X22.226 Y2.561 E0.03251
G1 X22.849 Y2.502 F15000.000
G1 X22.878 Y2.191 E0.02763 F600.000
G1 X22.965 Y1.890 E0.02771
G1 X23.132 Y1.573 E0.03161
G1 X23.332 Y1.332 E0.02775
G1 X23.572 Y1.134 E0.02747
G1 X23.844 Y0.984 E0.02745
G1 X24.142 Y0.887 E0.02769
G1 X24.493 Y0.848 E0.03121 F600.000
G1 X24.809 Y0.877 E0.02809
G1 X25.111 Y0.965 E0.02774
G1 X25.426 Y1.132 E0.03151
G1 X25.668 Y1.332 E0.02771
G1 X25.868 Y1.573 E0.02775
G1 X26.035 Y1.890 E0.03161
G1 X26.122 Y2.191 E0.02771
G1 X26.152 Y2.500 E0.02746
G1 X26.122 Y2.809 E0.02746
G1 X26.035 Y3.110 E0.02771
G1 X25.868 Y3.427 E0.03161
G1 X25.668 Y3.668 E0.02775
G1 X25.426 Y3.868 E0.02772
G1 X25.111 Y4.035 E0.03151
G1 X24.810 Y4.122 E0.02772
G1 X24.500 Y4.152 E0.02750
G1 X24.190 Y4.122 E0.02750
G1 X23.889 Y4.035 E0.02772
G1 X23.574 Y3.868 E0.03151
G1 X23.332 Y3.668 E0.02771
G1 X23.132 Y3.427 E0.02775
G1 X22.965 Y3.110 E0.03161
G1 X22.878 Y2.809 E0.02771
G1 X22.854 Y2.562 E0.02198
G1 X22.583 Y2.337 F15000.000
G1 X-27.398 Y6.850 F15000.000
G1 X-28.850 Y6.850 E0.12839 F960.000
G1 X-28.850 Y-6.850 E1.21101
G1 X28.850 Y-6.850 E5.10025
G1 X28.850 Y6.850 E1.21101
G1 X-27.338 Y6.850 E4.96656 F960.000
G1 X-27.338 Y7.475 F15000.000
G1 X-29.475 Y7.475 E0.18893 F960.000
G1 X-29.475 Y-7.475 E1.32148
G1 X29.475 Y-7.475 E5.21072
G1 X29.475 Y7.475 E1.32148
G1 X-27.278 Y7.475 E5.01649 F960.000
G1 X-27.278 Y8.100 F15000.000
G1 X-30.100 Y8.100 E0.24947 F960.000
G1 X-30.100 Y-8.100 E1.43195
G1 X30.100 Y-8.100 E5.32119
G1 X30.100 Y8.100 E1.43195
G1 X-27.218 Y8.100 E5.06643 F960.000
G1 X-27.478 Y7.754 F15000.000
G1 X-28.472 Y6.167 F15000.000
G1 X-28.167 Y6.472 E0.03833 F960.000
G1 X-27.278 Y6.472 E0.07890
G1 X-28.472 Y5.278 E0.14991
G1 X-28.472 Y4.390 E0.07890
G1 X-26.390 Y6.472 E0.26149
G1 X-25.502 Y6.472 E0.07890
G1 X-28.472 Y3.502 E0.37307
G1 X-28.472 Y2.614 E0.07890
G1 X-24.614 Y6.472 E0.48465
G1 X-23.726 Y6.472 E0.07890
G1 X-28.472 Y1.726 E0.59623
G1 X-28.472 Y0.838 E0.07890
G1 X-22.838 Y6.472 E0.70781
G1 X-21.949 Y6.472 E0.07890
G1 X-28.472 Y-0.051 E0.81940
G1 X-28.472 Y-0.939 E0.07890
G1 X-21.061 Y6.472 E0.93098
G1 X-20.173 Y6.472 E0.07890
G1 X-28.472 Y-1.827 E1.04256
G1 X-28.472 Y-2.715 E0.07890
G1 X-19.285 Y6.472 E1.15414
G1 X-18.397 Y6.472 E0.07890
G1 X-28.472 Y-3.603 E1.26572
G1 X-28.472 Y-4.491 E0.07890
G1 X-17.509 Y6.472 E1.37730
G1 X-12.251 Y1.960 F15000.000
G1 X-7.739 Y6.472 E0.56683 F960.000
G1 X-8.627 Y6.472 E0.07890
G1 X-12.257 Y2.842 E0.45604
G1 X-12.432 Y3.555 E0.06525
G1 X-9.515 Y6.472 E0.36641
G1 X-10.403 Y6.472 E0.07890
G1 X-12.725 Y4.150 E0.29170
G1 X-13.107 Y4.656 E0.05634
G1 X-11.292 Y6.472 E0.22805
G1 X-12.180 Y6.472 E0.07890
G1 X-13.570 Y5.081 E0.17472
G1 X-14.122 Y5.418 E0.05739
G1 X-13.068 Y6.472 E0.13238
G1 X-13.956 Y6.472 E0.07890
G1 X-14.766 Y5.662 E0.10175
G1 X-14.844 Y6.472 E0.07229
G1 X-15.537 Y5.779 E0.08705
G1 X-15.732 Y6.472 E0.06395
G1 X-16.560 Y5.644 E0.10399
G1 X-16.621 Y6.472 E0.07373
G1 X-28.472 Y-5.379 E1.48888
G1 X-28.472 Y-6.268 E0.07890
G1 X-18.644 Y3.560 E1.23468
G1 X-18.779 Y2.537 E0.09167
G1 X-27.787 Y-6.472 E1.13179
G1 X-26.899 Y-6.472 E0.07890
G1 X-18.662 Y1.766 E1.03492
G1 X-18.418 Y1.122 E0.06121
G1 X-26.011 Y-6.472 E0.95394
G1 X-25.123 Y-6.472 E0.07890
G1 X-18.081 Y0.570 E0.88469
G1 X-17.656 Y0.107 E0.05584
G1 X-24.235 Y-6.472 E0.82645
G1 X-23.347 Y-6.472 E0.07890
G1 X-17.149 Y-0.274 E0.77862
G1 X-16.550 Y-0.563 E0.05908
G1 X-22.459 Y-6.472 E0.74227
G1 X-21.570 Y-6.472 E0.07890
G1 X-15.838 Y-0.739 E0.72016
G1 X-14.960 Y-0.749 E0.07802
G1 X-20.682 Y-6.472 E0.71891
G1 X-19.794 Y-6.472 E0.07890
G1 X-13.610 Y-0.288 E0.77686
G1 X-12.712 Y0.611 F15000.000
G1 X-6.851 Y6.472 E0.73633 F960.000
G1 X-5.963 Y6.472 E0.07890
G1 X-18.906 Y-6.472 E1.62609
G1 X-18.018 Y-6.472 E0.07890
G1 X-5.074 Y6.472 E1.62609
G1 X-4.186 Y6.472 E0.07890
G1 X-17.130 Y-6.472 E1.62609
G1 X-16.241 Y-6.472 E0.07890
G1 X-3.298 Y6.472 E1.62609
G1 X-2.410 Y6.472 E0.07890
G1 X-15.353 Y-6.472 E1.62609
G1 X-14.465 Y-6.472 E0.07890
G1 X-1.522 Y6.472 E1.62609
G1 X-0.634 Y6.472 E0.07890
G1 X-13.577 Y-6.472 E1.62609
G1 X-12.689 Y-6.472 E0.07890
G1 X0.255 Y6.472 E1.62609
G1 X1.143 Y6.472 E0.07890
G1 X-11.801 Y-6.472 E1.62609
G1 X-10.912 Y-6.472 E0.07890
G1 X2.031 Y6.472 E1.62609
G1 X1.697 Y4.362 F15000.000
G1 X-9.136 Y-6.472 E1.36102 F960.000
G1 X-10.024 Y-6.472 E0.07890
G1 X2.919 Y6.472 E1.62609
G1 X2.638 Y5.303 E0.10679
G1 X3.807 Y6.472 E0.14685
G1 X3.974 Y5.751 E0.06574
G1 X4.695 Y6.472 E0.09057
G1 X4.854 Y5.742 E0.06633
G1 X5.583 Y6.472 E0.09167
G1 X6.472 Y6.472 E0.07890
G1 X5.561 Y5.561 E0.11446
G1 X6.158 Y5.269 E0.05900
G1 X7.360 Y6.472 E0.15104
G1 X8.248 Y6.472 E0.07890
G1 X6.664 Y4.887 E0.19904
G1 X7.087 Y4.423 E0.05585
G1 X9.136 Y6.472 E0.25743
G1 X10.024 Y6.472 E0.07890
G1 X7.423 Y3.870 E0.32686
G1 X7.665 Y3.224 E0.06130
G1 X10.912 Y6.472 E0.40804
G1 X11.801 Y6.472 E0.07890
G1 X7.780 Y2.451 E0.50513
G1 X7.638 Y1.421 E0.09232
G1 X12.689 Y6.472 E0.63447
G1 X13.577 Y6.472 E0.07890
G1 X0.634 Y-6.472 E1.62609
G1 X1.522 Y-6.472 E0.07890
G1 X14.465 Y6.472 E1.62609
G1 X15.353 Y6.472 E0.07890
G1 X2.410 Y-6.472 E1.62609
G1 X3.298 Y-6.472 E0.07890
G1 X16.241 Y6.472 E1.62609
G1 X17.130 Y6.472 E0.07890
G1 X4.186 Y-6.472 E1.62609
G1 X5.074 Y-6.472 E0.07890
G1 X18.018 Y6.472 E1.62609
G1 X18.906 Y6.472 E0.07890
G1 X5.963 Y-6.472 E1.62609
G1 X6.851 Y-6.472 E0.07890
G1 X19.794 Y6.472 E1.62609
G1 X20.682 Y6.472 E0.07890
G1 X7.739 Y-6.472 E1.62609
G1 X8.627 Y-6.472 E0.07890
G1 X21.570 Y6.472 E1.62609
G1 X22.458 Y6.472 E0.07890
G1 X9.515 Y-6.472 E1.62609
G1 X10.403 Y-6.472 E0.07890
G1 X23.347 Y6.472 E1.62609
G1 X23.394 Y5.630 F15000.000
G1 X24.235 Y6.472 E0.10569 F960.000
G1 X24.433 Y5.782 E0.06378
G1 X25.123 Y6.472 E0.08670
G1 X25.209 Y5.669 E0.07170
G1 X26.011 Y6.472 E0.10082
G1 X26.899 Y6.472 E0.07890
G1 X25.857 Y5.429 E0.13095
G1 X26.412 Y5.096 E0.05750
G1 X27.787 Y6.472 E0.17285
G1 X28.472 Y6.268 E0.06342
G1 X26.878 Y4.674 E0.20017
G1 X27.263 Y4.171 E0.05628
G1 X28.472 Y5.380 E0.15180
G1 X28.472 Y4.491 E0.07890
G1 X27.561 Y3.581 E0.11442
G1 X27.740 Y2.872 E0.06496
G1 X28.472 Y3.603 E0.09190
G1 X28.472 Y2.715 E0.07890
G1 X27.753 Y1.996 E0.09033
G1 X28.472 Y1.827 E0.06561
G1 X27.325 Y0.680 E0.14406
G1 E-3.20000 F3000.00000
G1 Z0.750 F15000.000
G1 X21.370 Y3.606 F15000.000
G1 Z0.350 F15000.000
G1 E3.20000 F3000.00000
G1 X11.292 Y-6.472 E1.26613 F960.000
G1 X12.180 Y-6.472 E0.07890
G1 X21.218 Y2.567 E1.13556
G1 X21.331 Y1.792 E0.06962
G1 X13.068 Y-6.472 E1.03812
G1 X13.956 Y-6.472 E0.07890
G1 X21.571 Y1.143 E0.95665
G1 X21.904 Y0.588 E0.05750
G1 X14.844 Y-6.472 E0.88695
G1 X15.732 Y-6.472 E0.07890
G1 X22.326 Y0.122 E0.82832
G1 X22.830 Y-0.262 E0.05630
G1 X16.620 Y-6.472 E0.78008
G1 X17.509 Y-6.472 E0.07890
G1 X23.425 Y-0.555 E0.74329
G1 X24.132 Y-0.736 E0.06486
G1 X18.397 Y-6.472 E0.72057
