; generated by Slic3r 1.2.9 on 2024-07-16 at 21:07:56

; external perimeters extrusion width = 0.40mm
; perimeters extrusion width = 0.40mm
; infill extrusion width = 0.40mm
; solid infill extrusion width = 0.40mm
; top infill extrusion width = 0.40mm

M107
M104 S250 ; set temperature
M83
T0
M116


M109 S250 ; wait for temperature to be reached
G21 ; set units to millimeters
G90 ; use absolute coordinates
M83 ; use relative distances for extrusion
G1 E-3.20000 F3000.00000
G1 Z0.400 F15000.000
G1 X-11.398 Y-1.214 F15000.000
G1 Z0.350 F15000.000
G1 E3.20000 F3000.00000
G1 X-5.794 Y-53.844 E4.67838 F960.000
G1 X-5.211 Y-55.582 E0.16202
G1 X-3.951 Y-56.913 E0.16202
G1 X-1.865 Y-57.633 E0.19512
G1 X8.012 Y-58.324 E0.87511
G1 X9.825 Y-58.054 E0.16202
G1 X11.356 Y-57.046 E0.16202 F960.000
G1 X12.320 Y-55.487 E0.16202
G1 X12.547 Y-54.383 E0.09969
G1 X16.649 Y3.889 E5.16355
G1 X16.731 Y5.447 E0.13789
G1 X16.659 Y54.095 E4.30004
G1 X16.261 Y55.884 E0.16202
G1 X15.146 Y57.339 E0.16202
G1 X13.523 Y58.189 E0.16202
G1 X12.409 Y58.338 E0.09926
G1 X-12.491 Y58.338 E2.20096
G1 X-14.280 Y57.942 E0.16202
G1 X-15.737 Y56.830 E0.16202
G1 X-16.590 Y55.208 E0.16202
G1 X-16.740 Y54.088 E0.09986
G1 X-16.740 Y49.188 E0.43312
G1 X-16.716 Y48.738 E0.03983
G1 X-11.404 Y-1.154 E4.43496
G1 X-10.783 Y-1.088 F15000.000
G1 X-5.173 Y-53.778 E4.68369 F960.000
G1 X-4.606 Y-55.371 E0.14948
G1 X-3.379 Y-56.534 E0.14948
G1 X-1.821 Y-57.010 E0.14396
G1 X8.055 Y-57.701 E0.87511
G1 X9.723 Y-57.422 E0.14948
G1 X11.083 Y-56.417 E0.14948 F960.000
G1 X11.924 Y-54.339 E0.19811
G1 X16.025 Y3.933 E5.16355
G1 X16.107 Y5.480 E0.13690
G1 X16.034 Y54.094 E4.29706
G1 X15.637 Y55.738 E0.14948
G1 X14.538 Y57.022 E0.14948
G1 X12.409 Y57.713 E0.19776
G1 X-12.491 Y57.713 E2.20096
G1 X-14.135 Y57.318 E0.14948
G1 X-15.422 Y56.221 E0.14948
G1 X-16.115 Y54.088 E0.19825
G1 X-16.115 Y49.188 E0.43312
G1 X-16.095 Y48.804 E0.03397
G1 X-10.789 Y-1.028 E4.42966
G1 E-3.20000 F3000.00000
G1 Z0.750 F15000.000
G1 X4.109 Y6.200 F15000.000
G1 Z0.350 F15000.000
G1 E3.20000 F3000.00000
G1 X4.109 Y4.856 E0.11879 F960.000
G1 X0.139 Y-51.910 E5.02989
G1 X6.824 Y-52.377 E0.59229
G1 X10.810 Y4.624 E5.05077
G1 X10.810 Y10.439 E0.51392 F960.000
G1 X7.079 Y9.645 E0.33716
G1 X5.811 Y15.612 E0.53914
G1 X10.810 Y16.674 E0.45173
G1 X10.810 Y52.488 E3.16564
G1 X-10.891 Y52.488 E1.91814
G1 X-10.891 Y50.788 E0.15031
G1 X4.109 Y50.788 E1.32588
G1 X4.109 Y6.260 E3.93588
G1 X3.484 Y6.260 F15000.000
G1 X3.484 Y4.878 E0.12216 F960.000
G1 X-0.528 Y-52.489 E5.08319
G1 X7.404 Y-53.044 E0.70276
G1 X11.435 Y4.603 E5.10794
G1 X11.435 Y11.210 E0.58406 F960.000
G1 X7.560 Y10.387 E0.35013
G1 X6.552 Y15.130 E0.42868
G1 X11.435 Y16.168 E0.44123
G1 X11.435 Y53.113 E3.26560
G1 X-11.516 Y53.113 E2.02861
G1 X-11.516 Y50.163 E0.26078
G1 X3.484 Y50.163 E1.32588
G1 X3.484 Y6.320 E3.87535
G1 X2.859 Y6.320 F15000.000
G1 X2.859 Y4.900 E0.12554 F960.000
G1 X-1.195 Y-53.069 E5.13650
G1 X7.983 Y-53.711 E0.81323
G1 X12.056 Y4.538 E5.16129
G1 X12.113 Y5.345 E0.07153 F960.000
G1 X12.059 Y5.349 E0.00478
G1 X12.059 Y11.982 E0.58631
G1 X8.041 Y11.128 E0.36310
G1 X7.293 Y14.649 E0.31821
G1 X12.059 Y15.662 E0.43073
G1 X12.059 Y53.738 E3.36557
G1 X-12.141 Y53.738 E2.13909
G1 X-12.141 Y49.538 E0.37125
G1 X2.859 Y49.538 E1.32588
G1 X2.859 Y6.380 E3.81481
G1 X3.206 Y6.120 F15000.000
G1 X5.467 Y15.526 F15000.000
G1 X4.488 Y14.547 E0.12270 F960.000
G1 X4.488 Y13.661 E0.07847
G1 X5.622 Y14.796 E0.14214
G1 X5.778 Y14.065 E0.06616
G1 X4.488 Y12.776 E0.16159
G1 X4.488 Y11.890 E0.07847
G1 X5.933 Y13.335 E0.18104
G1 X6.088 Y12.604 E0.06616
G1 X4.488 Y11.004 E0.20049
G1 X4.488 Y10.118 E0.07847
G1 X6.243 Y11.874 E0.21994
G1 X6.399 Y11.143 E0.06616
G1 X4.488 Y9.233 E0.23939
G1 X4.488 Y8.347 E0.07847
G1 X6.554 Y10.413 E0.25883
G1 X6.709 Y9.682 E0.06616
G1 X4.488 Y7.461 E0.27828
G1 X4.488 Y6.576 E0.07847
G1 X7.156 Y9.244 E0.33429
G1 X8.281 Y9.483 E0.10187
G1 X4.488 Y5.690 E0.47521
G1 X4.488 Y4.804 E0.07847
G1 X9.406 Y9.722 E0.61613
G1 X10.431 Y9.862 E0.09169
G1 X4.429 Y3.859 E0.75203
G1 X4.362 Y2.907 E0.08457
G1 X10.431 Y8.976 E0.76038
G1 X10.431 Y8.090 E0.07847
G1 X4.295 Y1.955 E0.76872
G1 X4.229 Y1.002 E0.08457
G1 X10.431 Y7.205 E0.77707
G1 X10.431 Y6.319 E0.07847
G1 X4.162 Y0.050 E0.78541
G1 X4.096 Y-0.902 E0.08457
G1 X10.431 Y5.433 E0.79375
G1 X10.414 Y4.530 E0.08000
G1 X4.029 Y-1.855 E0.79995
G1 X3.962 Y-2.807 E0.08457
G1 X10.347 Y3.578 E0.79996
G1 X10.281 Y2.626 E0.08457
G1 X3.896 Y-3.759 E0.79996
G1 X3.829 Y-4.712 E0.08457
G1 X10.214 Y1.673 E0.79996
G1 X10.148 Y0.721 E0.08457
G1 X3.763 Y-5.664 E0.79996
G1 X3.696 Y-6.616 E0.08457
G1 X10.081 Y-0.231 E0.79996
G1 X10.014 Y-1.184 E0.08457
G1 X3.629 Y-7.569 E0.79996
G1 X3.563 Y-8.521 E0.08457
G1 X9.948 Y-2.136 E0.79996
G1 X9.881 Y-3.088 E0.08457
G1 X3.496 Y-9.473 E0.79996
G1 X3.430 Y-10.426 E0.08457
G1 X9.815 Y-4.040 E0.79996
G1 X9.748 Y-4.993 E0.08457
G1 X3.363 Y-11.378 E0.79997
G1 X3.296 Y-12.330 E0.08457
G1 X9.682 Y-5.945 E0.79997
G1 X9.615 Y-6.897 E0.08457
G1 X3.230 Y-13.283 E0.79997
G1 X3.163 Y-14.235 E0.08457
G1 X9.548 Y-7.850 E0.79997
G1 X9.482 Y-8.802 E0.08457
G1 X3.097 Y-15.187 E0.79997
G1 X3.030 Y-16.139 E0.08457
G1 X9.415 Y-9.754 E0.79997
G1 X9.349 Y-10.707 E0.08457
G1 X2.963 Y-17.092 E0.79997
G1 X2.897 Y-18.044 E0.08457
G1 X9.282 Y-11.659 E0.79997
G1 X9.215 Y-12.611 E0.08457
G1 X2.830 Y-18.996 E0.79997
G1 X2.764 Y-19.949 E0.08457
G1 X9.149 Y-13.564 E0.79998
G1 X9.082 Y-14.516 E0.08457
G1 X2.697 Y-20.901 E0.79998
G1 X2.630 Y-21.853 E0.08457
G1 X9.016 Y-15.468 E0.79998
G1 X8.949 Y-16.421 E0.08457
G1 X2.564 Y-22.806 E0.79998
G1 X2.497 Y-23.758 E0.08457
G1 X8.882 Y-17.373 E0.79998
G1 X8.816 Y-18.325 E0.08457
G1 X2.431 Y-24.710 E0.79998
G1 X2.364 Y-25.663 E0.08457
G1 X8.749 Y-19.277 E0.79998
G1 X8.683 Y-20.230 E0.08457
G1 X2.297 Y-26.615 E0.79998
G1 X2.231 Y-27.567 E0.08457
G1 X8.616 Y-21.182 E0.79998
G1 X8.549 Y-22.134 E0.08457
G1 X2.164 Y-28.520 E0.79999
G1 X2.098 Y-29.472 E0.08457
G1 X8.483 Y-23.087 E0.79999
G1 X8.416 Y-24.039 E0.08457
G1 X2.031 Y-30.424 E0.79999
G1 X1.964 Y-31.377 E0.08457
G1 X8.350 Y-24.991 E0.79999
G1 X8.283 Y-25.944 E0.08457
G1 X1.898 Y-32.329 E0.79999
G1 X1.831 Y-33.281 E0.08457
G1 X8.217 Y-26.896 E0.79999
G1 X8.150 Y-27.848 E0.08457
G1 X1.765 Y-34.234 E0.79999
G1 X1.698 Y-35.186 E0.08457
G1 X8.083 Y-28.801 E0.79999
G1 X8.017 Y-29.753 E0.08457
G1 X1.631 Y-36.138 E0.79999
G1 X1.565 Y-37.090 E0.08457
G1 X7.950 Y-30.705 E0.80000
G1 X7.884 Y-31.657 E0.08457
G1 X1.498 Y-38.043 E0.80000
G1 X1.432 Y-38.995 E0.08457
G1 X7.817 Y-32.610 E0.80000
G1 X7.750 Y-33.562 E0.08457
G1 X1.365 Y-39.947 E0.80000
G1 X1.298 Y-40.900 E0.08457
G1 X7.684 Y-34.514 E0.80000
G1 X7.617 Y-35.467 E0.08457
G1 X1.232 Y-41.852 E0.80000
G1 X1.165 Y-42.804 E0.08457
G1 X7.551 Y-36.419 E0.80000
G1 X7.484 Y-37.371 E0.08457
G1 X1.099 Y-43.757 E0.80000
G1 X1.032 Y-44.709 E0.08457
G1 X7.417 Y-38.324 E0.80000
G1 X7.351 Y-39.276 E0.08457
G1 X0.965 Y-45.661 E0.80000
G1 X0.899 Y-46.614 E0.08457
G1 X7.284 Y-40.228 E0.80001
G1 X7.218 Y-41.181 E0.08457
G1 X0.832 Y-47.566 E0.80001
G1 X0.766 Y-48.518 E0.08457
G1 X7.151 Y-42.133 E0.80001
G1 X7.084 Y-43.085 E0.08457
G1 X0.699 Y-49.471 E0.80001
G1 X0.632 Y-50.423 E0.08457
G1 X7.018 Y-44.038 E0.80001
G1 X6.951 Y-44.990 E0.08457
G1 X0.566 Y-51.375 E0.80001
G1 X1.213 Y-51.614 E0.06109
G1 X6.885 Y-45.942 E0.71062
G1 X6.818 Y-46.894 E0.08457
G1 X2.041 Y-51.672 E0.59856
G1 X2.868 Y-51.730 E0.07352
G1 X6.751 Y-47.847 E0.48650
G1 X6.685 Y-48.799 E0.08457
G1 X3.696 Y-51.788 E0.37444
G1 X4.524 Y-51.846 E0.07352
G1 X6.618 Y-49.751 E0.26238
G1 X6.552 Y-50.704 E0.08457
G1 X5.352 Y-51.904 E0.15032
G1 X6.180 Y-51.961 E0.07352
G1 X6.485 Y-51.656 E0.03826
G1 X6.014 Y16.073 F15000.000
G1 X10.431 Y20.490 E0.55342 F960.000
G1 X10.431 Y21.376 E0.07847
G1 X4.488 Y15.433 E0.74462
G1 X4.488 Y16.318 E0.07847
G1 X10.431 Y22.262 E0.74462
G1 X10.431 Y23.147 E0.07847
G1 X4.488 Y17.204 E0.74462
G1 X4.488 Y18.090 E0.07847
G1 X10.431 Y24.033 E0.74462
G1 X10.431 Y24.919 E0.07847
G1 X4.488 Y18.976 E0.74462
G1 X4.488 Y19.861 E0.07847
G1 X10.431 Y25.805 E0.74462
G1 X10.431 Y26.690 E0.07847
G1 X4.488 Y20.747 E0.74462
G1 X4.488 Y21.633 E0.07847
G1 X10.431 Y27.576 E0.74462
G1 X10.431 Y28.462 E0.07847
G1 X4.488 Y22.519 E0.74462
G1 X4.488 Y23.404 E0.07847
G1 X10.431 Y29.348 E0.74462
G1 X10.431 Y30.233 E0.07847
G1 X4.488 Y24.290 E0.74462
G1 X4.488 Y25.176 E0.07847
G1 X10.431 Y31.119 E0.74462
G1 X10.431 Y32.005 E0.07847
G1 X4.488 Y26.061 E0.74462
G1 X4.488 Y26.947 E0.07847
G1 X10.431 Y32.890 E0.74462
G1 X10.431 Y33.776 E0.07847
G1 X4.488 Y27.833 E0.74462
G1 X4.488 Y28.719 E0.07847
G1 X10.431 Y34.662 E0.74462
G1 X10.431 Y35.548 E0.07847
G1 X4.488 Y29.604 E0.74462
G1 X4.488 Y30.490 E0.07847
G1 X10.431 Y36.433 E0.74462
G1 X10.431 Y37.319 E0.07847
G1 X4.488 Y31.376 E0.74462
G1 X4.488 Y32.261 E0.07847
G1 X10.431 Y38.205 E0.74462
G1 X10.431 Y39.090 E0.07847
G1 X4.488 Y33.147 E0.74462
G1 X4.488 Y34.033 E0.07847
G1 X10.431 Y39.976 E0.74462
G1 X10.431 Y40.862 E0.07847
G1 X4.488 Y34.919 E0.74462
G1 X4.488 Y35.804 E0.07847
G1 X10.431 Y41.748 E0.74462
G1 X10.431 Y42.633 E0.07847
G1 X4.488 Y36.690 E0.74462
G1 X4.488 Y37.576 E0.07847
G1 X10.431 Y43.519 E0.74462
G1 X10.431 Y44.405 E0.07847
G1 X4.488 Y38.461 E0.74462
G1 X4.488 Y39.347 E0.07847
G1 X10.431 Y45.290 E0.74462
G1 X10.431 Y46.176 E0.07847
G1 X4.488 Y40.233 E0.74462
G1 X4.488 Y41.119 E0.07847
G1 X10.431 Y47.062 E0.74462
G1 X10.431 Y47.948 E0.07847
G1 X4.488 Y42.004 E0.74462
G1 X4.488 Y42.890 E0.07847
G1 X10.431 Y48.833 E0.74462
G1 X10.431 Y49.719 E0.07847
G1 X4.488 Y43.776 E0.74462
G1 X4.488 Y44.661 E0.07847
G1 X10.431 Y50.605 E0.74462
G1 X10.431 Y51.490 E0.07847
G1 X4.488 Y45.547 E0.74462
G1 X4.488 Y46.433 E0.07847
G1 X10.164 Y52.109 E0.71120
G1 X9.279 Y52.109 E0.07847
G1 X4.488 Y47.319 E0.60023
G1 X4.488 Y48.204 E0.07847
G1 X8.393 Y52.109 E0.48926
G1 X7.507 Y52.109 E0.07847
G1 X4.488 Y49.090 E0.37829
G1 X4.488 Y49.976 E0.07847
G1 X6.622 Y52.109 E0.26732
G1 X5.736 Y52.109 E0.07847
G1 X4.488 Y50.862 E0.15636
G1 X3.907 Y51.166 F15000.000
G1 X4.850 Y52.109 E0.11818 F960.000
G1 X3.964 Y52.109 E0.07847
G1 X3.021 Y51.166 E0.11818
G1 X2.135 Y51.166 E0.07847
G1 X3.079 Y52.109 E0.11818
G1 X2.193 Y52.109 E0.07847
G1 X1.250 Y51.166 E0.11818
G1 X0.364 Y51.166 E0.07847
G1 X1.307 Y52.109 E0.11818
G1 X0.422 Y52.109 E0.07847
G1 X-0.522 Y51.166 E0.11818
G1 X-1.407 Y51.166 E0.07847
G1 X-0.464 Y52.109 E0.11818
G1 X-1.350 Y52.109 E0.07847
G1 X-2.293 Y51.166 E0.11818
G1 X-3.179 Y51.166 E0.07847
G1 X-2.236 Y52.109 E0.11818
G1 X-3.121 Y52.109 E0.07847
G1 X-4.065 Y51.166 E0.11818
G1 X-4.950 Y51.166 E0.07847
G1 X-4.007 Y52.109 E0.11818
G1 X-4.893 Y52.109 E0.07847
G1 X-5.836 Y51.166 E0.11818
G1 X-6.722 Y51.166 E0.07847
G1 X-5.779 Y52.109 E0.11818
G1 X-6.664 Y52.109 E0.07847
G1 X-7.608 Y51.166 E0.11818
G1 X-8.493 Y51.166 E0.07847
G1 X-7.550 Y52.109 E0.11818
G1 X-8.436 Y52.109 E0.07847
G1 X-9.379 Y51.166 E0.11818
G1 X-10.265 Y51.166 E0.07847
G1 X-9.321 Y52.109 E0.11818
G1 X-10.207 Y52.109 E0.07847
G1 X-10.512 Y51.804 E0.03822
G1 E-3.20000 F3000.00000
G1 Z0.750 F15000.000
G1 X10.431 Y19.605 F15000.000
G1 Z0.350 F15000.000
G1 E3.20000 F3000.00000
G1 X7.139 Y16.312 E0.41250 F960.000
G1 X8.264 Y16.551 E0.10188
G1 X10.431 Y18.719 E0.27157
G1 X10.431 Y17.833 E0.07847
G1 X9.388 Y16.790 E0.13064
M104 S246 ; set temperature
G1 E-3.20000 F3000.00000
G1 Z0.750 F15000.000
G1 X11.016 Y-2.259 F15000.000
G1 Z0.550 F15000.000
G1 E3.20000 F3000.00000
G1 X11.511 Y4.822 E0.20489 F4800.000
G1 X11.495 Y4.823 E0.00045 F4800.000
G1 X11.495 Y11.285 E0.18652
G1 X7.607 Y10.459 E0.11474
G1 X6.624 Y15.084 E0.13647
G1 X11.495 Y16.119 E0.14374
G1 X11.495 Y53.174 E1.06949
G1 X-11.576 Y53.174 E0.66591
G1 X-11.576 Y50.102 E0.08866
G1 X3.424 Y50.102 E0.43294
G1 X3.424 Y4.880 E1.30523
G1 X-0.592 Y-52.546 E1.66151
G1 X7.460 Y-53.109 E0.23298
G1 X11.011 Y-2.319 E1.46950
G1 X11.368 Y-2.344 F15000.000
G1 X11.863 Y4.745 E0.20511 F4800.000
G1 X11.892 Y5.153 E0.01181 F4800.000
G1 X11.852 Y5.156 E0.00115
G1 X11.852 Y11.726 E0.18964
G1 X7.882 Y10.882 E0.11716
G1 X7.047 Y14.809 E0.11586
G1 X11.852 Y15.830 E0.14178
G1 X11.852 Y53.531 E1.08814
G1 X-11.933 Y53.531 E0.68652
G1 X-11.933 Y49.745 E0.10927
G1 X3.067 Y49.745 E0.43294
G1 X3.067 Y4.893 E1.29456
G1 X-0.974 Y-52.877 E1.67146
G1 X7.791 Y-53.490 E0.25359
G1 X11.363 Y-2.404 E1.47808
G1 X11.720 Y-2.429 F15000.000
G1 X12.196 Y4.388 E0.19723 F4800.000
G1 X12.209 Y4.388 E0.00038 F4800.000
G1 X12.274 Y5.484 E0.03170
G1 X12.209 Y5.489 E0.00185
G1 X12.209 Y12.167 E0.19276
G1 X8.157 Y11.306 E0.11958
G1 X7.471 Y14.534 E0.09525
G1 X12.209 Y15.541 E0.13982
G1 X12.209 Y53.888 E1.10680
G1 X-12.291 Y53.888 E0.70714
G1 X-12.291 Y49.388 E0.12988
G1 X2.709 Y49.388 E0.43294
G1 X2.709 Y4.905 E1.28389
G1 X-1.355 Y-53.208 E1.68140
G1 X8.123 Y-53.871 E0.27420
G1 X11.716 Y-2.489 E1.48665
G1 X11.388 Y-2.205 F15000.000
G1 X11.288 Y5.630 F15000.000
G1 X3.631 Y13.286 E0.31372 F4800.000
G1 X3.631 Y12.779 E0.01469
G1 X11.288 Y5.123 E0.31372
G1 X11.288 Y4.616 E0.01469
G1 X3.631 Y12.272 E0.31372
G1 X3.631 Y11.765 E0.01469
G1 X11.260 Y4.137 E0.31257
G1 X11.227 Y3.663 E0.01376
G1 X3.631 Y11.258 E0.31122
G1 X3.631 Y10.751 E0.01469
G1 X11.193 Y3.189 E0.30986
G1 X11.160 Y2.715 E0.01376
G1 X3.631 Y10.244 E0.30850
G1 X3.631 Y9.737 E0.01469
G1 X11.127 Y2.241 E0.30714
G1 X11.094 Y1.768 E0.01376
G1 X3.631 Y9.230 E0.30579
G1 X3.631 Y8.723 E0.01469
G1 X11.061 Y1.294 E0.30443
G1 X11.028 Y0.820 E0.01376
G1 X3.631 Y8.216 E0.30307
G1 X3.631 Y7.709 E0.01469
G1 X10.995 Y0.346 E0.30171
G1 X10.962 Y-0.128 E0.01376
G1 X3.631 Y7.203 E0.30036
G1 X3.631 Y6.696 E0.01469
G1 X10.928 Y-0.601 E0.29900
G1 X10.895 Y-1.075 E0.01376
G1 X3.631 Y6.189 E0.29764
G1 X3.631 Y5.682 E0.01469
G1 X10.862 Y-1.549 E0.29628
G1 X10.829 Y-2.023 E0.01376
G1 X3.631 Y5.175 E0.29493
G1 X3.613 Y4.686 E0.01417
G1 X10.796 Y-2.497 E0.29431
G1 X10.763 Y-2.970 E0.01376
G1 X3.580 Y4.212 E0.29431
G1 X3.547 Y3.738 E0.01376
G1 X10.730 Y-3.444 E0.29431
G1 X10.697 Y-3.918 E0.01376
G1 X3.514 Y3.265 E0.29431
G1 X3.481 Y2.791 E0.01376
G1 X10.663 Y-4.392 E0.29431
G1 X10.630 Y-4.866 E0.01376
G1 X3.448 Y2.317 E0.29431
G1 X3.414 Y1.843 E0.01376
G1 X10.597 Y-5.339 E0.29431
G1 X10.564 Y-5.813 E0.01376
G1 X3.381 Y1.369 E0.29431
G1 X3.348 Y0.896 E0.01376
G1 X10.531 Y-6.287 E0.29431
G1 X10.498 Y-6.761 E0.01376
G1 X3.315 Y0.422 E0.29431
G1 X3.282 Y-0.052 E0.01376
G1 X10.465 Y-7.235 E0.29431
G1 X10.431 Y-7.708 E0.01376
G1 X3.249 Y-0.526 E0.29431
G1 X3.216 Y-1.000 E0.01376
G1 X10.398 Y-8.182 E0.29431
G1 X10.365 Y-8.656 E0.01376
G1 X3.182 Y-1.473 E0.29432
G1 X3.149 Y-1.947 E0.01376
G1 X10.332 Y-9.130 E0.29432
G1 X10.299 Y-9.604 E0.01376
G1 X3.116 Y-2.421 E0.29432
G1 X3.083 Y-2.895 E0.01376
G1 X10.266 Y-10.077 E0.29432
G1 X10.233 Y-10.551 E0.01376
G1 X3.050 Y-3.369 E0.29432
G1 X3.017 Y-3.842 E0.01376
G1 X10.200 Y-11.025 E0.29432
G1 X10.166 Y-11.499 E0.01376
G1 X2.984 Y-4.316 E0.29432
G1 X2.951 Y-4.790 E0.01376
G1 X10.133 Y-11.973 E0.29432
G1 X10.100 Y-12.446 E0.01376
G1 X2.917 Y-5.264 E0.29432
G1 X2.884 Y-5.738 E0.01376
G1 X10.067 Y-12.920 E0.29432
G1 X10.034 Y-13.394 E0.01376
G1 X2.851 Y-6.211 E0.29432
G1 X2.818 Y-6.685 E0.01376
G1 X10.001 Y-13.868 E0.29432
G1 X9.968 Y-14.342 E0.01376
G1 X2.785 Y-7.159 E0.29432
G1 X2.752 Y-7.633 E0.01376
G1 X9.934 Y-14.815 E0.29432
G1 X9.901 Y-15.289 E0.01376
G1 X2.719 Y-8.107 E0.29432
G1 X2.685 Y-8.580 E0.01376
G1 X9.868 Y-15.763 E0.29432
G1 X9.835 Y-16.237 E0.01376
G1 X2.652 Y-9.054 E0.29432
G1 X2.619 Y-9.528 E0.01376
G1 X9.802 Y-16.711 E0.29432
G1 X9.769 Y-17.185 E0.01376
G1 X2.586 Y-10.002 E0.29432
G1 X2.553 Y-10.476 E0.01376
G1 X9.736 Y-17.658 E0.29432
G1 X9.703 Y-18.132 E0.01376
G1 X2.520 Y-10.949 E0.29432
G1 X2.487 Y-11.423 E0.01376
G1 X9.669 Y-18.606 E0.29432
G1 X9.636 Y-19.080 E0.01376
G1 X2.454 Y-11.897 E0.29432
G1 X2.420 Y-12.371 E0.01376
G1 X9.603 Y-19.554 E0.29432
G1 X9.570 Y-20.027 E0.01376
G1 X2.387 Y-12.845 E0.29432
G1 X2.354 Y-13.318 E0.01376
G1 X9.537 Y-20.501 E0.29432
G1 X9.504 Y-20.975 E0.01376
G1 X2.321 Y-13.792 E0.29432
G1 X2.288 Y-14.266 E0.01376
G1 X9.471 Y-21.449 E0.29432
G1 X9.438 Y-21.923 E0.01376
G1 X2.255 Y-14.740 E0.29432
