; generated by Slic3r 1.2.9 on 2024-07-24 at 11:54:22

; external perimeters extrusion width = 0.40mm
; perimeters extrusion width = 0.40mm
; infill extrusion width = 0.40mm
; solid infill extrusion width = 0.40mm
; top infill extrusion width = 0.40mm

M107
M104 S250 ; set temperature
M83
T0
M116


M109 S250 ; wait for temperature to be reached
G21 ; set units to millimeters
G90 ; use absolute coordinates
M83 ; use relative distances for extrusion
G1 E-3.20000 F3000.00000
G1 Z0.400 F15000.000
G1 X-11.569 Y-1.151 F15000.000
G1 Z0.350 F15000.000
G1 E3.20000 F3000.00000
G1 X-6.058 Y-56.561 E4.92202 F960.000
G1 X-5.488 Y-58.303 E0.16202
G1 X-4.236 Y-59.643 E0.16202
G1 X-2.126 Y-60.380 E0.19763
G1 X7.750 Y-61.071 E0.87511
G1 X9.564 Y-60.802 E0.16202
G1 X11.095 Y-59.794 E0.16202 F960.000
G1 X12.059 Y-58.235 E0.16202
G1 X12.287 Y-57.128 E0.09987
G1 X16.824 Y7.933 E5.76480
G1 X16.572 Y56.857 E4.32457
G1 X16.168 Y58.645 E0.16202
G1 X15.048 Y60.096 E0.16202
G1 X13.421 Y60.940 E0.16202
G1 X12.323 Y61.085 E0.09794
G1 X-12.577 Y61.085 E2.20096
G1 X-14.367 Y60.689 E0.16202
G1 X-15.824 Y59.577 E0.16202
G1 X-16.677 Y57.955 E0.16202
G1 X-16.827 Y56.835 E0.09986
G1 X-16.827 Y51.935 E0.43312
G1 X-16.806 Y51.514 E0.03722
G1 X-11.575 Y-1.091 E4.67282
G1 X-10.953 Y-1.029 F15000.000
G1 X-5.436 Y-56.499 E4.92732 F960.000
G1 X-4.881 Y-58.097 E0.14948
G1 X-3.661 Y-59.268 E0.14948
G1 X-2.082 Y-59.757 E0.14612
G1 X7.794 Y-60.448 E0.87511
G1 X9.462 Y-60.169 E0.14948
G1 X10.822 Y-59.164 E0.14948 F960.000
G1 X11.663 Y-57.084 E0.19826
G1 X16.190 Y7.658 E5.73667
G1 X15.947 Y56.854 E4.34856
G1 X15.544 Y58.496 E0.14948
G1 X14.440 Y59.777 E0.14948
G1 X12.323 Y60.460 E0.19668
G1 X-12.577 Y60.460 E2.20096
G1 X-14.222 Y60.065 E0.14948
G1 X-15.509 Y58.968 E0.14948
G1 X-16.202 Y56.835 E0.19825
G1 X-16.202 Y51.935 E0.43312
G1 X-16.185 Y51.576 E0.03175
G1 X-10.959 Y-0.969 E4.66752
G1 E-3.20000 F3000.00000
G1 Z0.750 F15000.000
G1 X3.484 Y-3.101 F15000.000
G1 Z0.350 F15000.000
G1 E3.20000 F3000.00000
G1 X-0.122 Y-54.656 E4.56825 F960.000
G1 X6.563 Y-55.124 E0.59230
G1 X10.867 Y6.426 E5.45383
G1 X10.723 Y6.436 E0.01275 F960.000
G1 X10.723 Y12.686 E0.55241
G1 X6.992 Y11.893 E0.33716
G1 X5.724 Y17.859 E0.53915
G1 X10.723 Y18.922 E0.45173
G1 X10.723 Y55.235 E3.20984
G1 X-10.978 Y55.235 E1.91814
G1 X-10.978 Y53.535 E0.15031
G1 X4.022 Y53.535 E1.32588
G1 X4.022 Y8.535 E3.97764
G1 X4.298 Y8.535 E0.02434
G1 X3.488 Y-3.041 E1.02568
G1 X2.865 Y-2.997 F15000.000
G1 X-0.789 Y-55.236 E4.62879 F960.000
G1 X7.143 Y-55.791 E0.70277
G1 X11.534 Y7.006 E5.56431
G1 X11.348 Y7.019 E0.01648 F960.000
G1 X11.348 Y13.457 E0.56910
G1 X7.473 Y12.634 E0.35013
G1 X6.465 Y17.378 E0.42868
G1 X11.348 Y18.416 E0.44123
G1 X11.348 Y55.860 E3.30980
G1 X-11.603 Y55.860 E2.02861
G1 X-11.603 Y52.910 E0.26078
G1 X3.397 Y52.910 E1.32588
G1 X3.397 Y7.910 E3.97764
G1 X3.628 Y7.910 E0.02035
G1 X2.869 Y-2.937 E0.96114
G1 X2.246 Y-2.894 F15000.000
G1 X-1.456 Y-55.816 E4.68932 F960.000
G1 X7.722 Y-56.458 E0.81324
G1 X12.201 Y7.586 E5.67479
G1 X11.973 Y7.602 E0.02021 F960.000
G1 X11.973 Y14.229 E0.58579
G1 X7.954 Y13.375 E0.36310
G1 X7.206 Y16.896 E0.31821
G1 X11.973 Y17.910 E0.43073
G1 X11.973 Y56.485 E3.40976
G1 X-12.227 Y56.485 E2.13909
G1 X-12.227 Y52.285 E0.37125
G1 X2.773 Y52.285 E1.32588
G1 X2.773 Y7.285 E3.97764
G1 X2.957 Y7.285 E0.01635
G1 X2.250 Y-2.834 E0.89661
G1 X2.577 Y-3.117 F15000.000
G1 E-3.20000 F3000.00000
G1 Z0.750 F15000.000
G1 X10.344 Y19.692 F15000.000
G1 Z0.350 F15000.000
G1 E3.20000 F3000.00000
G1 X9.795 Y19.142 E0.06886 F960.000
G1 X8.670 Y18.903 E0.10189
G1 X10.344 Y20.578 E0.20980
G1 X10.344 Y21.464 E0.07847
G1 X7.545 Y18.664 E0.35074
G1 X6.420 Y18.425 E0.10189
G1 X10.344 Y22.349 E0.49168
G1 X10.344 Y23.235 E0.07847
G1 X4.401 Y17.292 E0.74465
G1 X4.401 Y16.406 E0.07847
G1 X5.448 Y17.453 E0.13123
G1 X5.603 Y16.723 E0.06617
G1 X4.401 Y15.520 E0.15068
G1 X4.401 Y14.634 E0.07847
G1 X5.759 Y15.992 E0.17013
G1 X5.914 Y15.262 E0.06617
G1 X4.401 Y13.749 E0.18958
G1 X4.401 Y12.863 E0.07847
G1 X6.069 Y14.531 E0.20903
G1 X6.224 Y13.801 E0.06617
G1 X4.401 Y11.977 E0.22848
G1 X4.401 Y11.091 E0.07847
G1 X6.380 Y13.070 E0.24793
G1 X6.535 Y12.340 E0.06617
G1 X4.401 Y10.206 E0.26738
G1 X4.401 Y9.320 E0.07847
G1 X6.690 Y11.609 E0.28683
G1 X7.563 Y11.596 E0.07730
G1 X4.701 Y8.734 E0.35856
G1 X4.634 Y7.782 E0.08458
G1 X8.687 Y11.835 E0.50784
G1 X9.812 Y12.074 E0.10188
G1 X4.568 Y6.829 E0.65712
G1 X4.501 Y5.877 E0.08458
G1 X10.344 Y11.720 E0.73212
G1 X10.344 Y10.834 E0.07847
G1 X4.434 Y4.925 E0.74046
G1 X4.368 Y3.972 E0.08458
G1 X10.344 Y9.949 E0.74881
G1 X10.344 Y9.063 E0.07847
G1 X4.301 Y3.020 E0.75715
G1 X4.234 Y2.067 E0.08458
G1 X10.344 Y8.177 E0.76550
G1 X10.344 Y7.291 E0.07847
G1 X4.168 Y1.115 E0.77384
G1 X4.101 Y0.163 E0.08458
G1 X10.344 Y6.406 E0.78219
G1 X10.419 Y5.595 E0.07211
G1 X4.035 Y-0.790 E0.79996
G1 X3.968 Y-1.742 E0.08458
G1 X10.353 Y4.643 E0.79997
G1 X10.286 Y3.690 E0.08458
G1 X3.901 Y-2.694 E0.79997
G1 X3.835 Y-3.647 E0.08458
G1 X10.220 Y2.738 E0.79997
G1 X10.153 Y1.786 E0.08458
G1 X3.768 Y-4.599 E0.79997
G1 X3.702 Y-5.551 E0.08458
G1 X10.086 Y0.833 E0.79997
G1 X10.020 Y-0.119 E0.08458
G1 X3.635 Y-6.504 E0.79997
G1 X3.568 Y-7.456 E0.08458
G1 X9.953 Y-1.071 E0.79998
G1 X9.887 Y-2.024 E0.08458
G1 X3.502 Y-8.409 E0.79998
G1 X3.435 Y-9.361 E0.08458
G1 X9.820 Y-2.976 E0.79998
G1 X9.754 Y-3.928 E0.08458
G1 X3.369 Y-10.313 E0.79998
G1 X3.302 Y-11.266 E0.08458
G1 X9.687 Y-4.881 E0.79998
G1 X9.620 Y-5.833 E0.08458
G1 X3.235 Y-12.218 E0.79998
G1 X3.169 Y-13.170 E0.08458
G1 X9.554 Y-6.785 E0.79998
G1 X9.487 Y-7.738 E0.08458
G1 X3.102 Y-14.123 E0.79999
G1 X3.036 Y-15.075 E0.08458
G1 X9.421 Y-8.690 E0.79999
G1 X9.354 Y-9.642 E0.08458
G1 X2.969 Y-16.027 E0.79999
G1 X2.902 Y-16.980 E0.08458
G1 X9.287 Y-10.595 E0.79999
G1 X9.221 Y-11.547 E0.08458
G1 X2.836 Y-17.932 E0.79999
G1 X2.769 Y-18.885 E0.08458
G1 X9.154 Y-12.500 E0.79999
G1 X9.088 Y-13.452 E0.08458
G1 X2.703 Y-19.837 E0.80000
G1 X2.636 Y-20.789 E0.08458
G1 X9.021 Y-14.404 E0.80000
G1 X8.954 Y-15.357 E0.08458
G1 X2.569 Y-21.742 E0.80000
G1 X2.503 Y-22.694 E0.08458
G1 X8.888 Y-16.309 E0.80000
G1 X8.821 Y-17.261 E0.08458
G1 X2.436 Y-23.646 E0.80000
G1 X2.370 Y-24.599 E0.08458
G1 X8.755 Y-18.214 E0.80000
G1 X8.688 Y-19.166 E0.08458
G1 X2.303 Y-25.551 E0.80000
G1 X2.236 Y-26.503 E0.08458
G1 X8.621 Y-20.118 E0.80001
G1 X8.555 Y-21.071 E0.08458
G1 X2.170 Y-27.456 E0.80001
G1 X2.103 Y-28.408 E0.08458
G1 X8.488 Y-22.023 E0.80001
G1 X8.422 Y-22.975 E0.08458
G1 X2.037 Y-29.361 E0.80001
G1 X1.970 Y-30.313 E0.08458
G1 X8.355 Y-23.928 E0.80001
G1 X8.288 Y-24.880 E0.08458
G1 X1.903 Y-31.265 E0.80001
G1 X1.837 Y-32.218 E0.08458
G1 X8.222 Y-25.832 E0.80001
G1 X8.155 Y-26.785 E0.08458
G1 X1.770 Y-33.170 E0.80002
G1 X1.704 Y-34.122 E0.08458
G1 X8.089 Y-27.737 E0.80002
G1 X8.022 Y-28.690 E0.08458
G1 X1.637 Y-35.075 E0.80002
G1 X1.570 Y-36.027 E0.08458
G1 X7.956 Y-29.642 E0.80002
G1 X7.889 Y-30.594 E0.08458
G1 X1.504 Y-36.979 E0.80002
G1 X1.437 Y-37.932 E0.08458
G1 X7.822 Y-31.547 E0.80002
G1 X7.756 Y-32.499 E0.08458
G1 X1.370 Y-38.884 E0.80003
G1 X1.304 Y-39.837 E0.08458
G1 X7.689 Y-33.451 E0.80003
G1 X7.623 Y-34.404 E0.08458
G1 X1.237 Y-40.789 E0.80003
G1 X1.171 Y-41.741 E0.08458
G1 X7.556 Y-35.356 E0.80003
G1 X7.489 Y-36.308 E0.08458
G1 X1.104 Y-42.694 E0.80003
G1 X1.037 Y-43.646 E0.08458
G1 X7.423 Y-37.261 E0.80003
G1 X7.356 Y-38.213 E0.08458
G1 X0.971 Y-44.598 E0.80003
G1 X0.904 Y-45.551 E0.08458
G1 X7.290 Y-39.165 E0.80004
G1 X7.223 Y-40.118 E0.08458
G1 X0.838 Y-46.503 E0.80004
G1 X0.771 Y-47.455 E0.08458
G1 X7.156 Y-41.070 E0.80004
G1 X7.090 Y-42.022 E0.08458
G1 X0.704 Y-48.408 E0.80004
G1 X0.638 Y-49.360 E0.08458
G1 X7.023 Y-42.975 E0.80004
G1 X6.957 Y-43.927 E0.08458
G1 X0.571 Y-50.313 E0.80004
G1 X0.505 Y-51.265 E0.08458
G1 X6.890 Y-44.880 E0.80005
G1 X6.823 Y-45.832 E0.08458
G1 X0.438 Y-52.217 E0.80005
G1 X0.371 Y-53.170 E0.08458
G1 X6.757 Y-46.784 E0.80005
G1 X6.690 Y-47.737 E0.08458
G1 X0.305 Y-54.122 E0.80005
G1 X0.952 Y-54.361 E0.06109
G1 X6.624 Y-48.689 E0.71066
G1 X6.557 Y-49.641 E0.08458
G1 X1.780 Y-54.419 E0.59859
G1 X2.607 Y-54.477 E0.07352
G1 X6.490 Y-50.594 E0.48653
G1 X6.424 Y-51.546 E0.08458
G1 X3.435 Y-54.535 E0.37446
G1 X4.263 Y-54.593 E0.07352
G1 X6.357 Y-52.498 E0.26240
G1 X6.291 Y-53.451 E0.08458
G1 X5.091 Y-54.651 E0.15033
G1 X5.919 Y-54.708 E0.07352
G1 X6.224 Y-54.403 E0.03827
G1 E-3.20000 F3000.00000
G1 Z0.750 F15000.000
G1 X10.344 Y24.121 F15000.000
G1 Z0.350 F15000.000
G1 E3.20000 F3000.00000
G1 X4.401 Y18.178 E0.74465 F960.000
G1 X4.401 Y19.063 E0.07847
G1 X10.344 Y25.007 E0.74465
G1 X10.344 Y25.892 E0.07847
G1 X4.401 Y19.949 E0.74465
G1 X4.401 Y20.835 E0.07847
G1 X10.344 Y26.778 E0.74465
G1 X10.344 Y27.664 E0.07847
G1 X4.401 Y21.721 E0.74465
G1 X4.401 Y22.606 E0.07847
G1 X10.344 Y28.550 E0.74465
G1 X10.344 Y29.435 E0.07847
G1 X4.401 Y23.492 E0.74465
G1 X4.401 Y24.378 E0.07847
G1 X10.344 Y30.321 E0.74465
G1 X10.344 Y31.207 E0.07847
G1 X4.401 Y25.264 E0.74465
G1 X4.401 Y26.149 E0.07847
G1 X10.344 Y32.093 E0.74465
G1 X10.344 Y32.978 E0.07847
G1 X4.401 Y27.035 E0.74465
G1 X4.401 Y27.921 E0.07847
G1 X10.344 Y33.864 E0.74465
G1 X10.344 Y34.750 E0.07847
G1 X4.401 Y28.807 E0.74465
G1 X4.401 Y29.692 E0.07847
G1 X10.344 Y35.636 E0.74465
G1 X10.344 Y36.521 E0.07847
G1 X4.401 Y30.578 E0.74465
G1 X4.401 Y31.464 E0.07847
G1 X10.344 Y37.407 E0.74465
G1 X10.344 Y38.293 E0.07847
G1 X4.401 Y32.350 E0.74465
G1 X4.401 Y33.235 E0.07847
G1 X10.344 Y39.179 E0.74465
G1 X10.344 Y40.064 E0.07847
G1 X4.401 Y34.121 E0.74465
G1 X4.401 Y35.007 E0.07847
G1 X10.344 Y40.950 E0.74465
G1 X10.344 Y41.836 E0.07847
G1 X4.401 Y35.893 E0.74465
G1 X4.401 Y36.778 E0.07847
G1 X10.344 Y42.722 E0.74465
G1 X10.344 Y43.608 E0.07847
G1 X4.401 Y37.664 E0.74465
G1 X4.401 Y38.550 E0.07847
G1 X10.344 Y44.493 E0.74465
G1 X10.344 Y45.379 E0.07847
G1 X4.401 Y39.436 E0.74465
G1 X4.401 Y40.322 E0.07847
G1 X10.344 Y46.265 E0.74465
G1 X10.344 Y47.151 E0.07847
G1 X4.401 Y41.207 E0.74465
G1 X4.401 Y42.093 E0.07847
G1 X10.344 Y48.036 E0.74465
G1 X10.344 Y48.922 E0.07847
G1 X4.401 Y42.979 E0.74465
G1 X4.401 Y43.865 E0.07847
G1 X10.344 Y49.808 E0.74465
G1 X10.344 Y50.694 E0.07847
G1 X4.401 Y44.750 E0.74465
G1 X4.401 Y45.636 E0.07847
G1 X10.344 Y51.579 E0.74465
G1 X10.344 Y52.465 E0.07847
G1 X4.401 Y46.522 E0.74465
G1 X4.401 Y47.408 E0.07847
G1 X10.344 Y53.351 E0.74465
G1 X10.344 Y54.237 E0.07847
G1 X4.401 Y48.293 E0.74465
G1 X4.401 Y49.179 E0.07847
G1 X10.078 Y54.857 E0.71135
G1 X9.193 Y54.857 E0.07847
G1 X4.401 Y50.065 E0.60037
G1 X4.401 Y50.951 E0.07847
G1 X8.307 Y54.857 E0.48939
G1 X7.421 Y54.857 E0.07847
G1 X4.401 Y51.836 E0.37841
G1 X4.401 Y52.722 E0.07847
G1 X6.535 Y54.857 E0.26744
G1 X5.650 Y54.857 E0.07847
G1 X4.401 Y53.608 E0.15646
G1 X3.821 Y53.913 F15000.000
G1 X4.764 Y54.857 E0.11819 F960.000
G1 X3.878 Y54.857 E0.07847
G1 X2.935 Y53.913 E0.11819
G1 X2.049 Y53.913 E0.07847
G1 X2.992 Y54.857 E0.11819
G1 X2.107 Y54.857 E0.07847
G1 X1.163 Y53.913 E0.11819
G1 X0.277 Y53.913 E0.07847
G1 X1.221 Y54.857 E0.11819
G1 X0.335 Y54.857 E0.07847
G1 X-0.608 Y53.913 E0.11819
G1 X-1.494 Y53.913 E0.07847
G1 X-0.551 Y54.857 E0.11819
G1 X-1.437 Y54.857 E0.07847
G1 X-2.380 Y53.913 E0.11819
G1 X-3.266 Y53.913 E0.07847
G1 X-2.322 Y54.857 E0.11819
G1 X-3.208 Y54.857 E0.07847
G1 X-4.151 Y53.913 E0.11819
G1 X-5.037 Y53.913 E0.07847
G1 X-4.094 Y54.857 E0.11819
G1 X-4.980 Y54.857 E0.07847
G1 X-5.923 Y53.913 E0.11819
G1 X-6.809 Y53.913 E0.07847
G1 X-5.865 Y54.857 E0.11819
G1 X-6.751 Y54.857 E0.07847
G1 X-7.694 Y53.913 E0.11819
G1 X-8.580 Y53.913 E0.07847
G1 X-7.637 Y54.857 E0.11819
G1 X-8.523 Y54.857 E0.07847
G1 X-9.466 Y53.913 E0.11819
G1 X-10.352 Y53.913 E0.07847
G1 X-9.408 Y54.857 E0.11819
G1 X-10.294 Y54.857 E0.07847
G1 X-10.599 Y54.552 E0.03822
M104 S246 ; set temperature
G1 E-3.20000 F3000.00000
G1 Z0.750 F15000.000
G1 X3.151 Y1.964 F15000.000
G1 Z0.550 F15000.000
G1 E3.20000 F3000.00000
G1 X-0.853 Y-55.292 E1.65662 F4800.000
G1 X7.199 Y-55.856 E0.23298
G1 X11.598 Y7.062 E1.82042
G1 X11.408 Y7.076 E0.00550 F4800.000
G1 X11.408 Y13.532 E0.18636
G1 X7.520 Y12.706 E0.11474
G1 X6.537 Y17.331 E0.13647
G1 X11.408 Y18.366 E0.14374
G1 X11.408 Y55.921 E1.08392
G1 X-11.663 Y55.921 E0.66591
G1 X-11.663 Y52.849 E0.08866
G1 X3.337 Y52.849 E0.43294
G1 X3.337 Y7.849 E1.29882
G1 X3.562 Y7.849 E0.00652
G1 X3.155 Y2.024 E0.16853
G1 X2.799 Y2.049 F15000.000
G1 X-1.235 Y-55.624 E1.66866 F4800.000
G1 X7.530 Y-56.237 E0.25359
G1 X11.980 Y7.394 E1.84104
G1 X11.765 Y7.409 E0.00620 F4800.000
G1 X11.765 Y13.973 E0.18947
G1 X7.795 Y13.129 E0.11716
G1 X6.960 Y17.056 E0.11586
G1 X11.765 Y18.077 E0.14178
G1 X11.765 Y56.278 E1.10258
G1 X-12.020 Y56.278 E0.68652
G1 X-12.020 Y52.492 E0.10927
G1 X2.980 Y52.492 E0.43294
G1 X2.980 Y7.492 E1.29882
G1 X3.180 Y7.492 E0.00577
G1 X2.803 Y2.109 E0.15575
G1 X2.447 Y2.134 F15000.000
G1 X-1.616 Y-55.955 E1.68070 F4800.000
G1 X7.862 Y-56.618 E0.27421
G1 X7.887 Y-56.255 E0.01049
G1 X12.361 Y7.725 E1.85116 F4800.000
G1 X12.123 Y7.742 E0.00689
G1 X12.123 Y14.414 E0.19259
G1 X8.070 Y13.553 E0.11958
G1 X7.384 Y16.781 E0.09525
G1 X12.123 Y17.788 E0.13982
G1 X12.123 Y56.635 E1.12123
G1 X-12.377 Y56.635 E0.70714
G1 X-12.377 Y52.135 E0.12988
G1 X2.623 Y52.135 E0.43294
G1 X2.623 Y7.135 E1.29882
G1 X2.797 Y7.135 E0.00502
G1 X2.451 Y2.194 E0.14296
G1 X2.778 Y1.910 F15000.000
G1 X11.201 Y9.547 F15000.000
G1 X8.113 Y12.634 E0.12607 F4800.000
G1 X8.530 Y12.723 E0.01230
G1 X11.201 Y10.052 E0.10906
G1 X11.201 Y10.557 E0.01459
G1 X8.947 Y12.811 E0.09204
G1 X9.363 Y12.900 E0.01230
G1 X11.201 Y11.062 E0.07503
G1 X11.201 Y11.568 E0.01459
G1 X9.780 Y12.988 E0.05801
G1 X10.197 Y13.077 E0.01230
G1 X11.201 Y12.073 E0.04100
G1 X11.201 Y12.578 E0.01459
G1 X10.613 Y13.165 E0.02398
G1 X11.030 Y13.254 E0.01230
G1 X11.201 Y13.083 E0.00697
G1 E-3.20000 F3000.00000
G1 Z0.950 F15000.000
G1 X3.056 Y53.057 F15000.000
G1 Z0.550 F15000.000
G1 E3.20000 F3000.00000
G1 X0.400 Y55.713 E0.10847 F4800.000
G1 X-0.106 Y55.713 E0.01459
G1 X2.550 Y53.057 E0.10847
G1 X2.045 Y53.057 E0.01459
G1 X-0.611 Y55.713 E0.10847
G1 X-1.116 Y55.713 E0.01459
G1 X1.540 Y53.057 E0.10847
G1 X1.035 Y53.057 E0.01459
G1 X-1.621 Y55.713 E0.10847
G1 X-2.127 Y55.713 E0.01459
G1 X0.530 Y53.057 E0.10847
G1 X0.024 Y53.057 E0.01459
G1 X-2.632 Y55.713 E0.10847
G1 X-3.137 Y55.713 E0.01459
G1 X-0.481 Y53.057 E0.10847
G1 X-0.986 Y53.057 E0.01459
G1 X-3.642 Y55.713 E0.10847
G1 X-4.147 Y55.713 E0.01459
G1 X-1.491 Y53.057 E0.10847
G1 X-1.996 Y53.057 E0.01459
G1 X-4.653 Y55.713 E0.10847
G1 X-5.158 Y55.713 E0.01459
G1 X-2.502 Y53.057 E0.10847
G1 X-3.007 Y53.057 E0.01459
G1 X-5.663 Y55.713 E0.10847
G1 X-6.168 Y55.713 E0.01459
G1 X-3.512 Y53.057 E0.10847
G1 X-4.017 Y53.057 E0.01459
G1 X-6.674 Y55.713 E0.10847
G1 X-7.179 Y55.713 E0.01459
G1 X-4.523 Y53.057 E0.10847
G1 X-5.028 Y53.057 E0.01459
G1 X-7.684 Y55.713 E0.10847
G1 X-8.189 Y55.713 E0.01459
G1 X-5.533 Y53.057 E0.10847
G1 X-6.038 Y53.057 E0.01459
G1 X-8.694 Y55.713 E0.10847
G1 X-9.200 Y55.713 E0.01459
G1 X-6.543 Y53.057 E0.10847
G1 X-7.049 Y53.057 E0.01459
G1 X-9.705 Y55.713 E0.10847
G1 X-10.210 Y55.713 E0.01459
G1 X-7.554 Y53.057 E0.10847
G1 X-8.059 Y53.057 E0.01459
G1 X-10.715 Y55.713 E0.10847
G1 X-11.221 Y55.713 E0.01459
G1 X-8.564 Y53.057 E0.10847
G1 X-9.070 Y53.057 E0.01459
G1 X-11.456 Y55.443 E0.09744
G1 X-11.456 Y54.938 E0.01459
G1 X-9.575 Y53.057 E0.07681
G1 X-10.080 Y53.057 E0.01459
G1 X-11.456 Y54.433 E0.05618
G1 X-11.456 Y53.927 E0.01459
G1 X-10.585 Y53.057 E0.03554
G1 X-11.090 Y53.057 E0.01459
G1 X-11.456 Y53.422 E0.01491
G1 X11.009 Y55.713 F15000.000
G1 X11.201 Y55.522 E0.00782 F4800.000
G1 X11.201 Y55.016 E0.01459
G1 X10.504 Y55.713 E0.02845
G1 X9.999 Y55.713 E0.01459
G1 X11.201 Y54.511 E0.04908
G1 X11.201 Y54.006 E0.01459
G1 X9.493 Y55.713 E0.06971
G1 X8.988 Y55.713 E0.01459
G1 X11.201 Y53.501 E0.09035
G1 X11.201 Y52.996 E0.01459
G1 X8.483 Y55.713 E0.11098
G1 X7.978 Y55.713 E0.01459
G1 X11.201 Y52.490 E0.13161
G1 X11.201 Y51.985 E0.01459
G1 X7.473 Y55.713 E0.15224
G1 X6.967 Y55.713 E0.01459
G1 X11.201 Y51.480 E0.17287
G1 X11.201 Y50.975 E0.01459
G1 X6.462 Y55.713 E0.19350
