; generated by Slic3r 1.2.9 on 2024-07-28 at 20:10:48

; external perimeters extrusion width = 0.40mm
; perimeters extrusion width = 0.40mm
; infill extrusion width = 0.40mm
; solid infill extrusion width = 0.40mm
; top infill extrusion width = 0.40mm

M107
M104 S250 ; set temperature
M83
T0
M116


M109 S250 ; wait for temperature to be reached
G21 ; set units to millimeters
G90 ; use absolute coordinates
M83 ; use relative distances for extrusion
G1 E-3.20000 F3000.00000
G1 Z0.400 F15000.000
G1 X-1.155 Y11.569 F15000.000
G1 Z0.350 F15000.000
G1 E3.20000 F3000.00000
G1 X-56.363 Y6.058 E4.90419 F960.000
G1 X-58.104 Y5.487 E0.16202
G1 X-59.444 Y4.235 E0.16202
G1 X-60.180 Y2.126 E0.19749
G1 X-60.871 Y-7.750 E0.87511
G1 X-60.602 Y-9.564 E0.16202
G1 X-59.594 Y-11.095 E0.16202
G1 X-58.035 Y-12.059 E0.16202
G1 X-56.928 Y-12.287 E0.09987
G1 X7.814 Y-16.814 E5.73667
G1 X56.657 Y-16.572 E4.31737
G1 X58.445 Y-16.168 E0.16202 F960.000
G1 X59.896 Y-15.048 E0.16202
G1 X60.740 Y-13.421 E0.16202
G1 X60.885 Y-12.323 E0.09793
G1 X60.885 Y12.577 E2.20096
G1 X60.489 Y14.367 E0.16202
G1 X59.377 Y15.824 E0.16202
G1 X57.755 Y16.677 E0.16202
G1 X56.635 Y16.827 E0.09986
G1 X51.735 Y16.827 E0.43312
G1 X51.313 Y16.806 E0.03736
G1 X-1.095 Y11.575 E4.65547
G1 X-1.033 Y10.953 F15000.000
G1 X-56.301 Y5.436 E4.90949 F960.000
G1 X-57.898 Y4.880 E0.14948
G1 X-59.069 Y3.660 E0.14948
G1 X-59.557 Y2.082 E0.14600
G1 X-60.248 Y-7.794 E0.87511
G1 X-59.969 Y-9.462 E0.14948
G1 X-58.964 Y-10.822 E0.14948
G1 X-56.884 Y-11.663 E0.19826
G1 X7.858 Y-16.190 E5.73667
G1 X56.654 Y-15.947 E4.31323
G1 X58.296 Y-15.544 E0.14948 F960.000
G1 X59.577 Y-14.440 E0.14948
G1 X60.260 Y-12.323 E0.19667
G1 X60.260 Y12.577 E2.20096
G1 X59.865 Y14.222 E0.14948
G1 X58.768 Y15.509 E0.14948
G1 X56.635 Y16.202 E0.19825
G1 X51.735 Y16.202 E0.43312
G1 X51.375 Y16.184 E0.03187
G1 X-0.973 Y10.959 E4.65016
G1 E-3.20000 F3000.00000
G1 Z0.750 F15000.000
G1 X-19.083 Y-9.069 F15000.000
G1 Z0.350 F15000.000
G1 E3.20000 F3000.00000
G1 X6.627 Y-10.867 E2.27806 F960.000
G1 X6.637 Y-10.723 E0.01276
G1 X13.486 Y-10.723 E0.60538 F960.000
G1 X12.693 Y-6.992 E0.33716
G1 X18.659 Y-5.724 E0.53915
G1 X19.722 Y-10.723 E0.45173
G1 X55.035 Y-10.723 E3.12144
G1 X55.035 Y10.978 E1.91814
G1 X53.335 Y10.978 E0.15031
G1 X53.335 Y-4.022 E1.32588
G1 X8.335 Y-4.022 E3.97764
G1 X8.335 Y-4.270 E0.02187
G1 X-54.456 Y0.122 E5.56379
G1 X-54.924 Y-6.563 E0.59230
G1 X-19.143 Y-9.065 E3.17052
G1 X-19.186 Y-9.688 F15000.000
G1 X7.206 Y-11.534 E2.33858 F960.000
G1 X7.219 Y-11.348 E0.01648
G1 X14.257 Y-11.348 E0.62210 F960.000
G1 X13.434 Y-7.473 E0.35013
G1 X18.178 Y-6.465 E0.42868
G1 X19.216 Y-11.348 E0.44123
G1 X55.660 Y-11.348 E3.22141
G1 X55.660 Y11.603 E2.02861
G1 X52.710 Y11.603 E0.26078
G1 X52.710 Y-3.397 E1.32588
G1 X7.710 Y-3.397 E3.97764
G1 X7.710 Y-3.600 E0.01787
G1 X-55.036 Y0.789 E5.55979
G1 X-55.591 Y-7.143 E0.70277
G1 X-19.246 Y-9.684 E3.22046
G1 X-19.290 Y-10.307 F15000.000
G1 X7.786 Y-12.201 E2.39910 F960.000
G1 X7.802 Y-11.973 E0.02021
G1 X15.029 Y-11.973 E0.63881 F960.000
G1 X14.175 Y-7.954 E0.36310
G1 X17.696 Y-7.206 E0.31821
G1 X18.710 Y-11.973 E0.43073
G1 X56.285 Y-11.973 E3.32137
G1 X56.285 Y12.227 E2.13909
G1 X52.085 Y12.227 E0.37125
G1 X52.085 Y-2.773 E1.32588
G1 X7.085 Y-2.773 E3.97764
G1 X7.085 Y-2.929 E0.01387
G1 X-55.616 Y1.456 E5.55579
G1 X-56.258 Y-7.722 E0.81324
G1 X-19.349 Y-10.303 E3.27039
G1 X-19.066 Y-9.976 F15000.000
G1 X8.132 Y-10.344 F15000.000
G1 X14.076 Y-4.401 E0.74723 F960.000
G1 X13.187 Y-4.401 E0.07902
G1 X7.244 Y-10.344 E0.74723
G1 X6.355 Y-10.344 E0.07902
G1 X12.298 Y-4.401 E0.74723
G1 X11.409 Y-4.401 E0.07902
G1 X5.400 Y-10.410 E0.75555
G1 X4.569 Y-10.352 E0.07403
G1 X10.520 Y-4.401 E0.74825
G1 X9.632 Y-4.401 E0.07902
G1 X3.738 Y-10.294 E0.74095
G1 X2.908 Y-10.236 E0.07403
G1 X8.492 Y-4.651 E0.70216
G1 X7.662 Y-4.593 E0.07403
G1 X2.077 Y-10.178 E0.70216
G1 X1.246 Y-10.120 E0.07403
G1 X6.831 Y-4.535 E0.70216
G1 X6.000 Y-4.477 E0.07403
G1 X0.415 Y-10.062 E0.70216
G1 X-0.415 Y-10.004 E0.07403
G1 X5.169 Y-4.419 E0.70216
G1 X4.339 Y-4.361 E0.07403
G1 X-1.246 Y-9.946 E0.70217
G1 X-2.077 Y-9.888 E0.07403
G1 X3.508 Y-4.303 E0.70217
G1 X2.677 Y-4.245 E0.07403
G1 X-2.908 Y-9.829 E0.70217
G1 X-3.738 Y-9.771 E0.07403
G1 X1.847 Y-4.186 E0.70217
G1 X1.016 Y-4.128 E0.07403
G1 X-4.569 Y-9.713 E0.70217
G1 X-5.400 Y-9.655 E0.07403
G1 X0.185 Y-4.070 E0.70217
G1 X-0.646 Y-4.012 E0.07403
G1 X-6.231 Y-9.597 E0.70217
G1 X-7.061 Y-9.539 E0.07403
G1 X-1.476 Y-3.954 E0.70217
G1 X-2.307 Y-3.896 E0.07403
G1 X-7.892 Y-9.481 E0.70217
G1 X-8.723 Y-9.423 E0.07403
G1 X-3.138 Y-3.838 E0.70218
G1 X-3.969 Y-3.780 E0.07403
G1 X-9.554 Y-9.365 E0.70218
G1 X-10.384 Y-9.307 E0.07403
G1 X-4.799 Y-3.722 E0.70218
G1 X-5.630 Y-3.664 E0.07403
G1 X-11.215 Y-9.249 E0.70218
G1 X-12.046 Y-9.190 E0.07403
G1 X-6.461 Y-3.606 E0.70218
G1 X-7.291 Y-3.547 E0.07403
G1 X-12.876 Y-9.132 E0.70218
G1 X-13.707 Y-9.074 E0.07403
G1 X-8.122 Y-3.489 E0.70218
G1 X-8.953 Y-3.431 E0.07403
G1 X-14.538 Y-9.016 E0.70218
G1 X-15.369 Y-8.958 E0.07403
G1 X-9.784 Y-3.373 E0.70218
G1 X-10.614 Y-3.315 E0.07403
G1 X-16.199 Y-8.900 E0.70219
G1 X-17.030 Y-8.842 E0.07403
G1 X-11.445 Y-3.257 E0.70219
G1 X-12.276 Y-3.199 E0.07403
G1 X-17.861 Y-8.784 E0.70219
G1 X-18.692 Y-8.726 E0.07403
G1 X-13.107 Y-3.141 E0.70219
G1 X-13.937 Y-3.083 E0.07403
G1 X-19.522 Y-8.668 E0.70219
G1 X-20.353 Y-8.610 E0.07403
G1 X-14.768 Y-3.025 E0.70219
G1 X-15.599 Y-2.966 E0.07403
G1 X-21.184 Y-8.552 E0.70219
G1 X-22.015 Y-8.493 E0.07403
G1 X-16.430 Y-2.908 E0.70219
G1 X-17.260 Y-2.850 E0.07403
G1 X-22.845 Y-8.435 E0.70220
G1 X-23.676 Y-8.377 E0.07403
G1 X-18.091 Y-2.792 E0.70220
G1 X-18.922 Y-2.734 E0.07403
G1 X-24.507 Y-8.319 E0.70220
G1 X-25.338 Y-8.261 E0.07403
G1 X-19.752 Y-2.676 E0.70220
G1 X-20.583 Y-2.618 E0.07403
G1 X-26.168 Y-8.203 E0.70220
G1 X-26.999 Y-8.145 E0.07403
G1 X-21.414 Y-2.560 E0.70220
G1 X-22.245 Y-2.502 E0.07403
G1 X-27.830 Y-8.087 E0.70220
G1 X-28.661 Y-8.029 E0.07403
G1 X-23.075 Y-2.444 E0.70220
G1 X-23.906 Y-2.385 E0.07403
G1 X-29.491 Y-7.971 E0.70220
G1 X-30.322 Y-7.913 E0.07403
G1 X-24.737 Y-2.327 E0.70221
G1 X-25.568 Y-2.269 E0.07403
G1 X-31.153 Y-7.854 E0.70221
G1 X-31.983 Y-7.796 E0.07403
G1 X-26.398 Y-2.211 E0.70221
G1 X-27.229 Y-2.153 E0.07403
G1 X-32.814 Y-7.738 E0.70221
G1 X-33.645 Y-7.680 E0.07403
G1 X-28.060 Y-2.095 E0.70221
G1 X-28.890 Y-2.037 E0.07403
G1 X-34.476 Y-7.622 E0.70221
G1 X-35.306 Y-7.564 E0.07403
G1 X-29.721 Y-1.979 E0.70221
G1 X-30.552 Y-1.921 E0.07403
G1 X-36.137 Y-7.506 E0.70221
G1 X-36.968 Y-7.448 E0.07403
G1 X-31.383 Y-1.863 E0.70221
G1 X-32.213 Y-1.804 E0.07403
G1 X-37.799 Y-7.390 E0.70222
G1 X-38.629 Y-7.332 E0.07403
G1 X-33.044 Y-1.746 E0.70222
G1 X-33.875 Y-1.688 E0.07403
G1 X-39.460 Y-7.274 E0.70222
G1 X-40.291 Y-7.215 E0.07403
G1 X-34.706 Y-1.630 E0.70222
G1 X-35.536 Y-1.572 E0.07403
G1 X-41.122 Y-7.157 E0.70222
G1 X-41.952 Y-7.099 E0.07403
G1 X-36.367 Y-1.514 E0.70222
G1 X-37.198 Y-1.456 E0.07403
G1 X-42.783 Y-7.041 E0.70222
G1 X-43.614 Y-6.983 E0.07403
G1 X-38.029 Y-1.398 E0.70222
G1 X-38.859 Y-1.340 E0.07403
G1 X-44.445 Y-6.925 E0.70223
G1 X-45.275 Y-6.867 E0.07403
G1 X-39.690 Y-1.282 E0.70223
G1 X-40.521 Y-1.224 E0.07403
G1 X-46.106 Y-6.809 E0.70223
G1 X-46.937 Y-6.751 E0.07403
G1 X-41.351 Y-1.165 E0.70223
G1 X-42.182 Y-1.107 E0.07403
G1 X-47.768 Y-6.693 E0.70223
G1 X-48.598 Y-6.635 E0.07403
G1 X-43.013 Y-1.049 E0.70223
G1 X-43.844 Y-0.991 E0.07403
G1 X-49.429 Y-6.577 E0.70223
G1 X-50.260 Y-6.518 E0.07403
G1 X-44.674 Y-0.933 E0.70223
G1 X-45.505 Y-0.875 E0.07403
G1 X-51.090 Y-6.460 E0.70223
G1 X-51.921 Y-6.402 E0.07403
G1 X-46.336 Y-0.817 E0.70224
G1 X-47.167 Y-0.759 E0.07403
G1 X-52.752 Y-6.344 E0.70224
G1 X-53.583 Y-6.286 E0.07403
G1 X-47.997 Y-0.701 E0.70224
G1 X-48.828 Y-0.643 E0.07403
G1 X-54.413 Y-6.228 E0.70224
G1 X-54.452 Y-5.378 E0.07566
G1 X-49.659 Y-0.584 E0.60265
G1 X-50.489 Y-0.526 E0.07403
G1 X-54.385 Y-4.422 E0.48980
G1 X-54.318 Y-3.466 E0.08517
G1 X-51.320 Y-0.468 E0.37695
G1 X-52.151 Y-0.410 E0.07403
G1 X-54.251 Y-2.511 E0.26409
G1 X-54.185 Y-1.555 E0.08517
G1 X-52.982 Y-0.352 E0.15124
G1 X-53.812 Y-0.294 E0.07403
G1 X-54.118 Y-0.599 E0.03839
G1 X12.338 Y-7.027 F15000.000
G1 X9.021 Y-10.344 E0.41704 F960.000
G1 X9.910 Y-10.344 E0.07902
G1 X12.494 Y-7.760 E0.32488
G1 X12.650 Y-8.493 E0.06662
G1 X10.799 Y-10.344 E0.23272
G1 X11.688 Y-10.344 E0.07902
G1 X12.806 Y-9.226 E0.14056
G1 X12.962 Y-9.959 E0.06662
G1 X12.577 Y-10.344 E0.04840
G1 X12.819 Y-6.547 F15000.000
G1 X14.965 Y-4.401 E0.26980 F960.000
G1 X15.853 Y-4.401 E0.07902
G1 X13.947 Y-6.307 E0.23964
G1 X15.076 Y-6.067 E0.10258
G1 X16.742 Y-4.401 E0.20949
G1 X17.631 Y-4.401 E0.07902
G1 X16.205 Y-5.827 E0.17933
G1 X17.333 Y-5.587 E0.10258
G1 X18.520 Y-4.401 E0.14918
G1 X18.462 Y-5.348 E0.08432
G1 X19.409 Y-4.401 E0.11902
G1 X20.298 Y-4.401 E0.07902
G1 X19.013 Y-5.686 E0.16155
G1 X19.168 Y-6.419 E0.06662
G1 X21.186 Y-4.401 E0.25371
G1 X22.075 Y-4.401 E0.07902
G1 X19.324 Y-7.152 E0.34587
G1 X19.480 Y-7.885 E0.06662
G1 X22.964 Y-4.401 E0.43803
G1 X23.853 Y-4.401 E0.07902
G1 X19.636 Y-8.618 E0.53018
G1 X19.792 Y-9.351 E0.06662
G1 X24.742 Y-4.401 E0.62234
G1 X25.631 Y-4.401 E0.07902
G1 X19.948 Y-10.084 E0.71450
G1 X20.576 Y-10.344 E0.06048
G1 X26.519 Y-4.401 E0.74723
G1 X27.408 Y-4.401 E0.07902
G1 X21.465 Y-10.344 E0.74723
G1 X22.354 Y-10.344 E0.07902
G1 X28.297 Y-4.401 E0.74723
G1 X29.186 Y-4.401 E0.07902
G1 X23.243 Y-10.344 E0.74723
G1 X24.131 Y-10.344 E0.07902
G1 X30.075 Y-4.401 E0.74723
G1 X30.963 Y-4.401 E0.07902
G1 X25.020 Y-10.344 E0.74723
G1 X25.909 Y-10.344 E0.07902
G1 X31.852 Y-4.401 E0.74723
G1 X32.741 Y-4.401 E0.07902
G1 X26.798 Y-10.344 E0.74723
G1 X27.687 Y-10.344 E0.07902
G1 X33.630 Y-4.401 E0.74723
G1 X34.519 Y-4.401 E0.07902
G1 X28.576 Y-10.344 E0.74723
G1 X29.464 Y-10.344 E0.07902
G1 X35.408 Y-4.401 E0.74723
G1 X36.296 Y-4.401 E0.07902
G1 X30.353 Y-10.344 E0.74723
G1 X31.242 Y-10.344 E0.07902
G1 X37.185 Y-4.401 E0.74723
G1 X38.074 Y-4.401 E0.07902
G1 X32.131 Y-10.344 E0.74723
G1 X33.020 Y-10.344 E0.07902
G1 X38.963 Y-4.401 E0.74723
G1 X39.852 Y-4.401 E0.07902
G1 X33.908 Y-10.344 E0.74723
G1 X34.797 Y-10.344 E0.07902
G1 X40.741 Y-4.401 E0.74723
G1 X41.629 Y-4.401 E0.07902
G1 X35.686 Y-10.344 E0.74723
G1 X36.575 Y-10.344 E0.07902
G1 X42.518 Y-4.401 E0.74723
G1 X43.407 Y-4.401 E0.07902
G1 X37.464 Y-10.344 E0.74723
G1 X38.353 Y-10.344 E0.07902
G1 X44.296 Y-4.401 E0.74723
G1 X45.185 Y-4.401 E0.07902
G1 X39.241 Y-10.344 E0.74723
G1 X40.130 Y-10.344 E0.07902
G1 X46.074 Y-4.401 E0.74723
G1 X46.962 Y-4.401 E0.07902
G1 X41.019 Y-10.344 E0.74723
G1 X41.908 Y-10.344 E0.07902
G1 X47.851 Y-4.401 E0.74723
G1 X48.740 Y-4.401 E0.07902
G1 X42.797 Y-10.344 E0.74723
G1 X43.686 Y-10.344 E0.07902
G1 X49.629 Y-4.401 E0.74723
G1 X50.518 Y-4.401 E0.07902
G1 X44.574 Y-10.344 E0.74723
G1 X45.463 Y-10.344 E0.07902
G1 X51.407 Y-4.401 E0.74723
G1 X52.295 Y-4.401 E0.07902
G1 X46.352 Y-10.344 E0.74723
G1 X47.241 Y-10.344 E0.07902
G1 X53.184 Y-4.401 E0.74723
G1 X53.713 Y-3.872 F15000.000
G1 X54.657 Y-2.928 E0.11860 F960.000
G1 X54.657 Y-3.817 E0.07902
G1 X48.130 Y-10.344 E0.82061
G1 X49.019 Y-10.344 E0.07902
G1 X54.657 Y-4.706 E0.70886
G1 X54.657 Y-5.595 E0.07902
G1 X49.907 Y-10.344 E0.59711
G1 X50.796 Y-10.344 E0.07902
G1 X54.657 Y-6.484 E0.48536
G1 X54.657 Y-7.373 E0.07902
G1 X51.685 Y-10.344 E0.37361
G1 X52.574 Y-10.344 E0.07902
G1 X54.657 Y-8.261 E0.26186
G1 X54.657 Y-9.150 E0.07902
G1 X53.463 Y-10.344 E0.15011
G1 X54.352 Y-10.344 E0.07902
G1 X54.657 Y-10.039 E0.03836
G1 X53.713 Y-2.983 F15000.000
G1 X54.657 Y-2.040 E0.11860 F960.000
G1 X54.657 Y-1.151 E0.07902
G1 X53.713 Y-2.094 E0.11860
G1 X53.713 Y-1.205 E0.07902
G1 X54.657 Y-0.262 E0.11860
G1 X53.713 Y-0.316 F15000.000
G1 X54.657 Y0.627 E0.11860 F960.000
G1 X54.657 Y1.516 E0.07902
G1 X53.713 Y0.572 E0.11860
G1 X53.713 Y1.461 E0.07902
G1 X54.657 Y2.405 E0.11860
G1 X54.657 Y3.293 E0.07902
G1 X53.713 Y2.350 E0.11860
G1 X53.713 Y3.239 E0.07902
G1 X54.657 Y4.182 E0.11860
G1 X54.657 Y5.071 E0.07902
G1 X53.713 Y4.128 E0.11860
G1 X53.713 Y5.017 E0.07902
G1 X54.657 Y5.960 E0.11860
G1 X54.657 Y6.849 E0.07902
G1 X53.713 Y5.905 E0.11860
G1 X53.713 Y6.794 E0.07902
G1 X54.657 Y7.738 E0.11860
G1 X54.657 Y8.626 E0.07902
G1 X53.713 Y7.683 E0.11860
G1 X53.713 Y8.572 E0.07902
G1 X54.657 Y9.515 E0.11860
G1 X54.657 Y10.404 E0.07902
G1 X53.713 Y9.461 E0.11860
M104 S246 ; set temperature
G1 E-3.20000 F3000.00000
G1 Z0.750 F15000.000
G1 X25.332 Y-11.408 F15000.000
G1 Z0.550 F15000.000
G1 E3.20000 F3000.00000
G1 X55.721 Y-11.408 E0.87709 F4800.000
G1 X55.721 Y11.663 E0.66591
G1 X52.649 Y11.663 E0.08866
G1 X52.649 Y-3.337 E0.43294
G1 X7.649 Y-3.337 E1.29882
G1 X7.649 Y-3.534 E0.00571
G1 X-55.092 Y0.853 E1.81531
G1 X-55.656 Y-7.199 E0.23298
G1 X7.263 Y-11.598 E1.82043
G1 X7.276 Y-11.408 E0.00550
G1 X14.332 Y-11.408 E0.20366 F4800.000
G1 X13.506 Y-7.520 E0.11474
G1 X18.131 Y-6.537 E0.13647
G1 X19.166 Y-11.408 E0.14374
G1 X25.272 Y-11.408 E0.17623
G1 X25.272 Y-11.765 F15000.000
G1 X56.078 Y-11.765 E0.88913 F4800.000
G1 X56.078 Y12.020 E0.68652
G1 X52.292 Y12.020 E0.10927
G1 X52.292 Y-2.980 E0.43294
G1 X7.292 Y-2.980 E1.29882
G1 X7.292 Y-3.152 E0.00496
G1 X-55.424 Y1.235 E1.81457
G1 X-56.037 Y-7.530 E0.25359
G1 X7.594 Y-11.980 E1.84104
G1 X7.609 Y-11.765 E0.00620
G1 X14.773 Y-11.765 E0.20678 F4800.000
G1 X13.929 Y-7.795 E0.11716
G1 X17.856 Y-6.961 E0.11586
G1 X18.877 Y-11.765 E0.14178
G1 X25.212 Y-11.765 E0.18285
G1 X25.212 Y-12.123 F15000.000
G1 X56.435 Y-12.123 E0.90117 F4800.000
G1 X56.435 Y12.377 E0.70714
G1 X51.935 Y12.377 E0.12988
G1 X51.935 Y-2.623 E0.43294
G1 X6.935 Y-2.623 E1.29882
G1 X6.935 Y-2.769 E0.00422
G1 X-55.755 Y1.616 E1.81382
G1 X-56.418 Y-7.862 E0.27421
G1 X7.925 Y-12.361 E1.86165
G1 X7.942 Y-12.123 E0.00689
G1 X15.214 Y-12.123 E0.20990 F4800.000
G1 X14.353 Y-8.070 E0.11958
G1 X17.581 Y-7.384 E0.09525
G1 X18.588 Y-12.123 E0.13982
G1 X25.152 Y-12.123 E0.18946
G1 X25.412 Y-11.776 F15000.000
G1 X19.234 Y-10.646 F15000.000
G1 X19.789 Y-11.201 E0.02269 F4800.000
G1 X20.295 Y-11.201 E0.01463
G1 X19.098 Y-10.003 E0.04897
G1 X18.961 Y-9.361 E0.01900
G1 X20.801 Y-11.201 E0.07525
G1 X21.307 Y-11.201 E0.01463
G1 X18.825 Y-8.718 E0.10153
G1 X18.688 Y-8.075 E0.01900
G1 X21.813 Y-11.201 E0.12782
G1 X22.319 Y-11.201 E0.01463
G1 X18.551 Y-7.433 E0.15410
G1 X18.415 Y-6.790 F15000.000
G1 X22.825 Y-11.201 E0.18038 F4800.000
G1 X23.331 Y-11.201 E0.01463
G1 X15.675 Y-3.544 E0.31313
G1 X16.181 Y-3.544 E0.01463
G1 X23.837 Y-11.201 E0.31313
G1 X24.343 Y-11.201 E0.01463
G1 X16.687 Y-3.544 E0.31313
G1 X17.193 Y-3.544 E0.01463
G1 X24.849 Y-11.201 E0.31313
G1 X25.355 Y-11.201 E0.01463
G1 X17.699 Y-3.544 E0.31313
G1 X18.205 Y-3.544 E0.01463
G1 X25.861 Y-11.201 E0.31313
G1 X26.367 Y-11.201 E0.01463
G1 X18.711 Y-3.544 E0.31313
G1 X19.217 Y-3.544 E0.01463
G1 X26.873 Y-11.201 E0.31313
G1 X27.379 Y-11.201 E0.01463
G1 X19.723 Y-3.544 E0.31313
G1 X20.229 Y-3.544 E0.01463
G1 X27.885 Y-11.201 E0.31313
G1 X28.391 Y-11.201 E0.01463
G1 X20.735 Y-3.544 E0.31313
G1 X21.241 Y-3.544 E0.01463
G1 X28.897 Y-11.201 E0.31313
G1 X29.403 Y-11.201 E0.01463
G1 X21.747 Y-3.544 E0.31313
G1 X22.253 Y-3.544 E0.01463
G1 X29.909 Y-11.201 E0.31313
G1 X30.415 Y-11.201 E0.01463
G1 X22.759 Y-3.544 E0.31313
G1 X23.265 Y-3.544 E0.01463
G1 X30.921 Y-11.201 E0.31313
G1 X31.427 Y-11.201 E0.01463
G1 X23.771 Y-3.544 E0.31313
G1 X24.277 Y-3.544 E0.01463
G1 X31.933 Y-11.201 E0.31313
G1 X32.439 Y-11.201 E0.01463
G1 X24.783 Y-3.544 E0.31313
G1 X25.289 Y-3.544 E0.01463
G1 X32.945 Y-11.201 E0.31313
G1 X33.451 Y-11.201 E0.01463
G1 X25.795 Y-3.544 E0.31313
G1 X26.301 Y-3.544 E0.01463
G1 X33.957 Y-11.201 E0.31313
G1 X34.463 Y-11.201 E0.01463
G1 X26.807 Y-3.544 E0.31313
G1 X27.313 Y-3.544 E0.01463
G1 X34.969 Y-11.201 E0.31313
G1 X35.475 Y-11.201 E0.01463
G1 X27.819 Y-3.544 E0.31313
G1 X28.325 Y-3.544 E0.01463
G1 X35.981 Y-11.201 E0.31313
G1 X36.487 Y-11.201 E0.01463
G1 X28.831 Y-3.544 E0.31313
G1 X29.337 Y-3.544 E0.01463
G1 X36.993 Y-11.201 E0.31313
G1 X37.499 Y-11.201 E0.01463
G1 X29.843 Y-3.544 E0.31313
G1 X30.349 Y-3.544 E0.01463
G1 X38.005 Y-11.201 E0.31313
