; generated by Slic3r 1.2.9 on 2024-07-18 at 13:02:35

; external perimeters extrusion width = 0.40mm
; perimeters extrusion width = 0.40mm
; infill extrusion width = 0.40mm
; solid infill extrusion width = 0.40mm
; top infill extrusion width = 0.40mm

M107
M104 S250 ; set temperature
M83
T0
M116


M109 S250 ; wait for temperature to be reached
G21 ; set units to millimeters
G90 ; use absolute coordinates
M83 ; use relative distances for extrusion
G1 E-3.20000 F3000.00000
G1 Z0.400 F15000.000
G1 X0.000 Y21.200 F15000.000
G1 Z0.350 F15000.000
G1 E3.20000 F3000.00000
G1 X-26.950 Y21.200 E2.38216 F960.000
G1 X-28.740 Y20.804 E0.16202
G1 X-30.197 Y19.692 E0.16202
G1 X-31.050 Y18.070 E0.16202
G1 X-31.200 Y16.950 E0.09986
G1 X-31.200 Y-16.950 E2.99649
G1 X-30.804 Y-18.740 E0.16202
G1 X-29.692 Y-20.197 E0.16202
G1 X-28.070 Y-21.050 E0.16202
G1 X-26.950 Y-21.200 E0.09986
G1 X26.950 Y-21.200 E4.76433
G1 X28.740 Y-20.804 E0.16202
G1 X30.197 Y-19.692 E0.16202 F960.000
G1 X31.050 Y-18.070 E0.16202
G1 X31.200 Y-16.950 E0.09986
G1 X31.200 Y16.950 E2.99649
G1 X30.804 Y18.740 E0.16202
G1 X29.692 Y20.197 E0.16202
G1 X28.070 Y21.050 E0.16202
G1 X26.950 Y21.200 E0.09986
G1 X0.060 Y21.200 E2.37686
G1 X0.060 Y20.575 F15000.000
G1 X-26.950 Y20.575 E2.38747 F960.000
G1 X-28.594 Y20.180 E0.14948
G1 X-29.881 Y19.083 E0.14948
G1 X-30.575 Y16.950 E0.19825
G1 X-30.575 Y-16.950 E2.99649
G1 X-30.180 Y-18.594 E0.14948
G1 X-29.083 Y-19.881 E0.14948
G1 X-26.950 Y-20.575 E0.19825
G1 X26.950 Y-20.575 E4.76433
G1 X28.594 Y-20.180 E0.14948
G1 X29.881 Y-19.083 E0.14948 F960.000
G1 X30.575 Y-16.950 E0.19825
G1 X30.575 Y16.950 E2.99649
G1 X30.180 Y18.594 E0.14948
G1 X29.083 Y19.881 E0.14948
G1 X26.950 Y20.575 E0.19825
G1 X0.120 Y20.575 E2.37156
G1 E-3.20000 F3000.00000
G1 Z0.750 F15000.000
G1 X0.000 Y14.779 F15000.000
G1 Z0.350 F15000.000
G1 E3.20000 F3000.00000
G1 X-0.427 Y14.739 E0.03792 F600.000
G1 X-0.839 Y14.619 E0.03792
G1 X-1.228 Y14.421 E0.03860
G1 X-1.613 Y14.113 E0.04356
G1 X-1.921 Y13.728 E0.04356
G1 X-2.119 Y13.339 E0.03860
G1 X-2.239 Y12.927 E0.03792
G1 X-2.279 Y12.500 E0.03792
G1 X-2.239 Y12.072 E0.03796
G1 X-2.116 Y11.651 E0.03883
G1 X-1.890 Y11.225 E0.04265
G1 X-1.612 Y10.888 E0.03857
G1 X-1.281 Y10.615 E0.03792
G1 X-0.905 Y10.408 E0.03792
G1 X-0.490 Y10.273 E0.03857
G1 X-0.011 Y10.220 E0.04265 F600.000
G1 X0.427 Y10.261 E0.03882
G1 X0.846 Y10.383 E0.03864
G1 X1.275 Y10.610 E0.04288
G1 X1.618 Y10.893 E0.03929
G1 X1.921 Y11.272 E0.04287
G1 X2.119 Y11.661 E0.03860
G1 X2.239 Y12.073 E0.03792
G1 X2.279 Y12.500 E0.03792
G1 X2.239 Y12.927 E0.03792
G1 X2.119 Y13.340 E0.03796
G1 X1.919 Y13.731 E0.03882
G1 X1.617 Y14.107 E0.04264
G1 X1.275 Y14.390 E0.03922
G1 X0.849 Y14.616 E0.04265
G1 X0.428 Y14.739 E0.03882
G1 X0.060 Y14.774 E0.03266
G1 X0.001 Y14.151 F15000.000
G1 X-0.309 Y14.122 E0.02756 F600.000
G1 X-0.608 Y14.036 E0.02748
G1 X-0.887 Y13.893 E0.02772
G1 X-1.168 Y13.668 E0.03180
G1 X-1.393 Y13.387 E0.03180
G1 X-1.536 Y13.108 E0.02772
G1 X-1.622 Y12.810 E0.02747
G1 X-1.652 Y12.500 E0.02748
G1 X-1.622 Y12.190 E0.02749
G1 X-1.534 Y11.887 E0.02792
G1 X-1.368 Y11.574 E0.03135
G1 X-1.168 Y11.332 E0.02771
G1 X-0.928 Y11.134 E0.02748
G1 X-0.656 Y10.984 E0.02748
G1 X-0.358 Y10.887 E0.02771
G1 X-0.005 Y10.848 E0.03136 F600.000
G1 X0.309 Y10.878 E0.02792
G1 X0.611 Y10.965 E0.02774
G1 X0.926 Y11.132 E0.03156
G1 X1.170 Y11.334 E0.02797
G1 X1.393 Y11.613 E0.03156
G1 X1.536 Y11.892 E0.02772
G1 X1.622 Y12.190 E0.02747
G1 X1.652 Y12.500 E0.02748
G1 X1.622 Y12.809 E0.02748
G1 X1.536 Y13.108 E0.02749
G1 X1.392 Y13.389 E0.02792
G1 X1.170 Y13.666 E0.03135
G1 X0.926 Y13.868 E0.02794
G1 X0.613 Y14.034 E0.03135
G1 X0.310 Y14.122 E0.02792
G1 X0.061 Y14.146 E0.02211
G1 X-0.163 Y14.417 F15000.000
G1 E-3.20000 F3000.00000
G1 Z0.750 F15000.000
G1 X-5.350 Y8.737 F15000.000
G1 Z0.350 F15000.000
G1 E3.20000 F3000.00000
G1 X-5.350 Y4.650 E0.36128 F960.000
G1 X5.350 Y4.650 E0.94583
G1 X5.350 Y15.350 E0.94583
G1 X1.405 Y15.350 E0.34870 F960.000
G1 X1.335 Y15.066 E0.02591
G1 X1.625 Y14.912 E0.02903
G1 X2.065 Y14.548 E0.05050
G1 X2.447 Y14.072 E0.05394
G1 X2.703 Y13.571 E0.04972
G1 X2.855 Y13.045 E0.04843
G1 X2.907 Y12.500 E0.04836
G1 X2.855 Y11.955 E0.04837
G1 X2.703 Y11.430 E0.04836
G1 X2.449 Y10.931 E0.04948
G1 X2.065 Y10.453 E0.05419
G1 X1.624 Y10.088 E0.05061
G1 X1.082 Y9.801 E0.05420
G1 X0.544 Y9.644 E0.04955
G1 X-0.016 Y9.592 E0.04972
G1 X-0.623 Y9.659 E0.05394
G1 X-1.154 Y9.832 E0.04943
G1 X-1.634 Y10.096 E0.04836
G1 X-2.055 Y10.445 E0.04836
G1 X-2.412 Y10.875 E0.04943
G1 X-2.698 Y11.414 E0.05394
G1 X-2.855 Y11.955 E0.04973
G1 X-2.907 Y12.500 E0.04843
G1 X-2.855 Y13.045 E0.04836
G1 X-2.703 Y13.570 E0.04836
G1 X-2.449 Y14.069 E0.04948
G1 X-2.057 Y14.557 E0.05532
G1 X-1.569 Y14.949 E0.05532
G1 X-1.345 Y15.063 E0.02224
G1 X-1.414 Y15.350 E0.02613
G1 X-5.350 Y15.350 E0.34795
G1 X-5.350 Y8.797 E0.57925
G1 X-5.975 Y8.797 F15000.000
G1 X-5.975 Y4.025 E0.42182 F960.000
G1 X5.975 Y4.025 E1.05631
G1 X5.975 Y15.975 E1.05631
G1 X-5.975 Y15.975 E1.05631 F960.000
G1 X-5.975 Y8.857 E0.62918
G1 X-6.600 Y8.857 F15000.000
G1 X-6.600 Y3.400 E0.48236 F960.000
G1 X6.600 Y3.400 E1.16678
G1 X6.600 Y16.600 E1.16678
G1 X-6.600 Y16.600 E1.16678 F960.000
G1 X-6.600 Y8.917 E0.67911
G1 X-6.254 Y8.657 F15000.000
G1 X-1.075 Y15.277 F15000.000
G1 X-0.573 Y15.349 E0.09492 F960.000
G1 X-0.027 Y15.377 E0.10259
G1 X0.516 Y15.354 E0.10174
G1 X1.065 Y15.278 E0.10402
G1 X2.380 Y14.674 F15000.000
G1 X2.677 Y14.972 E0.03859 F960.000
G1 X2.778 Y14.155 E0.07557
G1 X3.595 Y14.972 E0.10606
G1 X4.513 Y14.972 E0.08428
G1 X3.075 Y13.534 E0.18673
G1 X3.248 Y12.789 E0.07019
G1 X4.972 Y14.513 E0.22381
G1 X4.972 Y13.595 E0.08428
G1 X3.240 Y11.863 E0.22483
G1 X4.972 Y5.333 F15000.000
G1 X4.667 Y5.028 E0.03962 F960.000
G1 X3.749 Y5.028 E0.08428
G1 X4.972 Y6.251 E0.15880
G1 X4.972 Y7.169 E0.08428
G1 X2.831 Y5.028 E0.27799
G1 X1.913 Y5.028 E0.08428
G1 X4.972 Y8.087 E0.39717
G1 X4.972 Y9.005 E0.08428
G1 X0.995 Y5.028 E0.51636
G1 X0.077 Y5.028 E0.08428
G1 X4.972 Y9.923 E0.63554
G1 X4.972 Y10.841 E0.08428
G1 X-0.841 Y5.028 E0.75473
G1 X-1.759 Y5.028 E0.08428
G1 X4.972 Y11.759 E0.87391
G1 X4.972 Y12.677 E0.08428
G1 X-2.677 Y5.028 E0.99310
G1 X-3.595 Y5.028 E0.08428
G1 X0.637 Y9.260 E0.54943
G1 X-0.286 Y9.255 E0.08472
G1 X-4.513 Y5.028 E0.54879
G1 X-4.972 Y5.487 E0.05959
G1 X-1.029 Y9.430 E0.51189
G1 X-1.650 Y9.727 E0.06319
G1 X-4.972 Y6.405 E0.43128
G1 X-4.972 Y7.323 E0.08428
G1 X-2.174 Y10.121 E0.36330
G1 X-2.609 Y10.604 E0.05967
G1 X-4.972 Y8.241 E0.30682
G1 X-4.972 Y9.159 E0.08428
G1 X-2.950 Y11.181 E0.26253
G1 X-3.189 Y11.860 E0.06607
G1 X-4.972 Y10.077 E0.23148
G1 X-4.972 Y10.995 E0.08428
G1 X-3.283 Y12.684 E0.21927
G1 X-3.070 Y13.814 E0.10565
G1 X-4.972 Y11.913 E0.24691
G1 X-4.972 Y12.831 E0.08428
G1 X-2.831 Y14.972 E0.27799
G1 X-3.749 Y14.972 E0.08428
G1 X-4.972 Y13.749 E0.15880
G1 X-4.972 Y14.667 E0.08428
G1 X-4.667 Y14.972 E0.03962
G1 E-3.20000 F3000.00000
G1 Z0.750 F15000.000
G1 X17.754 Y12.852 F15000.000
G1 Z0.350 F15000.000
G1 E3.20000 F3000.00000
G1 X17.721 Y12.500 E0.03125 F600.000
G1 X17.761 Y12.072 E0.03796
G1 X17.884 Y11.651 E0.03883
G1 X18.110 Y11.225 E0.04265
G1 X18.388 Y10.888 E0.03857
G1 X18.719 Y10.615 E0.03792
G1 X19.095 Y10.408 E0.03792
G1 X19.510 Y10.273 E0.03857
G1 X19.989 Y10.220 E0.04265 F600.000
G1 X20.427 Y10.261 E0.03882
G1 X20.846 Y10.383 E0.03864
G1 X21.275 Y10.610 E0.04288
G1 X21.618 Y10.893 E0.03929
G1 X21.921 Y11.272 E0.04287
G1 X22.119 Y11.661 E0.03860
G1 X22.239 Y12.073 E0.03792
G1 X22.279 Y12.500 E0.03792
G1 X22.239 Y12.927 E0.03792
G1 X22.119 Y13.340 E0.03796
G1 X21.919 Y13.731 E0.03882
G1 X21.617 Y14.107 E0.04264
G1 X21.275 Y14.390 E0.03922
G1 X20.849 Y14.616 E0.04265
G1 X20.428 Y14.739 E0.03882
G1 X20.000 Y14.779 E0.03796
G1 X19.573 Y14.739 E0.03792
G1 X19.161 Y14.619 E0.03792
G1 X18.772 Y14.421 E0.03860
G1 X18.387 Y14.113 E0.04356
G1 X18.079 Y13.728 E0.04356
G1 X17.881 Y13.339 E0.03860
G1 X17.760 Y12.912 E0.03926
G1 X18.378 Y12.810 F15000.000
G1 X18.348 Y12.500 E0.02748 F600.000
G1 X18.378 Y12.190 E0.02749
G1 X18.466 Y11.887 E0.02792
G1 X18.632 Y11.574 E0.03135
G1 X18.832 Y11.332 E0.02771
G1 X19.072 Y11.134 E0.02748
G1 X19.344 Y10.984 E0.02748
G1 X19.642 Y10.887 E0.02771
G1 X19.995 Y10.848 E0.03136 F600.000
G1 X20.309 Y10.878 E0.02792
G1 X20.611 Y10.965 E0.02774
G1 X20.926 Y11.132 E0.03156
G1 X21.170 Y11.334 E0.02797
G1 X21.393 Y11.613 E0.03156
G1 X21.536 Y11.892 E0.02772
G1 X21.622 Y12.190 E0.02747
G1 X21.652 Y12.500 E0.02748
G1 X21.622 Y12.809 E0.02748
G1 X21.536 Y13.108 E0.02749
G1 X21.392 Y13.389 E0.02792
G1 X21.170 Y13.666 E0.03135
G1 X20.926 Y13.868 E0.02794
G1 X20.613 Y14.034 E0.03135
G1 X20.310 Y14.122 E0.02792
G1 X20.000 Y14.152 E0.02749
G1 X19.691 Y14.122 E0.02748
G1 X19.392 Y14.036 E0.02748
G1 X19.113 Y13.893 E0.02772
G1 X18.832 Y13.668 E0.03180
G1 X18.607 Y13.387 E0.03180
G1 X18.464 Y13.108 E0.02772
G1 X18.394 Y12.867 E0.02217
G1 X18.087 Y12.698 F15000.000
G1 E-3.20000 F3000.00000
G1 Z0.750 F15000.000
G1 X22.330 Y14.218 F15000.000
G1 Z0.350 F15000.000
G1 E3.20000 F3000.00000
G1 X22.447 Y14.072 E0.01653 F960.000
G1 X22.703 Y13.571 E0.04972
G1 X22.855 Y13.045 E0.04843
G1 X22.907 Y12.500 E0.04836
G1 X22.855 Y11.955 E0.04837
G1 X22.703 Y11.430 E0.04836
G1 X22.449 Y10.931 E0.04948
G1 X22.065 Y10.453 E0.05419
G1 X21.624 Y10.088 E0.05061
G1 X21.082 Y9.801 E0.05420
G1 X20.544 Y9.644 E0.04955
G1 X19.984 Y9.592 E0.04972
G1 X19.377 Y9.659 E0.05394
G1 X18.846 Y9.832 E0.04943
G1 X18.366 Y10.096 E0.04836
G1 X17.945 Y10.445 E0.04836
G1 X17.588 Y10.875 E0.04943
G1 X17.302 Y11.414 E0.05394
G1 X17.145 Y11.955 E0.04973
G1 X17.093 Y12.500 E0.04843
G1 X17.145 Y13.045 E0.04836
G1 X17.297 Y13.570 E0.04836
G1 X17.551 Y14.069 E0.04948
G1 X17.943 Y14.557 E0.05532
G1 X18.431 Y14.949 E0.05532
G1 X18.655 Y15.063 E0.02224
G1 X18.586 Y15.350 E0.02613
G1 X14.650 Y15.350 E0.34795
G1 X14.650 Y4.650 E0.94583
G1 X25.350 Y4.650 E0.94583
G1 X25.350 Y15.350 E0.94583
G1 X21.405 Y15.350 E0.34870 F960.000
G1 X21.335 Y15.066 E0.02591
G1 X21.625 Y14.912 E0.02903
G1 X22.065 Y14.548 E0.05050
G1 X22.292 Y14.264 E0.03210
G1 X22.292 Y15.975 F15000.000
G1 X14.025 Y15.975 E0.73076 F960.000
G1 X14.025 Y4.025 E1.05631
G1 X25.975 Y4.025 E1.05631
G1 X25.975 Y15.975 E1.05631
G1 X22.352 Y15.975 E0.32025 F960.000
G1 X22.352 Y16.600 F15000.000
G1 X13.400 Y16.600 E0.79129 F960.000
G1 X13.400 Y3.400 E1.16678
G1 X26.600 Y3.400 E1.16678
G1 X26.600 Y16.600 E1.16678
G1 X22.412 Y16.600 E0.37018 F960.000
G1 X22.152 Y16.254 F15000.000
G1 X21.065 Y15.278 F15000.000
G1 X20.516 Y15.354 E0.10402 F960.000
G1 X19.973 Y15.377 E0.10174
G1 X19.427 Y15.349 E0.10259
G1 X18.925 Y15.277 E0.09492
G1 X22.380 Y14.674 F15000.000
G1 X22.677 Y14.972 E0.03859 F960.000
G1 X22.778 Y14.155 E0.07557
G1 X23.595 Y14.972 E0.10606
G1 X24.513 Y14.972 E0.08428
G1 X23.075 Y13.534 E0.18673
G1 X23.248 Y12.789 E0.07019
G1 X24.972 Y14.513 E0.22381
G1 X24.972 Y13.595 E0.08428
G1 X23.240 Y11.863 E0.22483
G1 X24.972 Y5.333 F15000.000
G1 X24.667 Y5.028 E0.03962 F960.000
G1 X23.749 Y5.028 E0.08428
G1 X24.972 Y6.251 E0.15880
G1 X24.972 Y7.169 E0.08428
G1 X22.831 Y5.028 E0.27799
G1 X21.913 Y5.028 E0.08428
G1 X24.972 Y8.087 E0.39717
G1 X24.972 Y9.005 E0.08428
G1 X20.995 Y5.028 E0.51636
G1 X20.077 Y5.028 E0.08428
G1 X24.972 Y9.923 E0.63554
G1 X24.972 Y10.841 E0.08428
G1 X19.159 Y5.028 E0.75473
G1 X18.241 Y5.028 E0.08428
G1 X24.972 Y11.759 E0.87391
G1 X24.972 Y12.677 E0.08428
G1 X17.323 Y5.028 E0.99310
G1 X16.405 Y5.028 E0.08428
G1 X20.637 Y9.260 E0.54943
G1 X19.714 Y9.255 E0.08472
G1 X15.487 Y5.028 E0.54879
G1 X15.028 Y5.487 E0.05959
G1 X18.971 Y9.430 E0.51189
G1 X18.350 Y9.727 E0.06319
G1 X15.028 Y6.405 E0.43128
G1 X15.028 Y7.323 E0.08428
G1 X17.826 Y10.121 E0.36330
G1 X17.391 Y10.604 E0.05967
G1 X15.028 Y8.241 E0.30682
G1 X15.028 Y9.159 E0.08428
G1 X17.050 Y11.181 E0.26253
G1 X16.811 Y11.860 E0.06607
G1 X15.028 Y10.077 E0.23148
G1 X15.028 Y10.995 E0.08428
G1 X16.717 Y12.684 E0.21927
G1 X16.930 Y13.814 E0.10565
G1 X15.028 Y11.913 E0.24691
G1 X15.028 Y12.831 E0.08428
G1 X17.169 Y14.972 E0.27799
G1 X16.251 Y14.972 E0.08428
G1 X15.028 Y13.749 E0.15880
G1 X15.028 Y14.667 E0.08428
G1 X15.333 Y14.972 E0.03962
G1 E-3.20000 F3000.00000
G1 Z0.750 F15000.000
G1 X19.573 Y-5.261 F15000.000
G1 Z0.350 F15000.000
G1 E3.20000 F3000.00000
G1 X19.161 Y-5.381 E0.03792 F600.000
G1 X18.772 Y-5.579 E0.03860
G1 X18.387 Y-5.887 E0.04356
G1 X18.079 Y-6.272 E0.04356
G1 X17.881 Y-6.661 E0.03860
G1 X17.761 Y-7.073 E0.03792
G1 X17.721 Y-7.500 E0.03792
G1 X17.761 Y-7.928 E0.03796
G1 X17.884 Y-8.349 E0.03883
G1 X18.110 Y-8.775 E0.04265
G1 X18.388 Y-9.112 E0.03857
G1 X18.719 Y-9.385 E0.03792
G1 X19.095 Y-9.592 E0.03792
G1 X19.510 Y-9.727 E0.03857
G1 X19.989 Y-9.780 E0.04265 F600.000
G1 X20.427 Y-9.739 E0.03882
G1 X20.846 Y-9.617 E0.03864
G1 X21.275 Y-9.390 E0.04288
G1 X21.618 Y-9.107 E0.03929
G1 X21.921 Y-8.728 E0.04287
G1 X22.119 Y-8.339 E0.03860
G1 X22.239 Y-7.927 E0.03792
G1 X22.279 Y-7.500 E0.03792
G1 X22.239 Y-7.073 E0.03792
G1 X22.119 Y-6.660 E0.03796
G1 X21.919 Y-6.269 E0.03882
G1 X21.617 Y-5.893 E0.04264
G1 X21.275 Y-5.610 E0.03922
G1 X20.849 Y-5.384 E0.04265
G1 X20.428 Y-5.261 E0.03882
G1 X20.000 Y-5.221 E0.03796
G1 X19.633 Y-5.255 E0.03262
G1 X19.691 Y-5.878 F15000.000
G1 X19.392 Y-5.964 E0.02756 F600.000
G1 X19.113 Y-6.107 E0.02772
G1 X18.832 Y-6.332 E0.03180
G1 X18.607 Y-6.613 E0.03180
G1 X18.464 Y-6.892 E0.02772
G1 X18.378 Y-7.190 E0.02747
G1 X18.348 Y-7.500 E0.02748
G1 X18.378 Y-7.810 E0.02749
G1 X18.466 Y-8.113 E0.02792
G1 X18.632 Y-8.426 E0.03135
G1 X18.832 Y-8.668 E0.02771
G1 X19.072 Y-8.866 E0.02748
G1 X19.344 Y-9.016 E0.02748
G1 X19.642 Y-9.113 E0.02771
G1 X19.995 Y-9.152 E0.03136 F600.000
G1 X20.309 Y-9.122 E0.02792
G1 X20.611 Y-9.035 E0.02774
G1 X20.926 Y-8.868 E0.03156
G1 X21.170 Y-8.666 E0.02797
G1 X21.393 Y-8.387 E0.03156
G1 X21.536 Y-8.108 E0.02772
G1 X21.622 Y-7.810 E0.02747
G1 X21.652 Y-7.500 E0.02748
G1 X21.622 Y-7.191 E0.02748
G1 X21.536 Y-6.892 E0.02749
G1 X21.392 Y-6.611 E0.02792
G1 X21.170 Y-6.334 E0.03135
G1 X20.926 Y-6.132 E0.02794
G1 X20.613 Y-5.966 E0.03135
G1 X20.310 Y-5.878 E0.02792
G1 X20.000 Y-5.848 E0.02749
G1 X19.751 Y-5.872 E0.02209
G1 X19.480 Y-5.648 F15000.000
G1 X18.655 Y-4.937 F15000.000
G1 X18.586 Y-4.650 E0.02613 F960.000
G1 X14.650 Y-4.650 E0.34795
G1 X14.650 Y-15.350 E0.94583
G1 X25.350 Y-15.350 E0.94583
G1 X25.350 Y-4.650 E0.94583
G1 X21.405 Y-4.650 E0.34870 F960.000
G1 X21.335 Y-4.934 E0.02591
G1 X21.625 Y-5.088 E0.02903
G1 X22.065 Y-5.452 E0.05050
G1 X22.447 Y-5.928 E0.05394
G1 X22.703 Y-6.429 E0.04972
G1 X22.855 Y-6.955 E0.04843
G1 X22.907 Y-7.500 E0.04836
G1 X22.855 Y-8.045 E0.04837
G1 X22.703 Y-8.570 E0.04836
G1 X22.449 Y-9.069 E0.04948
G1 X22.065 Y-9.547 E0.05419
G1 X21.624 Y-9.912 E0.05061
G1 X21.082 Y-10.199 E0.05420
G1 X20.544 Y-10.356 E0.04955
G1 X19.984 Y-10.408 E0.04972
G1 X19.377 Y-10.341 E0.05394
G1 X18.846 Y-10.168 E0.04943
G1 X18.366 Y-9.904 E0.04836
G1 X17.945 Y-9.555 E0.04836
G1 X17.588 Y-9.125 E0.04943
G1 X17.302 Y-8.586 E0.05394
G1 X17.145 Y-8.045 E0.04973
G1 X17.093 Y-7.500 E0.04843
G1 X17.145 Y-6.955 E0.04836
G1 X17.297 Y-6.430 E0.04836
G1 X17.551 Y-5.931 E0.04948
G1 X17.943 Y-5.443 E0.05532
G1 X18.431 Y-5.051 E0.05532
G1 X18.602 Y-4.964 E0.01693
G1 X18.602 Y-4.025 F15000.000
G1 X14.025 Y-4.025 E0.40456 F960.000
G1 X14.025 Y-15.975 E1.05631
G1 X25.975 Y-15.975 E1.05631
G1 X25.975 Y-4.025 E1.05631
G1 X18.662 Y-4.025 E0.64644 F960.000
G1 X18.662 Y-3.400 F15000.000
G1 X13.400 Y-3.400 E0.46510 F960.000
G1 X13.400 Y-16.600 E1.16678
G1 X26.600 Y-16.600 E1.16678
G1 X26.600 Y-3.400 E1.16678
G1 X18.722 Y-3.400 E0.69637 F960.000
G1 X18.462 Y-3.746 F15000.000
G1 X18.925 Y-4.723 F15000.000
G1 X19.427 Y-4.651 E0.09492 F960.000
G1 X19.973 Y-4.623 E0.10259
G1 X20.516 Y-4.646 E0.10174
G1 X21.065 Y-4.722 E0.10402
G1 X22.380 Y-5.326 F15000.000
G1 X22.677 Y-5.028 E0.03859 F960.000
G1 X22.778 Y-5.845 E0.07557
G1 X23.595 Y-5.028 E0.10606
G1 X24.513 Y-5.028 E0.08428
G1 X23.075 Y-6.466 E0.18673
G1 X23.248 Y-7.211 E0.07019
G1 X24.972 Y-5.487 E0.22381
G1 X24.972 Y-6.405 E0.08428
G1 X23.240 Y-8.137 E0.22483
G1 X24.972 Y-14.667 F15000.000
