; generated by Slic3r 1.2.9 on 2024-07-28 at 20:11:20

; external perimeters extrusion width = 0.40mm
; perimeters extrusion width = 0.40mm
; infill extrusion width = 0.40mm
; solid infill extrusion width = 0.40mm
; top infill extrusion width = 0.40mm

M107
M104 S250 ; set temperature
M83
T0
M116


M109 S250 ; wait for temperature to be reached
G21 ; set units to millimeters
G90 ; use absolute coordinates
M83 ; use relative distances for extrusion
G1 E-3.20000 F3000.00000
G1 Z0.400 F15000.000
G1 X1.155 Y11.569 F15000.000
G1 Z0.350 F15000.000
G1 E3.20000 F3000.00000
G1 X-51.313 Y16.806 E4.66077 F960.000
G1 X-51.735 Y16.827 E0.03736
G1 X-56.635 Y16.827 E0.43312
G1 X-58.425 Y16.432 E0.16202
G1 X-59.882 Y15.320 E0.16202
G1 X-60.735 Y13.697 E0.16202
G1 X-60.885 Y12.577 E0.09986
G1 X-60.885 Y-12.323 E2.20096
G1 X-60.489 Y-14.112 E0.16202
G1 X-59.377 Y-15.569 E0.16202
G1 X-57.755 Y-16.422 E0.16202
G1 X-56.657 Y-16.572 E0.09793
G1 X-7.814 Y-16.814 E4.31737
G1 X56.928 Y-12.287 E5.73667 F960.000
G1 X58.686 Y-11.767 E0.16202
G1 X60.062 Y-10.556 E0.16202
G1 X60.799 Y-8.878 E0.16202
G1 X60.871 Y-7.750 E0.09987
G1 X60.180 Y2.126 E0.87511
G1 X59.661 Y3.884 E0.16202
G1 X58.449 Y5.259 E0.16202
G1 X56.363 Y6.058 E0.19749
G1 X1.215 Y11.563 E4.89888
G1 X1.152 Y10.941 F15000.000
G1 X-51.375 Y16.184 E4.66607 F960.000
G1 X-51.735 Y16.202 E0.03187
G1 X-56.635 Y16.202 E0.43312
G1 X-58.279 Y15.808 E0.14948
G1 X-59.566 Y14.710 E0.14948
G1 X-60.260 Y12.577 E0.19825
G1 X-60.260 Y-12.323 E2.20096
G1 X-59.865 Y-13.967 E0.14948
G1 X-58.768 Y-15.254 E0.14948
G1 X-56.654 Y-15.947 E0.19667
G1 X-7.858 Y-16.190 E4.31323
G1 X56.884 Y-11.663 E5.73667 F960.000
G1 X58.497 Y-11.155 E0.14948
G1 X59.704 Y-9.970 E0.14948
G1 X60.248 Y-7.794 E0.19826
G1 X59.557 Y2.082 E0.87511
G1 X59.048 Y3.695 E0.14948
G1 X57.864 Y4.902 E0.14948
G1 X56.301 Y5.436 E0.14600
G1 X1.212 Y10.935 E4.89358
G1 E-3.20000 F3000.00000
G1 Z0.750 F15000.000
G1 X45.101 Y-0.533 F15000.000
G1 Z0.350 F15000.000
G1 E3.20000 F3000.00000
G1 X-8.335 Y-4.270 E4.73480 F960.000
G1 X-8.335 Y-4.022 E0.02187
G1 X-53.335 Y-4.022 E3.97764
G1 X-53.335 Y10.978 E1.32588
G1 X-55.035 Y10.978 E0.15031
G1 X-55.035 Y-10.723 E1.91814
G1 X-18.722 Y-10.723 E3.20984
G1 X-17.659 Y-5.724 E0.45173
G1 X-11.693 Y-6.992 E0.53915
G1 X-12.486 Y-10.723 E0.33716
G1 X-6.637 Y-10.723 E0.51699
G1 X-6.627 Y-10.867 E0.01276
G1 X54.924 Y-6.563 E5.45388
G1 X54.456 Y0.122 E0.59230 F960.000
G1 X45.161 Y-0.528 E0.82369
G1 X45.117 Y0.095 F15000.000
G1 X-7.710 Y-3.600 E4.68087 F960.000
G1 X-7.710 Y-3.397 E0.01787
G1 X-52.710 Y-3.397 E3.97764
G1 X-52.710 Y11.603 E1.32588
G1 X-55.660 Y11.603 E0.26078
G1 X-55.660 Y-11.348 E2.02861
G1 X-18.216 Y-11.348 E3.30980
G1 X-17.178 Y-6.465 E0.44123
G1 X-12.434 Y-7.473 E0.42868
G1 X-13.257 Y-11.348 E0.35013
G1 X-7.219 Y-11.348 E0.53370
G1 X-7.206 Y-11.534 E0.01648
G1 X55.591 Y-7.143 E5.56434
G1 X55.036 Y0.789 E0.70277 F960.000
G1 X45.177 Y0.099 E0.87362
G1 X45.133 Y0.722 F15000.000
G1 X-7.085 Y-2.929 E4.62694 F960.000
G1 X-7.085 Y-2.773 E0.01387
G1 X-52.085 Y-2.773 E3.97764
G1 X-52.085 Y12.227 E1.32588
G1 X-56.285 Y12.227 E0.37125
G1 X-56.285 Y-11.973 E2.13909
G1 X-17.710 Y-11.973 E3.40976
G1 X-16.696 Y-7.206 E0.43073
G1 X-13.175 Y-7.954 E0.31821
G1 X-14.029 Y-11.973 E0.36310
G1 X-7.802 Y-11.973 E0.55042
G1 X-7.786 Y-12.201 E0.02021
G1 X56.258 Y-7.722 E5.67480
G1 X55.616 Y1.456 E0.81324 F960.000
G1 X45.193 Y0.727 E0.92355
G1 X44.958 Y0.363 F15000.000
G1 X54.508 Y-5.919 F15000.000
G1 X54.203 Y-6.224 E0.03841 F960.000
G1 X53.247 Y-6.291 E0.08524
G1 X54.450 Y-5.088 E0.15135
G1 X54.392 Y-4.257 E0.07409
G1 X52.291 Y-6.358 E0.26429
G1 X51.335 Y-6.425 E0.08524
G1 X54.334 Y-3.426 E0.37723
G1 X54.276 Y-2.595 E0.07409
G1 X50.379 Y-6.492 E0.49017
G1 X49.423 Y-6.558 E0.08524
G1 X54.218 Y-1.763 E0.60311
G1 X54.160 Y-0.932 E0.07409
G1 X48.467 Y-6.625 E0.71605
G1 X47.511 Y-6.692 E0.08524
G1 X53.896 Y-0.307 E0.80317
G1 X52.940 Y-0.373 E0.08524
G1 X46.555 Y-6.759 E0.80316
G1 X45.599 Y-6.826 E0.08524
G1 X51.984 Y-0.440 E0.80316
G1 X51.028 Y-0.507 E0.08524
G1 X44.642 Y-6.893 E0.80316
G1 X43.686 Y-6.960 E0.08524
G1 X50.072 Y-0.574 E0.80316
G1 X49.116 Y-0.641 E0.08524
G1 X42.730 Y-7.026 E0.80316
G1 X41.774 Y-7.093 E0.08524
G1 X48.160 Y-0.708 E0.80316
G1 X47.204 Y-0.775 E0.08524
G1 X40.818 Y-7.160 E0.80315
G1 X39.862 Y-7.227 E0.08524
G1 X46.248 Y-0.842 E0.80315
G1 X45.292 Y-0.908 E0.08524
G1 X38.906 Y-7.294 E0.80315
G1 X37.950 Y-7.361 E0.08524
G1 X44.335 Y-0.975 E0.80315
G1 X43.379 Y-1.042 E0.08524
G1 X36.994 Y-7.427 E0.80315
G1 X36.038 Y-7.494 E0.08524
G1 X42.423 Y-1.109 E0.80315
G1 X41.467 Y-1.176 E0.08524
G1 X35.082 Y-7.561 E0.80314
G1 X34.126 Y-7.628 E0.08524
G1 X40.511 Y-1.243 E0.80314
G1 X39.555 Y-1.310 E0.08524
G1 X33.170 Y-7.695 E0.80314
G1 X32.214 Y-7.762 E0.08524
G1 X38.599 Y-1.376 E0.80314
G1 X37.643 Y-1.443 E0.08524
G1 X31.258 Y-7.829 E0.80314
G1 X30.302 Y-7.895 E0.08524
G1 X36.687 Y-1.510 E0.80314
G1 X35.731 Y-1.577 E0.08524
G1 X29.346 Y-7.962 E0.80314
G1 X28.390 Y-8.029 E0.08524
G1 X34.775 Y-1.644 E0.80313
G1 X33.819 Y-1.711 E0.08524
G1 X27.433 Y-8.096 E0.80313
G1 X26.477 Y-8.163 E0.08524
G1 X32.863 Y-1.778 E0.80313
G1 X31.907 Y-1.844 E0.08524
G1 X25.521 Y-8.230 E0.80313
G1 X24.565 Y-8.297 E0.08524
G1 X30.950 Y-1.911 E0.80313
G1 X29.994 Y-1.978 E0.08524
G1 X23.609 Y-8.363 E0.80313
G1 X22.653 Y-8.430 E0.08524
G1 X29.038 Y-2.045 E0.80312
G1 X28.082 Y-2.112 E0.08524
G1 X21.697 Y-8.497 E0.80312
G1 X20.741 Y-8.564 E0.08524
G1 X27.126 Y-2.179 E0.80312
G1 X26.170 Y-2.246 E0.08524
G1 X19.785 Y-8.631 E0.80312
G1 X18.829 Y-8.698 E0.08524
G1 X25.214 Y-2.313 E0.80312
G1 X24.258 Y-2.379 E0.08524
G1 X17.873 Y-8.764 E0.80312
G1 X16.917 Y-8.831 E0.08524
G1 X23.302 Y-2.446 E0.80312
G1 X22.346 Y-2.513 E0.08524
G1 X15.961 Y-8.898 E0.80311
G1 X15.005 Y-8.965 E0.08524
G1 X21.390 Y-2.580 E0.80311
G1 X20.434 Y-2.647 E0.08524
G1 X14.049 Y-9.032 E0.80311
G1 X13.093 Y-9.099 E0.08524
G1 X19.478 Y-2.714 E0.80311
G1 X18.522 Y-2.781 E0.08524
G1 X12.137 Y-9.166 E0.80311
G1 X11.181 Y-9.232 E0.08524
G1 X17.566 Y-2.847 E0.80311
G1 X16.609 Y-2.914 E0.08524
G1 X10.224 Y-9.299 E0.80311
G1 X9.268 Y-9.366 E0.08524
G1 X15.653 Y-2.981 E0.80310
G1 X14.697 Y-3.048 E0.08524
G1 X8.312 Y-9.433 E0.80310
G1 X7.356 Y-9.500 E0.08524
G1 X13.741 Y-3.115 E0.80310
G1 X12.785 Y-3.182 E0.08524
G1 X6.400 Y-9.567 E0.80310
G1 X5.444 Y-9.634 E0.08524
G1 X11.829 Y-3.249 E0.80310
G1 X10.873 Y-3.315 E0.08524
G1 X4.488 Y-9.700 E0.80310
G1 X3.532 Y-9.767 E0.08524
G1 X9.917 Y-3.382 E0.80309
G1 X8.961 Y-3.449 E0.08524
G1 X2.576 Y-9.834 E0.80309
G1 X1.620 Y-9.901 E0.08524
G1 X8.005 Y-3.516 E0.80309
G1 X7.049 Y-3.583 E0.08524
G1 X0.664 Y-9.968 E0.80309
G1 X-0.292 Y-10.035 E0.08524
G1 X6.093 Y-3.650 E0.80309
G1 X5.137 Y-3.717 E0.08524
G1 X-1.248 Y-10.102 E0.80309
G1 X-2.204 Y-10.168 E0.08524
G1 X4.181 Y-3.784 E0.80308
G1 X3.224 Y-3.850 E0.08524
G1 X-3.160 Y-10.235 E0.80308
G1 X-4.116 Y-10.302 E0.08524
G1 X2.268 Y-3.917 E0.80308
G1 X1.312 Y-3.984 E0.08524
G1 X-5.072 Y-10.369 E0.80308
G1 X-6.028 Y-10.436 E0.08524
G1 X0.356 Y-4.051 E0.80308
G1 X-0.600 Y-4.118 E0.08524
G1 X-6.826 Y-10.344 E0.78315
G1 X-7.715 Y-10.344 E0.07909
G1 X-1.556 Y-4.185 E0.77474
G1 X-2.512 Y-4.252 E0.08524
G1 X-8.604 Y-10.344 E0.76633
G1 X-9.494 Y-10.344 E0.07909
G1 X-3.468 Y-4.318 E0.75792
G1 X-4.424 Y-4.385 E0.08524
G1 X-10.383 Y-10.344 E0.74951
G1 X-11.272 Y-10.344 E0.07909
G1 X-5.380 Y-4.452 E0.74110
G1 X-6.336 Y-4.519 E0.08524
G1 X-11.940 Y-10.123 E0.70485
G1 X-11.700 Y-8.994 E0.10268
G1 X-7.292 Y-4.586 E0.55441
G1 X-8.248 Y-4.653 E0.08524
G1 X-11.460 Y-7.864 E0.40396
G1 X-11.220 Y-6.735 E0.10268
G1 X-8.886 Y-4.401 E0.29361
G1 X-9.775 Y-4.401 E0.07909
G1 X-11.949 Y-6.575 E0.27351
G1 X-12.683 Y-6.419 E0.06668
G1 X-10.664 Y-4.401 E0.25390
G1 X-11.553 Y-4.401 E0.07909
G1 X-13.416 Y-6.264 E0.23430
G1 X-14.149 Y-6.108 E0.06668
G1 X-12.442 Y-4.401 E0.21470
G1 X-13.332 Y-4.401 E0.07909
G1 X-14.883 Y-5.952 E0.19510
G1 X-15.616 Y-5.796 E0.06668
G1 X-14.221 Y-4.401 E0.17550
G1 X-15.110 Y-4.401 E0.07909
G1 X-16.350 Y-5.640 E0.15590
G1 X-17.083 Y-5.484 E0.06668
G1 X-15.999 Y-4.401 E0.13629
G1 X-16.888 Y-4.401 E0.07909
G1 X-22.832 Y-10.344 E0.74755
G1 X-21.943 Y-10.344 E0.07909
G1 X-18.281 Y-6.682 E0.46057
G1 X-18.521 Y-7.812 E0.10268
G1 X-21.053 Y-10.344 E0.31853
G1 X-20.164 Y-10.344 E0.07909
G1 X-18.761 Y-8.941 E0.17650
G1 X-19.001 Y-10.070 E0.10268
G1 X-19.275 Y-10.344 E0.03446
G1 X-23.721 Y-10.344 F15000.000
G1 X-17.778 Y-4.401 E0.74755 F960.000
G1 X-18.667 Y-4.401 E0.07909
G1 X-24.610 Y-10.344 E0.74755
G1 X-25.499 Y-10.344 E0.07909
G1 X-19.556 Y-4.401 E0.74755
G1 X-20.445 Y-4.401 E0.07909
G1 X-26.389 Y-10.344 E0.74755
G1 X-27.278 Y-10.344 E0.07909
G1 X-21.335 Y-4.401 E0.74755
G1 X-22.224 Y-4.401 E0.07909
G1 X-28.167 Y-10.344 E0.74755
G1 X-29.056 Y-10.344 E0.07909
G1 X-23.113 Y-4.401 E0.74755
G1 X-24.002 Y-4.401 E0.07909
G1 X-29.945 Y-10.344 E0.74755
G1 X-30.835 Y-10.344 E0.07909
G1 X-24.891 Y-4.401 E0.74755
G1 X-25.781 Y-4.401 E0.07909
G1 X-31.724 Y-10.344 E0.74755
G1 X-32.613 Y-10.344 E0.07909
G1 X-26.670 Y-4.401 E0.74755
G1 X-27.559 Y-4.401 E0.07909
G1 X-33.502 Y-10.344 E0.74755
G1 X-34.391 Y-10.344 E0.07909
G1 X-28.448 Y-4.401 E0.74755
G1 X-29.337 Y-4.401 E0.07909
G1 X-35.281 Y-10.344 E0.74755
G1 X-36.170 Y-10.344 E0.07909
G1 X-30.227 Y-4.401 E0.74755
G1 X-31.116 Y-4.401 E0.07909
G1 X-37.059 Y-10.344 E0.74755
G1 X-37.948 Y-10.344 E0.07909
G1 X-32.005 Y-4.401 E0.74755
G1 X-32.894 Y-4.401 E0.07909
G1 X-38.837 Y-10.344 E0.74755
G1 X-39.727 Y-10.344 E0.07909
G1 X-33.783 Y-4.401 E0.74755
G1 X-34.673 Y-4.401 E0.07909
G1 X-40.616 Y-10.344 E0.74755
G1 X-41.505 Y-10.344 E0.07909
G1 X-35.562 Y-4.401 E0.74755
G1 X-36.451 Y-4.401 E0.07909
G1 X-42.394 Y-10.344 E0.74755
G1 X-43.284 Y-10.344 E0.07909
G1 X-37.340 Y-4.401 E0.74755
G1 X-38.229 Y-4.401 E0.07909
G1 X-44.173 Y-10.344 E0.74755
G1 X-45.062 Y-10.344 E0.07909
G1 X-39.119 Y-4.401 E0.74755
G1 X-40.008 Y-4.401 E0.07909
G1 X-45.951 Y-10.344 E0.74755
G1 X-46.840 Y-10.344 E0.07909
G1 X-40.897 Y-4.401 E0.74755
G1 X-41.786 Y-4.401 E0.07909
G1 X-47.730 Y-10.344 E0.74755
G1 X-48.619 Y-10.344 E0.07909
G1 X-42.675 Y-4.401 E0.74755
G1 X-43.565 Y-4.401 E0.07909
G1 X-49.508 Y-10.344 E0.74755
G1 X-50.397 Y-10.344 E0.07909
G1 X-44.454 Y-4.401 E0.74755
G1 X-45.343 Y-4.401 E0.07909
G1 X-51.286 Y-10.344 E0.74755
G1 X-52.176 Y-10.344 E0.07909
G1 X-46.232 Y-4.401 E0.74755
G1 X-47.121 Y-4.401 E0.07909
G1 X-53.065 Y-10.344 E0.74755
G1 X-53.954 Y-10.344 E0.07909
G1 X-48.011 Y-4.401 E0.74755
G1 X-48.900 Y-4.401 E0.07909
G1 X-54.657 Y-10.158 E0.72409
G1 X-54.657 Y-9.268 E0.07909
G1 X-49.789 Y-4.401 E0.61224
G1 X-50.678 Y-4.401 E0.07909
G1 X-54.657 Y-8.379 E0.50040
G1 X-54.657 Y-7.490 E0.07909
G1 X-51.567 Y-4.401 E0.38855
G1 X-52.457 Y-4.401 E0.07909
G1 X-54.657 Y-6.601 E0.27671
G1 X-54.657 Y-5.712 E0.07909
G1 X-53.346 Y-4.401 E0.16486
G1 X-53.713 Y-3.879 F15000.000
G1 X-54.657 Y-4.822 E0.11865 F960.000
G1 X-54.657 Y-3.933 E0.07909
G1 X-53.713 Y-2.990 E0.11865
G1 X-53.713 Y-2.101 E0.07909
G1 X-54.657 Y-3.044 E0.11865
G1 X-54.657 Y-2.155 E0.07909
G1 X-53.713 Y-1.211 E0.11865
G1 X-53.713 Y-0.322 E0.07909
G1 X-54.657 Y-1.266 E0.11865
G1 X-54.657 Y-0.376 E0.07909
G1 X-53.713 Y0.567 E0.11865
G1 X-53.713 Y1.456 E0.07909
G1 X-54.657 Y0.513 E0.11865
G1 X-54.657 Y1.402 E0.07909
G1 X-53.713 Y2.345 E0.11865
G1 X-53.713 Y3.235 E0.07909
G1 X-54.657 Y2.291 E0.11865
G1 X-54.657 Y3.180 E0.07909
G1 X-53.713 Y4.124 E0.11865
G1 X-53.713 Y5.013 E0.07909
G1 X-54.657 Y4.070 E0.11865
G1 X-54.657 Y4.959 E0.07909
G1 X-53.713 Y5.902 E0.11865
G1 X-53.713 Y6.791 E0.07909
G1 X-54.657 Y5.848 E0.11865
G1 X-54.657 Y6.737 E0.07909
G1 X-53.713 Y7.681 E0.11865
G1 X-53.713 Y8.570 E0.07909
G1 X-54.657 Y7.626 E0.11865
G1 X-54.657 Y8.516 E0.07909
G1 X-53.713 Y9.459 E0.11865
G1 X-53.713 Y10.348 E0.07909
G1 X-54.657 Y9.405 E0.11865
G1 X-54.657 Y10.294 E0.07909
G1 X-54.352 Y10.599 E0.03837
M104 S246 ; set temperature
G1 E-3.20000 F3000.00000
G1 Z0.750 F15000.000
G1 X46.967 Y0.285 F15000.000
G1 Z0.550 F15000.000
G1 E3.20000 F3000.00000
G1 X-7.649 Y-3.534 E1.58022 F4800.000
G1 X-7.649 Y-3.337 E0.00571
G1 X-52.649 Y-3.337 E1.29882
G1 X-52.649 Y11.663 E0.43294
G1 X-55.721 Y11.663 E0.08866
G1 X-55.721 Y-11.408 E0.66591
G1 X-18.166 Y-11.408 E1.08392
G1 X-17.131 Y-6.537 E0.14374
G1 X-12.506 Y-7.520 E0.13647
G1 X-13.332 Y-11.408 E0.11474
G1 X-7.276 Y-11.408 E0.17480
G1 X-7.263 Y-11.598 E0.00550
G1 X55.656 Y-7.199 E1.82043
G1 X55.092 Y0.853 E0.23298 F4800.000
G1 X47.027 Y0.289 E0.23336
G1 X47.002 Y0.646 F15000.000
G1 X-7.292 Y-3.152 E1.57090 F4800.000
G1 X-7.292 Y-2.980 E0.00496
G1 X-52.292 Y-2.980 E1.29882
G1 X-52.292 Y12.020 E0.43294
G1 X-56.078 Y12.020 E0.10927
G1 X-56.078 Y-11.765 E0.68652
G1 X-17.877 Y-11.765 E1.10258
G1 X-16.856 Y-6.961 E0.14178
G1 X-12.929 Y-7.795 E0.11586
G1 X-13.773 Y-11.765 E0.11716
G1 X-7.609 Y-11.765 E0.17792
G1 X-7.594 Y-11.980 E0.00620
G1 X-7.160 Y-11.949 E0.01257
G1 X56.037 Y-7.530 E1.82848 F4800.000
G1 X55.424 Y1.235 E0.25359
G1 X47.062 Y0.650 E0.24194
G1 X47.037 Y1.006 F15000.000
G1 X-6.935 Y-2.769 E1.56158 F4800.000
G1 X-6.935 Y-2.623 E0.00422
G1 X-51.935 Y-2.623 E1.29882
G1 X-51.935 Y12.377 E0.43294
G1 X-56.435 Y12.377 E0.12988
G1 X-56.435 Y-12.123 E0.70714
G1 X-17.588 Y-12.123 E1.12123
G1 X-16.581 Y-7.384 E0.13982
G1 X-13.353 Y-8.070 E0.09525
G1 X-14.214 Y-12.123 E0.11958
G1 X-7.942 Y-12.123 E0.18104
G1 X-7.925 Y-12.361 E0.00689
G1 X-7.135 Y-12.305 E0.02287
G1 X56.418 Y-7.862 E1.83878 F4800.000
G1 X55.755 Y1.616 E0.27421
G1 X47.097 Y1.010 E0.25051
G1 X46.862 Y0.646 F15000.000
G1 X54.716 Y0.624 F15000.000
G1 X54.908 Y0.432 E0.00784 F4800.000
G1 X54.946 Y-0.111 E0.01575
G1 X54.244 Y0.591 E0.02871
G1 X53.771 Y0.558 E0.01369
G1 X54.984 Y-0.655 E0.04958
G1 X55.022 Y-1.199 E0.01575
G1 X53.299 Y0.525 E0.07045
G1 X52.826 Y0.492 E0.01369
G1 X55.060 Y-1.743 E0.09132
G1 X55.098 Y-2.286 E0.01575
G1 X52.353 Y0.459 E0.11219
G1 X51.881 Y0.426 E0.01369
G1 X55.136 Y-2.830 E0.13307
G1 X55.174 Y-3.374 E0.01575
G1 X51.408 Y0.393 E0.15394
G1 X50.936 Y0.360 E0.01369
G1 X55.213 Y-3.917 E0.17481
G1 X55.251 Y-4.461 E0.01575
G1 X50.463 Y0.327 E0.19568
G1 X49.990 Y0.293 E0.01369
G1 X55.289 Y-5.005 E0.21655
G1 X55.327 Y-5.548 E0.01575
G1 X49.518 Y0.260 E0.23742
G1 X49.045 Y0.227 E0.01369
G1 X55.365 Y-6.092 E0.25829
G1 X55.403 Y-6.636 E0.01575
G1 X48.573 Y0.194 E0.27916
G1 X48.100 Y0.161 E0.01369
G1 X55.283 Y-7.022 E0.29359
G1 X54.810 Y-7.055 E0.01369
G1 X47.627 Y0.128 E0.29359
G1 X47.155 Y0.095 E0.01369
G1 X54.338 Y-7.088 E0.29359
G1 X53.865 Y-7.121 E0.01369
G1 X46.682 Y0.062 E0.29359
G1 X46.210 Y0.029 E0.01369
G1 X53.393 Y-7.154 E0.29359
G1 X52.920 Y-7.187 E0.01369
G1 X45.737 Y-0.004 E0.29359
G1 X45.264 Y-0.037 E0.01369
G1 X52.447 Y-7.220 E0.29359
G1 X51.975 Y-7.253 E0.01369
G1 X44.792 Y-0.070 E0.29359
G1 X44.319 Y-0.103 E0.01369
G1 X51.502 Y-7.286 E0.29359
G1 X51.030 Y-7.319 E0.01369
G1 X43.847 Y-0.136 E0.29359
G1 X43.374 Y-0.169 E0.01369
G1 X50.557 Y-7.352 E0.29359
G1 X50.084 Y-7.385 E0.01369
G1 X42.901 Y-0.202 E0.29359
G1 X42.429 Y-0.235 E0.01369
G1 X49.612 Y-7.418 E0.29359
G1 X49.139 Y-7.451 E0.01369
G1 X41.956 Y-0.268 E0.29359
G1 X41.484 Y-0.301 E0.01369
G1 X48.667 Y-7.485 E0.29359
G1 X48.194 Y-7.518 E0.01369
G1 X41.011 Y-0.335 E0.29359
G1 X40.538 Y-0.368 E0.01369
G1 X47.721 Y-7.551 E0.29358
G1 X47.249 Y-7.584 E0.01369
G1 X40.066 Y-0.401 E0.29358
G1 X39.593 Y-0.434 E0.01369
G1 X46.776 Y-7.617 E0.29358
G1 X46.304 Y-7.650 E0.01369
G1 X39.121 Y-0.467 E0.29358
G1 X38.648 Y-0.500 E0.01369
G1 X45.831 Y-7.683 E0.29358
G1 X45.358 Y-7.716 E0.01369
G1 X38.175 Y-0.533 E0.29358
G1 X37.703 Y-0.566 E0.01369
G1 X44.886 Y-7.749 E0.29358
G1 X44.413 Y-7.782 E0.01369
G1 X37.230 Y-0.599 E0.29358
G1 X36.757 Y-0.632 E0.01369
G1 X43.940 Y-7.815 E0.29358
G1 X43.468 Y-7.848 E0.01369
G1 X36.285 Y-0.665 E0.29358
G1 X35.812 Y-0.698 E0.01369
G1 X42.995 Y-7.881 E0.29358
G1 X42.523 Y-7.914 E0.01369
G1 X35.340 Y-0.731 E0.29358
G1 X34.867 Y-0.764 E0.01369
G1 X42.050 Y-7.947 E0.29358
G1 X41.577 Y-7.980 E0.01369
G1 X34.394 Y-0.797 E0.29358
G1 X33.922 Y-0.830 E0.01369
G1 X41.105 Y-8.013 E0.29358
G1 X40.632 Y-8.046 E0.01369
