; generated by Slic3r 1.2.9 on 2024-07-04 at 06:49:34

; external perimeters extrusion width = 0.40mm
; perimeters extrusion width = 0.40mm
; infill extrusion width = 0.40mm
; solid infill extrusion width = 0.40mm
; top infill extrusion width = 0.40mm

M107
M104 S250 ; set temperature
M83
T0
M116


M109 S250 ; wait for temperature to be reached
G21 ; set units to millimeters
G90 ; use absolute coordinates
M83 ; use relative distances for extrusion
G1 E-3.20000 F3000.00000
G1 Z0.400 F15000.000
G1 X15.200 Y0.000 F15000.000
G1 Z0.350 F15000.000
G1 E3.20000 F3000.00000
G1 X15.200 Y10.950 E0.96789 F960.000
G1 X14.804 Y12.740 E0.16202
G1 X13.692 Y14.197 E0.16202
G1 X12.070 Y15.050 E0.16202
G1 X10.950 Y15.200 E0.09986
G1 X-10.950 Y15.200 E1.93578
G1 X-12.740 Y14.804 E0.16202
G1 X-14.197 Y13.692 E0.16202
G1 X-15.050 Y12.070 E0.16202
G1 X-15.200 Y10.950 E0.09986
G1 X-15.200 Y-10.950 E1.93578
G1 X-14.804 Y-12.740 E0.16202
G1 X-13.692 Y-14.197 E0.16202
G1 X-12.070 Y-15.050 E0.16202
G1 X-10.950 Y-15.200 E0.09986
G1 X10.950 Y-15.200 E1.93578
G1 X12.740 Y-14.804 E0.16202
G1 X14.197 Y-13.692 E0.16202 F960.000
G1 X15.050 Y-12.070 E0.16202
G1 X15.200 Y-10.950 E0.09986
G1 X15.200 Y-0.060 E0.96259
G1 X14.575 Y-0.060 F15000.000
G1 X14.575 Y10.950 E0.97320 F960.000
G1 X14.180 Y12.594 E0.14948
G1 X13.083 Y13.881 E0.14948
G1 X10.950 Y14.575 E0.19825
G1 X-10.950 Y14.575 E1.93578
G1 X-12.594 Y14.180 E0.14948
G1 X-13.881 Y13.083 E0.14948
G1 X-14.575 Y10.950 E0.19825
G1 X-14.575 Y-10.950 E1.93578
G1 X-14.180 Y-12.594 E0.14948
G1 X-13.083 Y-13.881 E0.14948
G1 X-10.950 Y-14.575 E0.19825
G1 X10.950 Y-14.575 E1.93578
G1 X12.594 Y-14.180 E0.14948
G1 X13.881 Y-13.083 E0.14948 F960.000
G1 X14.575 Y-10.950 E0.19825
G1 X14.575 Y-0.120 E0.95728
G1 E-3.20000 F3000.00000
G1 Z0.750 F15000.000
G1 X8.297 Y-5.782 F15000.000
G1 Z0.350 F15000.000
G1 E3.20000 F3000.00000
G1 X8.046 Y-5.561 E0.02960 F600.000
G1 X7.758 Y-5.390 E0.02960
G1 X7.442 Y-5.277 E0.02960
G1 X7.096 Y-5.222 E0.03097
G1 X6.681 Y-5.248 E0.03675
G1 X6.345 Y-5.346 E0.03097
G1 X6.047 Y-5.498 E0.02960
G1 X5.782 Y-5.703 E0.02960
G1 X5.561 Y-5.954 E0.02960
G1 X5.390 Y-6.242 E0.02960
G1 X5.277 Y-6.558 E0.02960
G1 X5.224 Y-6.888 E0.02960
G1 X5.235 Y-7.223 E0.02960
G1 X5.308 Y-7.550 E0.02960
G1 X5.447 Y-7.871 E0.03097
G1 X5.691 Y-8.208 E0.03675
G1 X5.954 Y-8.439 E0.03097
G1 X6.242 Y-8.610 E0.02960
G1 X6.558 Y-8.723 E0.02960
G1 X6.888 Y-8.776 E0.02960 F600.000
G1 X7.223 Y-8.765 E0.02960
G1 X7.550 Y-8.692 E0.02960
G1 X7.857 Y-8.559 E0.02960
G1 X8.134 Y-8.371 E0.02960
G1 X8.382 Y-8.123 E0.03097
G1 X8.605 Y-7.772 E0.03675
G1 X8.723 Y-7.443 E0.03097
G1 X8.776 Y-7.112 E0.02960
G1 X8.765 Y-6.777 E0.02960
G1 X8.689 Y-6.435 E0.03097
G1 X8.512 Y-6.059 E0.03675
G1 X8.334 Y-5.829 E0.02567
G1 X7.840 Y-6.212 F15000.000
G1 X7.677 Y-6.068 E0.01924 F600.000
G1 X7.490 Y-5.958 E0.01916
G1 X7.286 Y-5.885 E0.01916
G1 X7.067 Y-5.850 E0.01965
G1 X6.790 Y-5.867 E0.02456
G1 X6.576 Y-5.929 E0.01965
G1 X6.383 Y-6.028 E0.01916
G1 X6.212 Y-6.161 E0.01916
G1 X6.068 Y-6.323 E0.01916
G1 X5.958 Y-6.510 E0.01916
G1 X5.885 Y-6.714 E0.01916
G1 X5.851 Y-6.928 E0.01916
G1 X5.858 Y-7.144 E0.01916
G1 X5.905 Y-7.356 E0.01916
G1 X5.993 Y-7.560 E0.01965
G1 X6.156 Y-7.785 E0.02456
G1 X6.323 Y-7.932 E0.01965
G1 X6.510 Y-8.042 E0.01916
G1 X6.714 Y-8.115 E0.01916
G1 X6.928 Y-8.149 E0.01916 F600.000
G1 X7.144 Y-8.142 E0.01916
G1 X7.356 Y-8.095 E0.01916
G1 X7.555 Y-8.009 E0.01916
G1 X7.734 Y-7.887 E0.01916
G1 X7.891 Y-7.730 E0.01965
G1 X8.040 Y-7.496 E0.02456
G1 X8.115 Y-7.286 E0.01965
G1 X8.149 Y-7.072 E0.01916
G1 X8.142 Y-6.856 E0.01916
G1 X8.094 Y-6.639 E0.01965
G1 X7.976 Y-6.387 E0.02456
G1 X7.877 Y-6.260 E0.01427
G1 X7.896 Y-6.002 F15000.000
G1 E-3.20000 F3000.00000
G1 Z0.750 F15000.000
G1 X4.684 Y-8.267 F15000.000
G1 Z0.350 F15000.000
G1 E3.20000 F3000.00000
G1 X4.650 Y-8.278 E0.00320 F600.000
G1 X4.650 Y-9.350 E0.09478
G1 X5.724 Y-9.350 E0.09500
G1 X5.800 Y-9.074 E0.02529
G1 X5.585 Y-8.947 E0.02205 F600.000
G1 X5.226 Y-8.631 E0.04229
G1 X4.909 Y-8.194 E0.04775
G1 X4.741 Y-8.248 E0.01558
G1 X4.680 Y-4.650 F15000.000
G1 X4.650 Y-4.650 E0.00270 F600.000
G1 X4.650 Y-5.724 E0.09500
G1 X4.926 Y-5.800 E0.02529
G1 X5.053 Y-5.585 E0.02205
G1 X5.352 Y-5.245 E0.04004 F600.000
G1 X5.793 Y-4.903 E0.04935
G1 X5.707 Y-4.650 E0.02368
G1 X4.740 Y-4.650 E0.08542
G1 X8.772 Y-4.650 F15000.000
G1 X8.276 Y-4.650 E0.04386 F600.000
G1 X8.200 Y-4.926 E0.02529
G1 X8.415 Y-5.053 E0.02205
G1 X8.755 Y-5.352 E0.04005
G1 X9.097 Y-5.793 E0.04935
G1 X9.350 Y-5.707 E0.02368
G1 X9.350 Y-4.650 E0.09342 F600.000
G1 X8.832 Y-4.650 E0.04583
G1 X8.930 Y-8.425 F15000.000
G1 X8.873 Y-8.516 E0.00954 F600.000
G1 X8.534 Y-8.855 E0.04229
G1 X8.194 Y-9.086 E0.03632
G1 X8.276 Y-9.350 E0.02448
G1 X9.350 Y-9.350 E0.09497
G1 X9.350 Y-8.268 E0.09566
G1 X9.080 Y-8.189 E0.02488 F600.000
G1 X8.963 Y-8.374 E0.01936
G1 X9.975 Y-8.374 F15000.000
G1 X9.975 Y-4.025 E0.38447 F600.000
G1 X4.025 Y-4.025 E0.52595 F600.000
G1 X4.025 Y-9.975 E0.52595
G1 X9.975 Y-9.975 E0.52595
G1 X9.975 Y-8.434 E0.13618
G1 X10.600 Y-8.434 F15000.000
G1 X10.600 Y-3.400 E0.44501 F600.000
G1 X3.400 Y-3.400 E0.63642 F600.000
G1 X3.400 Y-10.600 E0.63642
G1 X10.600 Y-10.600 E0.63642
G1 X10.600 Y-8.494 E0.18611
G1 X10.254 Y-8.234 F15000.000
G1 X9.315 Y-7.932 F15000.000
G1 X9.376 Y-7.122 E0.15221 F960.000
G1 X9.366 Y-6.673 E0.08426
G1 X9.298 Y-6.055 E0.11653
G1 X7.942 Y-4.686 F15000.000
G1 X7.093 Y-4.623 E0.15943 F960.000
G1 X6.609 Y-4.638 E0.09090
G1 X6.058 Y-4.713 E0.10402
G1 X4.686 Y-6.058 F15000.000
G1 X4.624 Y-6.878 E0.15397 F960.000
G1 X4.634 Y-7.327 E0.08425
G1 X4.701 Y-7.933 E0.11423
G1 X6.058 Y-9.314 F15000.000
G1 X6.878 Y-9.376 E0.15396 F960.000
G1 X7.327 Y-9.366 E0.08425
G1 X7.933 Y-9.299 E0.11429
G1 E-3.20000 F3000.00000
G1 Z0.750 F15000.000
G1 X-5.240 Y-7.213 F15000.000
G1 Z0.350 F15000.000
G1 E3.20000 F3000.00000
G1 X-5.224 Y-7.112 E0.00902 F600.000
G1 X-5.235 Y-6.777 E0.02960
G1 X-5.311 Y-6.435 E0.03097
G1 X-5.488 Y-6.059 E0.03675
G1 X-5.703 Y-5.782 E0.03097
G1 X-5.954 Y-5.561 E0.02960
G1 X-6.242 Y-5.390 E0.02960
G1 X-6.558 Y-5.277 E0.02960
G1 X-6.904 Y-5.222 E0.03097
G1 X-7.319 Y-5.248 E0.03675
G1 X-7.655 Y-5.346 E0.03097
G1 X-7.953 Y-5.498 E0.02960
G1 X-8.218 Y-5.703 E0.02960
G1 X-8.439 Y-5.954 E0.02960
G1 X-8.610 Y-6.242 E0.02960
G1 X-8.723 Y-6.558 E0.02960
G1 X-8.776 Y-6.888 E0.02960
G1 X-8.765 Y-7.223 E0.02960
G1 X-8.692 Y-7.550 E0.02960
G1 X-8.553 Y-7.871 E0.03097
G1 X-8.309 Y-8.208 E0.03675
G1 X-8.046 Y-8.439 E0.03097
G1 X-7.758 Y-8.610 E0.02960
G1 X-7.442 Y-8.723 E0.02960
G1 X-7.112 Y-8.776 E0.02960 F600.000
G1 X-6.777 Y-8.765 E0.02960
G1 X-6.450 Y-8.692 E0.02960
G1 X-6.143 Y-8.559 E0.02960
G1 X-5.866 Y-8.371 E0.02960
G1 X-5.618 Y-8.123 E0.03097
G1 X-5.395 Y-7.772 E0.03675
G1 X-5.277 Y-7.443 E0.03097
G1 X-5.250 Y-7.272 E0.01528
G1 X-5.867 Y-7.174 F15000.000
G1 X-5.851 Y-7.072 E0.00910 F600.000
G1 X-5.858 Y-6.856 E0.01916
G1 X-5.906 Y-6.639 E0.01965
G1 X-6.024 Y-6.387 E0.02456
G1 X-6.161 Y-6.212 E0.01965
G1 X-6.323 Y-6.068 E0.01916
G1 X-6.510 Y-5.958 E0.01916
G1 X-6.714 Y-5.885 E0.01916
G1 X-6.933 Y-5.850 E0.01965
G1 X-7.210 Y-5.867 E0.02456
G1 X-7.424 Y-5.929 E0.01965
G1 X-7.617 Y-6.028 E0.01916
G1 X-7.788 Y-6.161 E0.01916
G1 X-7.932 Y-6.323 E0.01916
G1 X-8.042 Y-6.510 E0.01916
G1 X-8.115 Y-6.714 E0.01916
G1 X-8.149 Y-6.928 E0.01916
G1 X-8.142 Y-7.144 E0.01916
G1 X-8.095 Y-7.356 E0.01916
G1 X-8.007 Y-7.560 E0.01965
G1 X-7.844 Y-7.785 E0.02456
G1 X-7.677 Y-7.932 E0.01965
G1 X-7.490 Y-8.042 E0.01916
G1 X-7.286 Y-8.115 E0.01916
G1 X-7.072 Y-8.149 E0.01916 F600.000
G1 X-6.856 Y-8.142 E0.01916
G1 X-6.644 Y-8.095 E0.01916
G1 X-6.445 Y-8.009 E0.01916
G1 X-6.266 Y-7.887 E0.01916
G1 X-6.109 Y-7.730 E0.01965
G1 X-5.960 Y-7.496 E0.02456
G1 X-5.876 Y-7.233 E0.02433
G1 X-5.769 Y-7.141 F15000.000
G1 X-8.663 Y-9.350 F15000.000
G1 X-8.276 Y-9.350 E0.03428 F600.000
G1 X-8.200 Y-9.074 E0.02529
G1 X-8.415 Y-8.947 E0.02205 F600.000
G1 X-8.774 Y-8.631 E0.04229
G1 X-9.091 Y-8.194 E0.04775
G1 X-9.350 Y-8.278 E0.02408
G1 X-9.350 Y-9.350 E0.09478
G1 X-8.723 Y-9.350 E0.05541
G1 X-9.032 Y-5.728 F15000.000
G1 X-8.947 Y-5.585 E0.01469 F600.000
G1 X-8.648 Y-5.245 E0.04004 F600.000
G1 X-8.207 Y-4.903 E0.04935
G1 X-8.293 Y-4.650 E0.02368
G1 X-9.350 Y-4.650 E0.09342
G1 X-9.350 Y-5.724 E0.09500
G1 X-9.074 Y-5.800 E0.02529
G1 X-9.062 Y-5.780 E0.00205
G1 X-4.650 Y-5.347 F15000.000
G1 X-4.650 Y-4.650 E0.06167 F600.000
G1 X-5.724 Y-4.650 E0.09500
G1 X-5.800 Y-4.926 E0.02529
G1 X-5.585 Y-5.053 E0.02205
G1 X-5.245 Y-5.352 E0.04005
G1 X-4.903 Y-5.793 E0.04935
G1 X-4.650 Y-5.707 E0.02368
G1 X-4.650 Y-5.407 E0.02646 F600.000
G1 X-4.804 Y-9.350 F15000.000
G1 X-4.650 Y-9.350 E0.01362 F600.000
G1 X-4.650 Y-8.268 E0.09566
G1 X-4.920 Y-8.189 E0.02488 F600.000
G1 X-5.127 Y-8.516 E0.03421
G1 X-5.466 Y-8.855 E0.04229
G1 X-5.806 Y-9.086 E0.03632
G1 X-5.724 Y-9.350 E0.02448
G1 X-4.864 Y-9.350 E0.07605
G1 X-4.864 Y-9.975 F15000.000
G1 X-4.025 Y-9.975 E0.07416 F600.000
G1 X-4.025 Y-4.025 E0.52595
G1 X-9.975 Y-4.025 E0.52595 F600.000
G1 X-9.975 Y-9.975 E0.52595
G1 X-4.924 Y-9.975 E0.44649
G1 X-4.924 Y-10.600 F15000.000
G1 X-3.400 Y-10.600 E0.13470 F600.000
G1 X-3.400 Y-3.400 E0.63642
G1 X-10.600 Y-3.400 E0.63642 F600.000
G1 X-10.600 Y-10.600 E0.63642
G1 X-4.984 Y-10.600 E0.49642
G1 X-4.724 Y-10.254 F15000.000
G1 X-6.067 Y-9.299 F15000.000
G1 X-6.673 Y-9.366 E0.11429 F960.000
G1 X-7.122 Y-9.376 E0.08425
G1 X-7.942 Y-9.314 E0.15396
G1 X-9.299 Y-7.933 F15000.000
G1 X-9.366 Y-7.327 E0.11423 F960.000
G1 X-9.376 Y-6.878 E0.08425
G1 X-9.314 Y-6.058 E0.15397
G1 X-7.942 Y-4.713 F15000.000
G1 X-7.391 Y-4.638 E0.10402 F960.000
G1 X-6.907 Y-4.623 E0.09090
G1 X-6.058 Y-4.686 E0.15943
G1 X-4.702 Y-6.055 F15000.000
G1 X-4.634 Y-6.673 E0.11653 F960.000
G1 X-4.624 Y-7.122 E0.08426
G1 X-4.685 Y-7.932 E0.15221
G1 E-3.20000 F3000.00000
G1 Z0.750 F15000.000
G1 X-6.777 Y5.235 F15000.000
G1 Z0.350 F15000.000
G1 E3.20000 F3000.00000
G1 X-6.450 Y5.308 E0.02960 F600.000
G1 X-6.143 Y5.441 E0.02960
G1 X-5.866 Y5.629 E0.02960
G1 X-5.618 Y5.877 E0.03097
G1 X-5.395 Y6.228 E0.03675
G1 X-5.277 Y6.557 E0.03097
G1 X-5.224 Y6.888 E0.02960
G1 X-5.235 Y7.223 E0.02960
G1 X-5.311 Y7.565 E0.03097
G1 X-5.488 Y7.941 E0.03675
G1 X-5.703 Y8.218 E0.03097
G1 X-5.954 Y8.439 E0.02960
G1 X-6.242 Y8.610 E0.02960
G1 X-6.558 Y8.723 E0.02960
G1 X-6.904 Y8.778 E0.03097
G1 X-7.319 Y8.752 E0.03675
G1 X-7.655 Y8.654 E0.03097
G1 X-7.953 Y8.502 E0.02960
G1 X-8.218 Y8.297 E0.02960
G1 X-8.439 Y8.046 E0.02960
G1 X-8.610 Y7.758 E0.02960
G1 X-8.723 Y7.442 E0.02960
G1 X-8.776 Y7.112 E0.02960
G1 X-8.765 Y6.777 E0.02960
G1 X-8.692 Y6.450 E0.02960
G1 X-8.553 Y6.129 E0.03097
G1 X-8.309 Y5.792 E0.03675
G1 X-8.046 Y5.561 E0.03097
G1 X-7.758 Y5.390 E0.02960
G1 X-7.442 Y5.277 E0.02960
G1 X-7.112 Y5.224 E0.02960 F600.000
G1 X-6.837 Y5.233 E0.02430
G1 X-6.857 Y5.857 F15000.000
G1 X-6.644 Y5.905 E0.01924 F600.000
G1 X-6.445 Y5.991 E0.01916
G1 X-6.266 Y6.113 E0.01916
G1 X-6.109 Y6.270 E0.01965
G1 X-5.960 Y6.504 E0.02456
G1 X-5.885 Y6.714 E0.01965
G1 X-5.851 Y6.928 E0.01916
G1 X-5.858 Y7.144 E0.01916
G1 X-5.906 Y7.361 E0.01965
G1 X-6.024 Y7.613 E0.02456
G1 X-6.161 Y7.788 E0.01965
G1 X-6.323 Y7.932 E0.01916
G1 X-6.510 Y8.042 E0.01916
G1 X-6.714 Y8.115 E0.01916
G1 X-6.933 Y8.150 E0.01965
G1 X-7.210 Y8.133 E0.02456
G1 X-7.424 Y8.071 E0.01965
G1 X-7.617 Y7.972 E0.01916
G1 X-7.788 Y7.839 E0.01916
G1 X-7.932 Y7.677 E0.01916
G1 X-8.042 Y7.490 E0.01916
G1 X-8.115 Y7.286 E0.01916
G1 X-8.149 Y7.072 E0.01916
G1 X-8.142 Y6.856 E0.01916
G1 X-8.095 Y6.644 E0.01916
G1 X-8.007 Y6.440 E0.01965
G1 X-7.844 Y6.215 E0.02456
G1 X-7.677 Y6.068 E0.01965
G1 X-7.490 Y5.958 E0.01916
G1 X-7.286 Y5.885 E0.01916
G1 X-7.072 Y5.851 E0.01916 F600.000
G1 X-6.917 Y5.856 E0.01377
G1 X-6.720 Y5.688 F15000.000
G1 X-9.350 Y4.951 F15000.000
G1 X-9.350 Y4.650 E0.02665 F600.000
G1 X-8.276 Y4.650 E0.09500
G1 X-8.200 Y4.926 E0.02529
G1 X-8.415 Y5.053 E0.02205 F600.000
G1 X-8.774 Y5.369 E0.04229
G1 X-9.091 Y5.806 E0.04775
G1 X-9.350 Y5.722 E0.02408
G1 X-9.350 Y5.011 E0.06283
G1 X-8.561 Y9.350 F15000.000
G1 X-9.350 Y9.350 E0.06978 F600.000
G1 X-9.350 Y8.276 E0.09500
G1 X-9.074 Y8.200 E0.02529
G1 X-8.947 Y8.415 E0.02205
G1 X-8.648 Y8.755 E0.04004 F600.000
G1 X-8.207 Y9.097 E0.04935
G1 X-8.293 Y9.350 E0.02368
G1 X-8.501 Y9.350 E0.01834
G1 X-5.563 Y8.928 F15000.000
G1 X-5.245 Y8.648 E0.03745 F600.000
G1 X-4.903 Y8.207 E0.04935
G1 X-4.650 Y8.293 E0.02368
G1 X-4.650 Y9.350 E0.09342 F600.000
G1 X-5.724 Y9.350 E0.09500
G1 X-5.800 Y9.074 E0.02529
G1 X-5.612 Y8.963 E0.01934
G1 X-4.650 Y5.273 F15000.000
G1 X-4.650 Y5.732 E0.04060 F600.000
G1 X-4.920 Y5.811 E0.02488 F600.000
G1 X-5.127 Y5.484 E0.03421
G1 X-5.466 Y5.145 E0.04229
G1 X-5.806 Y4.914 E0.03632
G1 X-5.724 Y4.650 E0.02448
G1 X-4.650 Y4.650 E0.09497
G1 X-4.650 Y5.213 E0.04975
G1 X-4.025 Y5.213 F15000.000
G1 X-4.025 Y9.975 E0.42096 F600.000
G1 X-9.975 Y9.975 E0.52595 F600.000
G1 X-9.975 Y4.025 E0.52595
G1 X-4.025 Y4.025 E0.52595
G1 X-4.025 Y5.153 E0.09969
G1 X-3.400 Y5.153 F15000.000
G1 X-3.400 Y10.600 E0.48150 F600.000
G1 X-10.600 Y10.600 E0.63642 F600.000
G1 X-10.600 Y3.400 E0.63642
G1 X-3.400 Y3.400 E0.63642
G1 X-3.400 Y5.093 E0.14962
G1 X-3.746 Y5.353 F15000.000
G1 X-4.685 Y6.068 F15000.000
G1 X-4.624 Y6.878 E0.15221 F960.000
G1 X-4.634 Y7.327 E0.08426
G1 X-4.702 Y7.945 E0.11653
G1 X-6.058 Y9.314 F15000.000
G1 X-6.907 Y9.377 E0.15943 F960.000
G1 X-7.391 Y9.362 E0.09090
G1 X-7.942 Y9.287 E0.10402
G1 X-9.314 Y7.942 F15000.000
G1 X-9.376 Y7.122 E0.15397 F960.000
G1 X-9.366 Y6.673 E0.08425
G1 X-9.299 Y6.067 E0.11423
G1 X-7.942 Y4.686 F15000.000
G1 X-7.122 Y4.624 E0.15396 F960.000
G1 X-6.673 Y4.634 E0.08425
G1 X-6.067 Y4.701 E0.11429
G1 E-3.20000 F3000.00000
G1 Z0.750 F15000.000
G1 X5.235 Y6.777 F15000.000
G1 Z0.350 F15000.000
G1 E3.20000 F3000.00000
G1 X5.308 Y6.450 E0.02960 F600.000
G1 X5.447 Y6.129 E0.03097
G1 X5.691 Y5.792 E0.03675
G1 X5.954 Y5.561 E0.03097
G1 X6.242 Y5.390 E0.02960
G1 X6.558 Y5.277 E0.02960
G1 X6.888 Y5.224 E0.02960 F600.000
G1 X7.223 Y5.235 E0.02960
G1 X7.550 Y5.308 E0.02960
G1 X7.857 Y5.441 E0.02960
G1 X8.134 Y5.629 E0.02960
G1 X8.382 Y5.877 E0.03097
G1 X8.605 Y6.228 E0.03675
G1 X8.723 Y6.557 E0.03097
G1 X8.776 Y6.888 E0.02960
G1 X8.765 Y7.223 E0.02960
G1 X8.689 Y7.565 E0.03097
G1 X8.512 Y7.941 E0.03675
G1 X8.297 Y8.218 E0.03097
G1 X8.046 Y8.439 E0.02960
G1 X7.758 Y8.610 E0.02960
G1 X7.442 Y8.723 E0.02960
G1 X7.096 Y8.778 E0.03097
G1 X6.681 Y8.752 E0.03675
G1 X6.345 Y8.654 E0.03097
G1 X6.047 Y8.502 E0.02960
G1 X5.782 Y8.297 E0.02960
G1 X5.561 Y8.046 E0.02960
G1 X5.390 Y7.758 E0.02960
G1 X5.277 Y7.442 E0.02960
G1 X5.224 Y7.112 E0.02960
G1 X5.233 Y6.837 E0.02430
G1 X5.857 Y6.857 F15000.000
G1 X5.905 Y6.644 E0.01924 F600.000
G1 X5.993 Y6.440 E0.01965
G1 X6.156 Y6.215 E0.02456
G1 X6.323 Y6.068 E0.01965
G1 X6.510 Y5.958 E0.01916
G1 X6.714 Y5.885 E0.01916
G1 X6.928 Y5.851 E0.01916 F600.000
G1 X7.144 Y5.858 E0.01916
G1 X7.356 Y5.905 E0.01916
G1 X7.555 Y5.991 E0.01916
G1 X7.734 Y6.113 E0.01916
G1 X7.891 Y6.270 E0.01965
G1 X8.040 Y6.504 E0.02456
G1 X8.115 Y6.714 E0.01965
G1 X8.149 Y6.928 E0.01916
G1 X8.142 Y7.144 E0.01916
G1 X8.094 Y7.361 E0.01965
G1 X7.976 Y7.613 E0.02456
G1 X7.839 Y7.788 E0.01965
G1 X7.677 Y7.932 E0.01916
G1 X7.490 Y8.042 E0.01916
G1 X7.286 Y8.115 E0.01916
G1 X7.067 Y8.150 E0.01965
G1 X6.790 Y8.133 E0.02456
G1 X6.576 Y8.071 E0.01965
G1 X6.383 Y7.972 E0.01916
G1 X6.212 Y7.839 E0.01916
G1 X6.068 Y7.677 E0.01916
G1 X5.958 Y7.490 E0.01916
G1 X5.885 Y7.286 E0.01916
G1 X5.851 Y7.072 E0.01916
G1 X5.856 Y6.917 E0.01377
G1 X5.688 Y6.720 F15000.000
G1 X5.513 Y5.116 F15000.000
G1 X5.226 Y5.369 E0.03380 F600.000
G1 X4.909 Y5.806 E0.04775
G1 X4.650 Y5.722 E0.02408
G1 X4.650 Y4.650 E0.09478
G1 X5.724 Y4.650 E0.09500
G1 X5.800 Y4.926 E0.02529
G1 X5.558 Y5.077 E0.02518 F600.000
G1 X5.742 Y9.057 F15000.000
G1 X5.793 Y9.097 E0.00578 F600.000
G1 X5.707 Y9.350 E0.02368
G1 X4.650 Y9.350 E0.09342
G1 X4.650 Y8.276 E0.09500
G1 X4.926 Y8.200 E0.02529
G1 X5.053 Y8.415 E0.02205
G1 X5.352 Y8.755 E0.04004 F600.000
G1 X5.694 Y9.020 E0.03826
G1 X8.925 Y8.428 F15000.000
G1 X9.097 Y8.207 E0.02475 F600.000
