; generated by Slic3r 1.2.9 on 2024-07-27 at 05:56:18

; external perimeters extrusion width = 0.40mm
; perimeters extrusion width = 0.40mm
; infill extrusion width = 0.40mm
; solid infill extrusion width = 0.40mm
; top infill extrusion width = 0.40mm

M107
M104 S250 ; set temperature
M83
T0
M116


M109 S250 ; wait for temperature to be reached
G21 ; set units to millimeters
G90 ; use absolute coordinates
M83 ; use relative distances for extrusion
G1 E-3.20000 F3000.00000
G1 Z0.400 F15000.000
G1 X0.617 Y-40.539 F15000.000
G1 Z0.350 F15000.000
G1 E3.20000 F3000.00000
G1 X42.730 Y-39.898 E3.72290 F960.000
G1 X44.514 Y-39.475 E0.16202
G1 X45.954 Y-38.341 E0.16202
G1 X46.782 Y-36.706 E0.16202
G1 X46.915 Y-35.648 E0.09419
G1 X46.915 Y-2.786 E2.90481
G1 X46.694 Y-1.431 E0.12138
G1 X33.518 Y37.732 E3.65235
G1 X32.572 Y39.303 E0.16202
G1 X31.054 Y40.329 E0.16202
G1 X29.490 Y40.627 E0.14071
G1 X-31.410 Y40.627 E5.38307
G1 X-33.200 Y40.232 E0.16202
G1 X-34.657 Y39.119 E0.16202
G1 X-35.500 Y37.532 E0.15885
G1 X-46.755 Y-2.322 E3.66061
G1 X-46.915 Y-3.477 E0.10307
G1 X-46.915 Y-36.340 E2.90481
G1 X-46.520 Y-38.130 E0.16202
G1 X-45.408 Y-39.587 E0.16202
G1 X-43.785 Y-40.440 E0.16202
G1 X-42.666 Y-40.590 E0.09986
G1 X-2.701 Y-40.589 E3.53256
G1 X0.557 Y-40.540 E0.28802 F960.000
G1 X0.548 Y-39.915 F15000.000
G1 X42.721 Y-39.273 E3.72821 F960.000
G1 X44.359 Y-38.853 E0.14948
G1 X45.629 Y-37.736 E0.14948
G1 X46.291 Y-35.648 E0.19361
G1 X46.291 Y-2.786 E2.90481
G1 X46.101 Y-1.630 E0.10353
G1 X32.926 Y37.533 E3.65235
G1 X32.027 Y38.966 E0.14948
G1 X30.577 Y39.835 E0.14948
G1 X29.490 Y40.002 E0.09719
G1 X-31.410 Y40.002 E5.38307
G1 X-33.055 Y39.608 E0.14948
G1 X-34.341 Y38.510 E0.14948
G1 X-34.899 Y37.362 E0.11277
G1 X-46.154 Y-2.492 E3.66061
G1 X-46.291 Y-3.477 E0.08791
G1 X-46.291 Y-36.340 E2.90481
G1 X-45.896 Y-37.985 E0.14948
G1 X-44.798 Y-39.271 E0.14948
G1 X-42.666 Y-39.965 E0.19825
G1 X-2.710 Y-39.965 E3.53172
G1 X0.488 Y-39.916 E0.28272 F960.000
G1 E-3.20000 F3000.00000
G1 Z0.750 F15000.000
G1 X4.365 Y-12.706 F15000.000
G1 Z0.350 F15000.000
G1 E3.20000 F3000.00000
G1 X4.365 Y-34.049 E1.88649 F960.000
G1 X41.066 Y-34.049 E3.24403
G1 X41.066 Y-4.385 E2.62199
G1 X34.365 Y-4.385 E0.59227 F960.000
G1 X34.365 Y-27.435 E2.03743
G1 X11.066 Y-27.435 E2.05949
G1 X11.066 Y-4.385 E2.03743
G1 X4.365 Y-4.385 E0.59227
G1 X4.365 Y-12.646 E0.73020
G1 X3.741 Y-12.646 F15000.000
G1 X3.741 Y-34.674 E1.94703 F960.000
G1 X41.691 Y-34.674 E3.35450
G1 X41.691 Y-3.761 E2.73246
G1 X33.741 Y-3.761 E0.70274 F960.000
G1 X33.741 Y-26.811 E2.03743
G1 X11.691 Y-26.811 E1.94902
G1 X11.691 Y-3.761 E2.03743
G1 X3.741 Y-3.761 E0.70274
G1 X3.741 Y-12.586 E0.78013
G1 X3.116 Y-12.586 F15000.000
G1 X3.116 Y-35.298 E2.00757 F960.000
G1 X42.316 Y-35.298 E3.46497
G1 X42.316 Y-3.136 E2.84293
G1 X33.116 Y-3.136 E0.81321 F960.000
G1 X33.116 Y-26.186 E2.03743
G1 X12.316 Y-26.186 E1.83855
G1 X12.316 Y-3.136 E2.03743
G1 X3.116 Y-3.136 E0.81321
G1 X3.116 Y-12.526 E0.83006
G1 X3.462 Y-12.786 F15000.000
G1 X4.744 Y-5.069 F15000.000
G1 X5.049 Y-4.764 E0.03850 F960.000
G1 X5.941 Y-4.764 E0.07962
G1 X4.744 Y-5.961 E0.15110
G1 X4.744 Y-6.854 E0.07962
G1 X6.834 Y-4.764 E0.26371
G1 X7.726 Y-4.764 E0.07962
G1 X4.744 Y-7.746 E0.37631
G1 X4.744 Y-8.638 E0.07962
G1 X8.618 Y-4.764 E0.48891
G1 X9.510 Y-4.764 E0.07962
G1 X4.744 Y-9.530 E0.60151
G1 X4.744 Y-10.422 E0.07962
G1 X10.402 Y-4.764 E0.71411
G1 X10.687 Y-5.371 E0.05986
G1 X4.744 Y-11.315 E0.75008
G1 X4.744 Y-12.207 E0.07962
G1 X10.687 Y-6.263 E0.75008
G1 X10.687 Y-7.156 E0.07962
G1 X4.744 Y-13.099 E0.75008
G1 X4.744 Y-13.991 E0.07962
G1 X10.687 Y-8.048 E0.75008
G1 X10.687 Y-8.940 E0.07962
G1 X4.744 Y-14.883 E0.75008
G1 X4.744 Y-15.776 E0.07962
G1 X10.687 Y-9.832 E0.75008
G1 X10.687 Y-10.725 E0.07962
G1 X4.744 Y-16.668 E0.75008
G1 X4.744 Y-17.560 E0.07962
G1 X10.687 Y-11.617 E0.75008
G1 X10.687 Y-12.509 E0.07962
G1 X4.744 Y-18.452 E0.75008
G1 X4.744 Y-19.344 E0.07962
G1 X10.687 Y-13.401 E0.75008
G1 X10.687 Y-14.293 E0.07962
G1 X4.744 Y-20.237 E0.75008
G1 X4.744 Y-21.129 E0.07962
G1 X10.687 Y-15.186 E0.75008
G1 X10.687 Y-16.078 E0.07962
G1 X4.744 Y-22.021 E0.75008
G1 X4.744 Y-22.913 E0.07962
G1 X10.687 Y-16.970 E0.75008
G1 X10.687 Y-17.862 E0.07962
G1 X4.744 Y-23.806 E0.75008
G1 X4.744 Y-24.698 E0.07962
G1 X10.687 Y-18.754 E0.75008
G1 X10.687 Y-19.647 E0.07962
G1 X4.744 Y-25.590 E0.75008
G1 X4.744 Y-26.482 E0.07962
G1 X10.687 Y-20.539 E0.75008
G1 X10.687 Y-21.431 E0.07962
G1 X4.744 Y-27.374 E0.75008
G1 X4.744 Y-28.267 E0.07962
G1 X10.687 Y-22.323 E0.75008
G1 X10.687 Y-23.215 E0.07962
G1 X4.744 Y-29.159 E0.75008
G1 X4.744 Y-30.051 E0.07962
G1 X10.687 Y-24.108 E0.75008
G1 X10.687 Y-25.000 E0.07962
G1 X4.744 Y-30.943 E0.75008
G1 X4.744 Y-31.835 E0.07962
G1 X10.687 Y-25.892 E0.75008
G1 X10.687 Y-26.784 E0.07962
G1 X4.744 Y-32.728 E0.75008
G1 X4.744 Y-33.620 E0.07962
G1 X10.687 Y-27.677 E0.75008
G1 X11.442 Y-27.814 E0.06846
G1 X5.586 Y-33.670 E0.73907
G1 X6.478 Y-33.670 E0.07962
G1 X12.334 Y-27.814 E0.73907
G1 X13.226 Y-27.814 E0.07962
G1 X7.370 Y-33.670 E0.73907
G1 X8.263 Y-33.670 E0.07962
G1 X14.119 Y-27.814 E0.73907
G1 X15.011 Y-27.814 E0.07962
G1 X9.155 Y-33.670 E0.73907
G1 X10.047 Y-33.670 E0.07962
G1 X15.903 Y-27.814 E0.73907
G1 X16.795 Y-27.814 E0.07962
G1 X10.939 Y-33.670 E0.73907
G1 X11.831 Y-33.670 E0.07962
G1 X17.688 Y-27.814 E0.73907
G1 X18.580 Y-27.814 E0.07962
G1 X12.724 Y-33.670 E0.73907
G1 X13.616 Y-33.670 E0.07962
G1 X19.472 Y-27.814 E0.73907
G1 X20.364 Y-27.814 E0.07962
G1 X14.508 Y-33.670 E0.73907
G1 X15.400 Y-33.670 E0.07962
G1 X21.256 Y-27.814 E0.73907
G1 X22.149 Y-27.814 E0.07962
G1 X16.292 Y-33.670 E0.73907
G1 X17.185 Y-33.670 E0.07962
G1 X23.041 Y-27.814 E0.73907
G1 X23.933 Y-27.814 E0.07962
G1 X18.077 Y-33.670 E0.73907
G1 X18.969 Y-33.670 E0.07962
G1 X24.825 Y-27.814 E0.73907
G1 X25.717 Y-27.814 E0.07962
G1 X19.861 Y-33.670 E0.73907
G1 X20.754 Y-33.670 E0.07962
G1 X26.610 Y-27.814 E0.73907
G1 X27.502 Y-27.814 E0.07962
G1 X21.646 Y-33.670 E0.73907
G1 X22.538 Y-33.670 E0.07962
G1 X28.394 Y-27.814 E0.73907
G1 X29.286 Y-27.814 E0.07962
G1 X23.430 Y-33.670 E0.73907
G1 X24.322 Y-33.670 E0.07962
G1 X30.179 Y-27.814 E0.73907
G1 X31.071 Y-27.814 E0.07962
G1 X25.215 Y-33.670 E0.73907
G1 X26.107 Y-33.670 E0.07962
G1 X31.963 Y-27.814 E0.73907
G1 X32.855 Y-27.814 E0.07962
G1 X26.999 Y-33.670 E0.73907
G1 X27.891 Y-33.670 E0.07962
G1 X33.747 Y-27.814 E0.73907
G1 X40.687 Y-33.365 F15000.000
G1 X40.382 Y-33.670 E0.03851 F960.000
G1 X39.490 Y-33.670 E0.07962
G1 X40.687 Y-32.473 E0.15111
G1 X40.687 Y-31.581 E0.07962
G1 X38.598 Y-33.670 E0.26371
G1 X37.706 Y-33.670 E0.07962
G1 X40.687 Y-30.688 E0.37631
G1 X40.687 Y-29.796 E0.07962
G1 X36.813 Y-33.670 E0.48891
G1 X35.921 Y-33.670 E0.07962
G1 X40.687 Y-28.904 E0.60152
G1 X40.687 Y-28.012 E0.07962
G1 X35.029 Y-33.670 E0.71412
G1 X34.137 Y-33.670 E0.07962
G1 X40.687 Y-27.120 E0.82672
G1 X40.687 Y-26.227 E0.07962
G1 X33.245 Y-33.670 E0.93932
G1 X32.352 Y-33.670 E0.07962
G1 X40.687 Y-25.335 E1.05192
G1 X40.687 Y-24.443 E0.07962
G1 X31.460 Y-33.670 E1.16453
G1 X30.568 Y-33.670 E0.07962
G1 X40.687 Y-23.551 E1.27713
G1 X40.687 Y-22.658 E0.07962
G1 X29.676 Y-33.670 E1.38973
G1 X28.783 Y-33.670 E0.07962
G1 X40.687 Y-21.766 E1.50233
G1 X40.687 Y-20.874 E0.07962
G1 X34.744 Y-26.817 E0.75008
G1 X34.744 Y-25.925 E0.07962
G1 X40.687 Y-19.982 E0.75008
G1 X40.687 Y-19.090 E0.07962
G1 X34.744 Y-25.033 E0.75008
G1 X34.744 Y-24.141 E0.07962
G1 X40.687 Y-18.197 E0.75008
G1 X40.687 Y-17.305 E0.07962
G1 X34.744 Y-23.249 E0.75008
G1 X34.744 Y-22.356 E0.07962
G1 X40.687 Y-16.413 E0.75008
G1 X40.687 Y-15.521 E0.07962
G1 X34.744 Y-21.464 E0.75008
G1 X34.744 Y-20.572 E0.07962
G1 X40.687 Y-14.629 E0.75008
G1 X40.687 Y-13.736 E0.07962
G1 X34.744 Y-19.680 E0.75008
G1 X34.744 Y-18.787 E0.07962
G1 X40.687 Y-12.844 E0.75008
G1 X40.687 Y-11.952 E0.07962
G1 X34.744 Y-17.895 E0.75008
G1 X34.744 Y-17.003 E0.07962
G1 X40.687 Y-11.060 E0.75008
G1 X40.687 Y-10.167 E0.07962
G1 X34.744 Y-16.111 E0.75008
G1 X34.744 Y-15.219 E0.07962
G1 X40.687 Y-9.275 E0.75008
G1 X40.687 Y-8.383 E0.07962
G1 X34.744 Y-14.326 E0.75008
G1 X34.744 Y-13.434 E0.07962
G1 X40.687 Y-7.491 E0.75008
G1 X40.687 Y-6.599 E0.07962
G1 X34.744 Y-12.542 E0.75008
G1 X34.744 Y-11.650 E0.07962
G1 X40.687 Y-5.706 E0.75008
G1 X40.687 Y-4.814 E0.07962
G1 X34.744 Y-10.758 E0.75008
G1 X34.744 Y-9.865 E0.07962
G1 X39.845 Y-4.764 E0.64381
G1 X38.953 Y-4.764 E0.07962
G1 X34.744 Y-8.973 E0.53121
G1 X34.744 Y-8.081 E0.07962
G1 X38.061 Y-4.764 E0.41861
G1 X37.169 Y-4.764 E0.07962
G1 X34.744 Y-7.189 E0.30601
G1 X34.744 Y-6.296 E0.07962
G1 X36.276 Y-4.764 E0.19341
G1 X35.384 Y-4.764 E0.07962
G1 X34.744 Y-5.404 E0.08081
G1 E-3.20000 F3000.00000
G1 Z0.750 F15000.000
G1 X-41.066 Y-13.003 F15000.000
G1 Z0.350 F15000.000
G1 E3.20000 F3000.00000
G1 X-41.066 Y-34.740 E1.92142 F960.000
G1 X-4.365 Y-34.740 E3.24403
G1 X-4.365 Y-5.077 E2.62199
G1 X-11.066 Y-5.077 E0.59227 F960.000
G1 X-11.066 Y-28.127 E2.03743
G1 X-34.365 Y-28.127 E2.05949
G1 X-34.365 Y-5.077 E2.03743
G1 X-41.066 Y-5.077 E0.59227
G1 X-41.066 Y-12.943 E0.69527
G1 X-41.691 Y-12.943 F15000.000
G1 X-41.691 Y-35.365 E1.98196 F960.000
G1 X-3.741 Y-35.365 E3.35450
G1 X-3.741 Y-4.452 E2.73246
G1 X-11.691 Y-4.452 E0.70274 F960.000
G1 X-11.691 Y-27.502 E2.03743
G1 X-33.741 Y-27.502 E1.94902
G1 X-33.741 Y-4.452 E2.03743
G1 X-41.691 Y-4.452 E0.70274
G1 X-41.691 Y-12.883 E0.74520
G1 X-42.316 Y-12.883 F15000.000
G1 X-42.316 Y-35.990 E2.04250 F960.000
G1 X-3.116 Y-35.990 E3.46497
G1 X-3.116 Y-3.827 E2.84293
G1 X-12.316 Y-3.827 E0.81321 F960.000
G1 X-12.316 Y-26.877 E2.03743
G1 X-33.116 Y-26.877 E1.83855
G1 X-33.116 Y-3.827 E2.03743
G1 X-42.316 Y-3.827 E0.81321
G1 X-42.316 Y-12.823 E0.79513
G1 X-41.969 Y-13.083 F15000.000
G1 X-40.687 Y-5.761 F15000.000
G1 X-40.382 Y-5.456 E0.03850 F960.000
G1 X-39.490 Y-5.456 E0.07962
G1 X-40.687 Y-6.653 E0.15110
G1 X-40.687 Y-7.545 E0.07962
G1 X-38.598 Y-5.456 E0.26371
G1 X-37.706 Y-5.456 E0.07962
G1 X-40.687 Y-8.437 E0.37631
G1 X-40.687 Y-9.330 E0.07962
G1 X-36.813 Y-5.456 E0.48891
G1 X-35.921 Y-5.456 E0.07962
G1 X-40.687 Y-10.222 E0.60151
G1 X-40.687 Y-11.114 E0.07962
G1 X-35.029 Y-5.456 E0.71411
G1 X-34.744 Y-6.063 E0.05986
G1 X-40.687 Y-12.006 E0.75008
G1 X-40.687 Y-12.898 E0.07962
G1 X-34.744 Y-6.955 E0.75008
G1 X-34.744 Y-7.847 E0.07962
G1 X-40.687 Y-13.791 E0.75008
G1 X-40.687 Y-14.683 E0.07962
G1 X-34.744 Y-8.739 E0.75008
G1 X-34.744 Y-9.632 E0.07962
G1 X-40.687 Y-15.575 E0.75008
G1 X-40.687 Y-16.467 E0.07962
G1 X-34.744 Y-10.524 E0.75008
G1 X-34.744 Y-11.416 E0.07962
G1 X-40.687 Y-17.359 E0.75008
G1 X-40.687 Y-18.252 E0.07962
G1 X-34.744 Y-12.308 E0.75008
G1 X-34.744 Y-13.201 E0.07962
G1 X-40.687 Y-19.144 E0.75008
G1 X-40.687 Y-20.036 E0.07962
G1 X-34.744 Y-14.093 E0.75008
G1 X-34.744 Y-14.985 E0.07962
G1 X-40.687 Y-20.928 E0.75008
G1 X-40.687 Y-21.820 E0.07962
G1 X-34.744 Y-15.877 E0.75008
G1 X-34.744 Y-16.769 E0.07962
G1 X-40.687 Y-22.713 E0.75008
G1 X-40.687 Y-23.605 E0.07962
G1 X-34.744 Y-17.662 E0.75008
G1 X-34.744 Y-18.554 E0.07962
G1 X-40.687 Y-24.497 E0.75008
G1 X-40.687 Y-25.389 E0.07962
G1 X-34.744 Y-19.446 E0.75008
G1 X-34.744 Y-20.338 E0.07962
G1 X-40.687 Y-26.282 E0.75008
G1 X-40.687 Y-27.174 E0.07962
G1 X-34.744 Y-21.230 E0.75008
G1 X-34.744 Y-22.123 E0.07962
G1 X-40.687 Y-28.066 E0.75008
G1 X-40.687 Y-28.958 E0.07962
G1 X-34.744 Y-23.015 E0.75008
G1 X-34.744 Y-23.907 E0.07962
G1 X-40.687 Y-29.850 E0.75008
G1 X-40.687 Y-30.743 E0.07962
G1 X-34.744 Y-24.799 E0.75008
G1 X-34.744 Y-25.691 E0.07962
G1 X-40.687 Y-31.635 E0.75008
G1 X-40.687 Y-32.527 E0.07962
G1 X-34.744 Y-26.584 E0.75008
G1 X-34.744 Y-27.476 E0.07962
G1 X-40.687 Y-33.419 E0.75008
G1 X-40.687 Y-34.311 E0.07962
G1 X-34.744 Y-28.368 E0.75008
G1 X-33.989 Y-28.506 E0.06846
G1 X-39.845 Y-34.362 E0.73907
G1 X-38.953 Y-34.362 E0.07962
G1 X-33.097 Y-28.506 E0.73907
G1 X-32.205 Y-28.506 E0.07962
G1 X-38.061 Y-34.362 E0.73907
G1 X-37.169 Y-34.362 E0.07962
G1 X-31.313 Y-28.506 E0.73907
G1 X-30.420 Y-28.506 E0.07962
G1 X-36.277 Y-34.362 E0.73907
G1 X-35.384 Y-34.362 E0.07962
G1 X-29.528 Y-28.506 E0.73907
G1 X-28.636 Y-28.506 E0.07962
G1 X-34.492 Y-34.362 E0.73907
G1 X-33.600 Y-34.362 E0.07962
G1 X-27.744 Y-28.506 E0.73907
G1 X-26.852 Y-28.506 E0.07962
G1 X-32.708 Y-34.362 E0.73907
G1 X-31.815 Y-34.362 E0.07962
G1 X-25.959 Y-28.506 E0.73907
G1 X-25.067 Y-28.506 E0.07962
G1 X-30.923 Y-34.362 E0.73907
G1 X-30.031 Y-34.362 E0.07962
G1 X-24.175 Y-28.506 E0.73907
G1 X-23.283 Y-28.506 E0.07962
G1 X-29.139 Y-34.362 E0.73907
G1 X-28.247 Y-34.362 E0.07962
G1 X-22.391 Y-28.506 E0.73907
G1 X-21.498 Y-28.506 E0.07962
G1 X-27.354 Y-34.362 E0.73907
G1 X-26.462 Y-34.362 E0.07962
G1 X-20.606 Y-28.506 E0.73907
G1 X-19.714 Y-28.506 E0.07962
G1 X-25.570 Y-34.362 E0.73907
G1 X-24.678 Y-34.362 E0.07962
G1 X-18.822 Y-28.506 E0.73907
G1 X-17.929 Y-28.506 E0.07962
G1 X-23.786 Y-34.362 E0.73907
G1 X-22.893 Y-34.362 E0.07962
G1 X-17.037 Y-28.506 E0.73907
G1 X-16.145 Y-28.506 E0.07962
G1 X-22.001 Y-34.362 E0.73907
G1 X-21.109 Y-34.362 E0.07962
G1 X-15.253 Y-28.506 E0.73907
G1 X-14.361 Y-28.506 E0.07962
G1 X-20.217 Y-34.362 E0.73907
G1 X-19.325 Y-34.362 E0.07962
G1 X-13.468 Y-28.506 E0.73907
G1 X-12.576 Y-28.506 E0.07962
G1 X-18.432 Y-34.362 E0.73907
G1 X-17.540 Y-34.362 E0.07962
G1 X-11.684 Y-28.506 E0.73907
G1 X-4.744 Y-34.057 F15000.000
G1 X-5.049 Y-34.362 E0.03851 F960.000
G1 X-5.941 Y-34.362 E0.07962
G1 X-4.744 Y-33.164 E0.15111
G1 X-4.744 Y-32.272 E0.07962
G1 X-6.834 Y-34.362 E0.26371
G1 X-7.726 Y-34.362 E0.07962
G1 X-4.744 Y-31.380 E0.37631
G1 X-4.744 Y-30.488 E0.07962
G1 X-8.618 Y-34.362 E0.48891
G1 X-9.510 Y-34.362 E0.07962
G1 X-4.744 Y-29.596 E0.60152
G1 X-4.744 Y-28.703 E0.07962
G1 X-10.402 Y-34.362 E0.71412
G1 X-11.295 Y-34.362 E0.07962
G1 X-4.744 Y-27.811 E0.82672
G1 X-4.744 Y-26.919 E0.07962
G1 X-12.187 Y-34.362 E0.93932
G1 X-13.079 Y-34.362 E0.07962
G1 X-4.744 Y-26.027 E1.05192
G1 X-4.744 Y-25.134 E0.07962
G1 X-13.971 Y-34.362 E1.16453
G1 X-14.863 Y-34.362 E0.07962
G1 X-4.744 Y-24.242 E1.27713
G1 X-4.744 Y-23.350 E0.07962
G1 X-15.756 Y-34.362 E1.38973
G1 X-16.648 Y-34.362 E0.07962
G1 X-4.744 Y-22.458 E1.50233
G1 X-4.744 Y-21.566 E0.07962
G1 X-10.687 Y-27.509 E0.75008
G1 X-10.687 Y-26.617 E0.07962
G1 X-4.744 Y-20.673 E0.75008
G1 X-4.744 Y-19.781 E0.07962
G1 X-10.687 Y-25.725 E0.75008
G1 X-10.687 Y-24.832 E0.07962
G1 X-4.744 Y-18.889 E0.75008
G1 X-4.744 Y-17.997 E0.07962
G1 X-10.687 Y-23.940 E0.75008
G1 X-10.687 Y-23.048 E0.07962
G1 X-4.744 Y-17.105 E0.75008
G1 X-4.744 Y-16.212 E0.07962
G1 X-10.687 Y-22.156 E0.75008
G1 X-10.687 Y-21.263 E0.07962
G1 X-4.744 Y-15.320 E0.75008
G1 X-4.744 Y-14.428 E0.07962
G1 X-10.687 Y-20.371 E0.75008
G1 X-10.687 Y-19.479 E0.07962
G1 X-4.744 Y-13.536 E0.75008
G1 X-4.744 Y-12.644 E0.07962
G1 X-10.687 Y-18.587 E0.75008
G1 X-10.687 Y-17.695 E0.07962
G1 X-4.744 Y-11.751 E0.75008
G1 X-4.744 Y-10.859 E0.07962
G1 X-10.687 Y-16.802 E0.75008
G1 X-10.687 Y-15.910 E0.07962
G1 X-4.744 Y-9.967 E0.75008
G1 X-4.744 Y-9.075 E0.07962
G1 X-10.687 Y-15.018 E0.75008
G1 X-10.687 Y-14.126 E0.07962
G1 X-4.744 Y-8.182 E0.75008
G1 X-4.744 Y-7.290 E0.07962
G1 X-10.687 Y-13.234 E0.75008
G1 X-10.687 Y-12.341 E0.07962
G1 X-4.744 Y-6.398 E0.75008
G1 X-4.744 Y-5.506 E0.07962
G1 X-10.687 Y-11.449 E0.75008
G1 X-10.687 Y-10.557 E0.07962
G1 X-5.586 Y-5.456 E0.64381
G1 X-6.478 Y-5.456 E0.07962
G1 X-10.687 Y-9.665 E0.53121
G1 X-10.687 Y-8.773 E0.07962
G1 X-7.370 Y-5.456 E0.41861
G1 X-8.263 Y-5.456 E0.07962
G1 X-10.687 Y-7.880 E0.30601
G1 X-10.687 Y-6.988 E0.07962
G1 X-9.155 Y-5.456 E0.19341
G1 X-10.047 Y-5.456 E0.07962
G1 X-10.687 Y-6.096 E0.08081
G1 E-3.20000 F3000.00000
G1 Z0.750 F15000.000
G1 X-6.084 Y22.587 F15000.000
G1 Z0.350 F15000.000
G1 E3.20000 F3000.00000
G1 X-5.479 Y22.519 E0.05378 F600.000
G1 X-4.916 Y22.571 E0.04998
G1 X-4.378 Y22.729 E0.04956
G1 X-3.837 Y23.014 E0.05406
G1 X-3.405 Y23.371 E0.04949
G1 X-3.048 Y23.803 E0.04955
G1 X-2.761 Y24.346 E0.05430
G1 X-2.605 Y24.883 E0.04942
G1 X-2.553 Y25.427 E0.04834
G1 X-2.605 Y25.972 E0.04834
G1 X-2.761 Y26.509 E0.04942
G1 X-3.048 Y27.052 E0.05430
