; generated by Slic3r 1.2.9 on 2024-07-15 at 06:51:23

; external perimeters extrusion width = 0.40mm
; perimeters extrusion width = 0.40mm
; infill extrusion width = 0.40mm
; solid infill extrusion width = 0.40mm
; top infill extrusion width = 0.40mm

M107
M104 S250 ; set temperature
M83
T0
M116


M109 S250 ; wait for temperature to be reached
G21 ; set units to millimeters
G90 ; use absolute coordinates
M83 ; use relative distances for extrusion
G1 E-3.20000 F3000.00000
G1 Z0.400 F15000.000
G1 X-0.000 Y16.486 F15000.000
G1 Z0.350 F15000.000
G1 E3.20000 F3000.00000
G1 X-19.950 Y16.486 E1.76342 F960.000
G1 X-21.740 Y16.091 E0.16202
G1 X-23.197 Y14.978 E0.16202
G1 X-24.050 Y13.356 E0.16202
G1 X-24.200 Y12.236 E0.09986
G1 X-24.200 Y-16.450 E2.53562
G1 X-23.804 Y-18.240 E0.16202
G1 X-22.692 Y-19.697 E0.16202
G1 X-21.070 Y-20.550 E0.16202
G1 X-19.950 Y-20.700 E0.09986
G1 X19.950 Y-20.700 E3.52684
G1 X21.740 Y-20.304 E0.16202
G1 X23.197 Y-19.192 E0.16202 F960.000
G1 X24.050 Y-17.570 E0.16202
G1 X24.200 Y-16.450 E0.09986
G1 X24.200 Y12.236 E2.53562
G1 X23.804 Y14.026 E0.16202
G1 X22.692 Y15.483 E0.16202
G1 X21.070 Y16.336 E0.16202
G1 X19.950 Y16.486 E0.09985
G1 X0.060 Y16.486 E1.75812
G1 X0.060 Y15.861 F15000.000
G1 X-19.950 Y15.861 E1.76872 F960.000
G1 X-21.594 Y15.467 E0.14948
G1 X-22.881 Y14.369 E0.14948
G1 X-23.575 Y12.236 E0.19825
G1 X-23.575 Y-16.450 E2.53562
G1 X-23.180 Y-18.094 E0.14948
G1 X-22.083 Y-19.381 E0.14948
G1 X-19.950 Y-20.075 E0.19825
G1 X19.950 Y-20.075 E3.52684
G1 X21.594 Y-19.680 E0.14948
G1 X22.881 Y-18.583 E0.14948 F960.000
G1 X23.575 Y-16.450 E0.19825
G1 X23.575 Y12.236 E2.53562
G1 X23.180 Y13.881 E0.14948
G1 X22.083 Y15.167 E0.14948
G1 X19.950 Y15.861 E0.19825
G1 X0.120 Y15.861 E1.75281
G1 E-3.20000 F3000.00000
G1 Z0.750 F15000.000
G1 X11.650 Y-14.850 F15000.000
G1 Z0.350 F15000.000
G1 E3.20000 F3000.00000
G1 X18.350 Y-14.850 E0.59227 F960.000
G1 X18.350 Y10.636 E2.25281
G1 X-18.350 Y10.636 E3.24402
G1 X-18.350 Y-14.850 E2.25281
G1 X-11.650 Y-14.850 E0.59227
G1 X-11.650 Y8.200 E2.03743
G1 X11.650 Y8.200 E2.05949 F960.000
G1 X11.650 Y-14.790 E2.03213
G1 X11.025 Y-14.790 F15000.000
G1 X11.025 Y-15.475 E0.06054 F960.000
G1 X18.975 Y-15.475 E0.70274
G1 X18.975 Y11.261 E2.36328
G1 X-18.975 Y11.261 E3.35449
G1 X-18.975 Y-15.475 E2.36328
G1 X-11.025 Y-15.475 E0.70274
G1 X-11.025 Y7.575 E2.03743
G1 X11.025 Y7.575 E1.94902 F960.000
G1 X11.025 Y-14.730 E1.97159
G1 X10.400 Y-14.730 F15000.000
G1 X10.400 Y-16.100 E0.12108 F960.000
G1 X19.600 Y-16.100 E0.81321
G1 X19.600 Y11.886 E2.47375
G1 X-19.600 Y11.886 E3.46496
G1 X-19.600 Y-16.100 E2.47375
G1 X-10.400 Y-16.100 E0.81321
G1 X-10.400 Y6.950 E2.03743
G1 X10.400 Y6.950 E1.83855 F960.000
G1 X10.400 Y-14.670 E1.91105
G1 X10.746 Y-14.930 F15000.000
G1 X17.972 Y-14.167 F15000.000
G1 X17.667 Y-14.472 E0.03869 F960.000
G1 X16.770 Y-14.472 E0.08038
G1 X17.972 Y-13.270 E0.15237
G1 X17.972 Y-12.374 E0.08038
G1 X15.874 Y-14.472 E0.26604
G1 X14.977 Y-14.472 E0.08038
G1 X17.972 Y-11.477 E0.37972
G1 X17.972 Y-10.581 E0.08038
G1 X14.081 Y-14.472 E0.49339
G1 X13.184 Y-14.472 E0.08038
G1 X17.972 Y-9.684 E0.60707
G1 X17.972 Y-8.788 E0.08038
G1 X12.288 Y-14.472 E0.72074
G1 X12.028 Y-13.835 E0.06167
G1 X17.972 Y-7.891 E0.75364
G1 X17.972 Y-6.995 E0.08038
G1 X12.028 Y-12.938 E0.75364
G1 X12.028 Y-12.042 E0.08038
G1 X17.972 Y-6.098 E0.75364
G1 X17.972 Y-5.202 E0.08038
G1 X12.028 Y-11.145 E0.75364
G1 X12.028 Y-10.249 E0.08038
G1 X17.972 Y-4.306 E0.75364
G1 X17.972 Y-3.409 E0.08038
G1 X12.028 Y-9.352 E0.75364
G1 X12.028 Y-8.456 E0.08038
G1 X17.972 Y-2.513 E0.75364
G1 X17.972 Y-1.616 E0.08038
G1 X12.028 Y-7.559 E0.75364
G1 X12.028 Y-6.663 E0.08038
G1 X17.972 Y-0.720 E0.75364
G1 X17.972 Y0.177 E0.08038
G1 X12.028 Y-5.767 E0.75364
G1 X12.028 Y-4.870 E0.08038
G1 X17.972 Y1.073 E0.75364
G1 X17.972 Y1.970 E0.08038
G1 X12.028 Y-3.974 E0.75364
G1 X12.028 Y-3.077 E0.08038
G1 X17.972 Y2.866 E0.75364
G1 X17.972 Y3.763 E0.08038
G1 X12.028 Y-2.181 E0.75364
G1 X12.028 Y-1.284 E0.08038
G1 X17.972 Y4.659 E0.75364
G1 X17.972 Y5.555 E0.08038
G1 X12.028 Y-0.388 E0.75364
G1 X12.028 Y0.509 E0.08038
G1 X17.972 Y6.452 E0.75364
G1 X17.972 Y7.348 E0.08038
G1 X12.028 Y1.405 E0.75364
G1 X12.028 Y2.302 E0.08038
G1 X17.972 Y8.245 E0.75364
G1 X17.972 Y9.141 E0.08038
G1 X12.028 Y3.198 E0.75364
G1 X12.028 Y4.094 E0.08038
G1 X17.972 Y10.038 E0.75364
G1 X17.295 Y10.258 E0.06378
G1 X12.028 Y4.991 E0.66786
G1 X12.028 Y5.887 E0.08038
G1 X16.399 Y10.258 E0.55419
G1 X15.502 Y10.258 E0.08038
G1 X12.028 Y6.784 E0.44051
G1 X12.028 Y7.680 E0.08038
G1 X14.606 Y10.258 E0.32684
G1 X13.709 Y10.258 E0.08038
G1 X12.028 Y8.577 E0.21316
G1 X11.134 Y8.578 E0.08024
G1 X12.813 Y10.258 E0.21296
G1 X11.916 Y10.258 E0.08038
G1 X10.237 Y8.578 E0.21296
G1 X9.341 Y8.578 E0.08038
G1 X11.020 Y10.258 E0.21296
G1 X10.124 Y10.258 E0.08038
G1 X8.444 Y8.578 E0.21296
G1 X7.548 Y8.578 E0.08038
G1 X9.227 Y10.258 E0.21296
G1 X8.331 Y10.258 E0.08038
G1 X6.651 Y8.578 E0.21296
G1 X5.755 Y8.578 E0.08038
G1 X7.434 Y10.258 E0.21296
G1 X6.538 Y10.258 E0.08038
G1 X4.858 Y8.578 E0.21296
G1 X3.962 Y8.578 E0.08038
G1 X5.641 Y10.258 E0.21296
G1 X4.745 Y10.258 E0.08038
G1 X3.065 Y8.578 E0.21296
G1 X2.169 Y8.578 E0.08038
G1 X3.848 Y10.258 E0.21296
G1 X2.952 Y10.258 E0.08038
G1 X1.273 Y8.578 E0.21296
G1 X0.376 Y8.578 E0.08038
G1 X2.055 Y10.258 E0.21296
G1 X1.159 Y10.258 E0.08038
G1 X-0.520 Y8.578 E0.21296
G1 X-1.417 Y8.578 E0.08038
G1 X0.263 Y10.258 E0.21296
G1 X-0.634 Y10.258 E0.08038
G1 X-2.313 Y8.578 E0.21296
G1 X-3.210 Y8.578 E0.08038
G1 X-1.530 Y10.258 E0.21296
G1 X-2.427 Y10.258 E0.08038
G1 X-4.106 Y8.578 E0.21296
G1 X-5.003 Y8.578 E0.08038
G1 X-3.323 Y10.258 E0.21296
G1 X-4.220 Y10.258 E0.08038
G1 X-5.899 Y8.578 E0.21296
G1 X-6.796 Y8.578 E0.08038
G1 X-5.116 Y10.258 E0.21296
G1 X-6.013 Y10.258 E0.08038
G1 X-7.692 Y8.578 E0.21296
G1 X-8.588 Y8.578 E0.08038
G1 X-6.909 Y10.258 E0.21296
G1 X-7.806 Y10.258 E0.08038
G1 X-9.485 Y8.578 E0.21296
G1 X-10.381 Y8.578 E0.08038
G1 X-8.702 Y10.258 E0.21296
G1 X-9.598 Y10.258 E0.08038
G1 X-11.278 Y8.578 E0.21296
G1 X-12.028 Y8.724 E0.06855
G1 X-17.972 Y2.781 E0.75364
G1 X-17.972 Y1.885 E0.08038
G1 X-12.028 Y7.828 E0.75364
G1 X-12.174 Y8.578 E0.06855
G1 X-10.495 Y10.258 E0.21296
G1 X-11.391 Y10.258 E0.08038
G1 X-17.972 Y3.677 E0.83441
G1 X-17.972 Y4.574 E0.08038
G1 X-12.288 Y10.258 E0.72074
G1 X-13.184 Y10.258 E0.08038
G1 X-17.972 Y5.470 E0.60706
G1 X-17.972 Y6.367 E0.08038
G1 X-14.081 Y10.258 E0.49339
G1 X-14.977 Y10.258 E0.08038
G1 X-17.972 Y7.263 E0.37971
G1 X-17.972 Y8.160 E0.08038
G1 X-15.874 Y10.258 E0.26604
G1 X-16.770 Y10.258 E0.08038
G1 X-17.972 Y9.056 E0.15236
G1 X-17.972 Y9.953 E0.08038
G1 X-17.667 Y10.258 E0.03869
G1 X-12.028 Y6.931 F15000.000
G1 X-17.972 Y0.988 E0.75364 F960.000
G1 X-17.972 Y0.092 E0.08038
G1 X-12.028 Y6.035 E0.75364
G1 X-12.028 Y5.138 E0.08038
G1 X-17.972 Y-0.805 E0.75364
G1 X-17.972 Y-1.701 E0.08038
G1 X-12.028 Y4.242 E0.75364
G1 X-12.028 Y3.346 E0.08038
G1 X-17.972 Y-2.598 E0.75364
G1 X-17.972 Y-3.494 E0.08038
G1 X-12.028 Y2.449 E0.75364
G1 X-12.028 Y1.553 E0.08038
G1 X-17.972 Y-4.391 E0.75364
G1 X-17.972 Y-5.287 E0.08038
G1 X-12.028 Y0.656 E0.75364
G1 X-12.028 Y-0.240 E0.08038
G1 X-17.972 Y-6.184 E0.75364
G1 X-17.972 Y-7.080 E0.08038
G1 X-12.028 Y-1.137 E0.75364
G1 X-12.028 Y-2.033 E0.08038
G1 X-17.972 Y-7.976 E0.75364
G1 X-17.972 Y-8.873 E0.08038
G1 X-12.028 Y-2.930 E0.75364
G1 X-12.028 Y-3.826 E0.08038
G1 X-17.972 Y-9.769 E0.75364
G1 X-17.972 Y-10.666 E0.08038
G1 X-12.028 Y-4.723 E0.75364
G1 X-12.028 Y-5.619 E0.08038
G1 X-17.972 Y-11.562 E0.75364
G1 X-17.972 Y-12.459 E0.08038
G1 X-12.028 Y-6.515 E0.75364
G1 X-12.028 Y-7.412 E0.08038
G1 X-17.972 Y-13.355 E0.75364
G1 X-17.972 Y-14.252 E0.08038
G1 X-12.028 Y-8.308 E0.75364
G1 X-12.028 Y-9.205 E0.08038
G1 X-17.295 Y-14.472 E0.66787
G1 X-16.399 Y-14.472 E0.08038
G1 X-12.028 Y-10.101 E0.55419
G1 X-12.028 Y-10.998 E0.08038
G1 X-15.502 Y-14.472 E0.44052
G1 X-14.606 Y-14.472 E0.08038
G1 X-12.028 Y-11.894 E0.32684
G1 X-12.028 Y-12.791 E0.08038
G1 X-13.709 Y-14.472 E0.21317
G1 X-12.813 Y-14.472 E0.08038
G1 X-12.028 Y-13.687 E0.09949
M104 S246 ; set temperature
G1 E-3.20000 F3000.00000
G1 Z0.750 F15000.000
G1 X19.036 Y-9.604 F15000.000
G1 Z0.550 F15000.000
G1 E3.20000 F3000.00000
G1 X19.036 Y11.380 E0.60567 F3940.679
G1 X-19.036 Y11.380 E1.09885
G1 X-19.036 Y-15.536 E0.77687
G1 X-10.964 Y-15.536 E0.23297
G1 X-10.964 Y7.514 E0.66528
G1 X10.964 Y7.514 E0.63291 F3940.679
G1 X10.964 Y-15.536 E0.66528
G1 X19.036 Y-15.536 E0.23297
G1 X19.036 Y-9.664 E0.16948
G1 X19.393 Y-9.664 F15000.000
G1 X19.393 Y11.737 E0.61770 F3940.679
G1 X-19.393 Y11.737 E1.11946
G1 X-19.393 Y-15.893 E0.79749
G1 X-10.607 Y-15.893 E0.25358
G1 X-10.607 Y7.157 E0.66528
G1 X10.607 Y7.157 E0.61230 F3940.679
G1 X10.607 Y-15.893 E0.66528
G1 X19.393 Y-15.893 E0.25358
G1 X19.393 Y-9.724 E0.17805
G1 X19.750 Y-9.724 F15000.000
G1 X19.750 Y12.095 E0.62974 F3940.679
G1 X-19.750 Y12.095 E1.14008
G1 X-19.750 Y-16.250 E0.81810
G1 X-10.250 Y-16.250 E0.27420
G1 X-10.250 Y6.800 E0.66528
G1 X10.250 Y6.800 E0.59168 F3940.679
G1 X10.250 Y-16.250 E0.66528
G1 X19.750 Y-16.250 E0.27420
G1 X19.750 Y-9.784 E0.18663
G1 X19.404 Y-9.524 F15000.000
G1 X11.732 Y-15.328 F15000.000
G1 X11.172 Y-14.768 E0.02291 F3940.679
G1 X11.172 Y-14.262 E0.01464
G1 X12.238 Y-15.328 E0.04362
G1 X12.744 Y-15.328 E0.01464
G1 X11.172 Y-13.756 E0.06432
G1 X11.172 Y-13.250 E0.01464
G1 X13.250 Y-15.328 E0.08503
G1 X13.756 Y-15.328 E0.01464
G1 X11.172 Y-12.744 E0.10574
G1 X11.172 Y-12.237 E0.01464
G1 X14.263 Y-15.328 E0.12644
G1 X14.769 Y-15.328 E0.01464
G1 X11.172 Y-11.731 E0.14715
G1 X11.172 Y-11.225 E0.01464
G1 X15.275 Y-15.328 E0.16786
G1 X15.781 Y-15.328 E0.01464
G1 X11.172 Y-10.719 E0.18857
G1 X11.172 Y-10.213 E0.01464
G1 X16.287 Y-15.328 E0.20927
G1 X16.793 Y-15.328 E0.01464
G1 X11.172 Y-9.707 E0.22998
G1 X11.172 Y-9.201 E0.01464
G1 X17.299 Y-15.328 E0.25069
G1 X17.806 Y-15.328 E0.01464
G1 X11.172 Y-8.694 E0.27139
G1 X11.172 Y-8.188 E0.01464
G1 X18.312 Y-15.328 E0.29210
G1 X18.803 Y-15.313 E0.01422
G1 X11.172 Y-7.682 E0.31220
G1 X11.172 Y-7.176 E0.01464
G1 X18.828 Y-14.832 E0.31323
G1 X18.828 Y-14.326 E0.01464
G1 X11.172 Y-6.670 E0.31323
G1 X11.172 Y-6.164 E0.01464
G1 X18.828 Y-13.820 E0.31323
G1 X18.828 Y-13.314 E0.01464
G1 X11.172 Y-5.658 E0.31323
G1 X11.172 Y-5.151 E0.01464
G1 X18.828 Y-12.808 E0.31323
G1 X18.828 Y-12.301 E0.01464
G1 X11.172 Y-4.645 E0.31323
G1 X11.172 Y-4.139 E0.01464
G1 X18.828 Y-11.795 E0.31323
G1 X18.828 Y-11.289 E0.01464
G1 X11.172 Y-3.633 E0.31323
G1 X11.172 Y-3.127 E0.01464
G1 X18.828 Y-10.783 E0.31323
G1 X18.828 Y-10.277 E0.01464
G1 X11.172 Y-2.621 E0.31323
G1 X11.172 Y-2.115 E0.01464
G1 X18.828 Y-9.771 E0.31323
G1 X18.828 Y-9.265 E0.01464
G1 X11.172 Y-1.608 E0.31323
G1 X11.172 Y-1.102 E0.01464
G1 X18.828 Y-8.758 E0.31323
G1 X18.828 Y-8.252 E0.01464
G1 X11.172 Y-0.596 E0.31323
G1 X11.172 Y-0.090 E0.01464
G1 X18.828 Y-7.746 E0.31323
G1 X18.828 Y-7.240 E0.01464
G1 X11.172 Y0.416 E0.31323
G1 X11.172 Y0.922 E0.01464
G1 X18.828 Y-6.734 E0.31323
G1 X18.828 Y-6.228 E0.01464
G1 X11.172 Y1.428 E0.31323
G1 X11.172 Y1.935 E0.01464
G1 X18.828 Y-5.722 E0.31323
G1 X18.828 Y-5.215 E0.01464
G1 X11.172 Y2.441 E0.31323
G1 X11.172 Y2.947 E0.01464
G1 X18.828 Y-4.709 E0.31323
G1 X18.828 Y-4.203 E0.01464
G1 X11.172 Y3.453 E0.31323
G1 X11.172 Y3.959 E0.01464
G1 X18.828 Y-3.697 E0.31323
G1 X18.828 Y-3.191 E0.01464
G1 X11.172 Y4.465 E0.31323
G1 X11.172 Y4.971 E0.01464
G1 X18.828 Y-2.685 E0.31323
G1 X18.828 Y-2.179 E0.01464
G1 X11.172 Y5.478 E0.31323
G1 X11.172 Y5.984 E0.01464
G1 X18.828 Y-1.672 E0.31323
G1 X18.828 Y-1.166 E0.01464
G1 X11.172 Y6.490 E0.31323
G1 X11.172 Y6.996 E0.01464
G1 X18.828 Y-0.660 E0.31323
G1 X18.828 Y-0.154 E0.01464
G1 X11.172 Y7.502 E0.31323
G1 X10.952 Y7.722 F15000.000
G1 X7.501 Y11.173 E0.14117 F3940.679
G1 X8.008 Y11.173 E0.01464
G1 X18.828 Y0.352 E0.44268
G1 X18.828 Y0.858 E0.01464
G1 X8.514 Y11.173 E0.42198
G1 X9.020 Y11.173 E0.01464
G1 X18.828 Y1.364 E0.40127
G1 X18.828 Y1.871 E0.01464
G1 X9.526 Y11.173 E0.38056
G1 X10.032 Y11.173 E0.01464
G1 X18.828 Y2.377 E0.35985
G1 X18.828 Y2.883 E0.01464
G1 X10.538 Y11.173 E0.33915
G1 X11.044 Y11.173 E0.01464
G1 X18.828 Y3.389 E0.31844
G1 X18.828 Y3.895 E0.01464
G1 X11.551 Y11.173 E0.29773
G1 X12.057 Y11.173 E0.01464
G1 X18.828 Y4.401 E0.27703
G1 X18.828 Y4.907 E0.01464
G1 X12.563 Y11.173 E0.25632
G1 X13.069 Y11.173 E0.01464
G1 X18.828 Y5.414 E0.23561
G1 X18.828 Y5.920 E0.01464
G1 X13.575 Y11.173 E0.21490
G1 X14.081 Y11.173 E0.01464
G1 X18.828 Y6.426 E0.19420
G1 X18.828 Y6.932 E0.01464
G1 X14.587 Y11.173 E0.17349
G1 X15.094 Y11.173 E0.01464
G1 X18.828 Y7.438 E0.15278
G1 X18.828 Y7.944 E0.01464
G1 X15.600 Y11.173 E0.13208
G1 X16.106 Y11.173 E0.01464
G1 X18.828 Y8.450 E0.11137
G1 X18.828 Y8.957 E0.01464
G1 X16.612 Y11.173 E0.09066
G1 X17.118 Y11.173 E0.01464
G1 X18.828 Y9.463 E0.06996
G1 X18.828 Y9.969 E0.01464
G1 X17.624 Y11.173 E0.04925
G1 X18.130 Y11.173 E0.01464
G1 X18.828 Y10.475 E0.02854
G1 X18.828 Y10.981 E0.01464
G1 X18.637 Y11.173 E0.00783
G1 X6.995 Y11.173 F15000.000
G1 X10.446 Y7.722 E0.14117 F3940.679
G1 X9.940 Y7.722 E0.01464
G1 X6.489 Y11.173 E0.14117
G1 X5.983 Y11.173 E0.01464
G1 X9.434 Y7.722 E0.14117
G1 X8.928 Y7.722 E0.01464
G1 X5.477 Y11.173 E0.14117
G1 X4.971 Y11.173 E0.01464
G1 X8.421 Y7.722 E0.14117
G1 X7.915 Y7.722 E0.01464
G1 X4.465 Y11.173 E0.14117
G1 X3.958 Y11.173 E0.01464
G1 X7.409 Y7.722 E0.14117
G1 X6.903 Y7.722 E0.01464
G1 X3.452 Y11.173 E0.14117
G1 X2.946 Y11.173 E0.01464
G1 X6.397 Y7.722 E0.14117
G1 X5.891 Y7.722 E0.01464
G1 X2.440 Y11.173 E0.14117
G1 X1.934 Y11.173 E0.01464
G1 X5.385 Y7.722 E0.14117
G1 X4.878 Y7.722 E0.01464
G1 X1.428 Y11.173 E0.14117
G1 X0.922 Y11.173 E0.01464
G1 X4.372 Y7.722 E0.14117
G1 X3.866 Y7.722 E0.01464
G1 X0.415 Y11.173 E0.14117
G1 X-0.091 Y11.173 E0.01464
G1 X3.360 Y7.722 E0.14117
G1 X2.854 Y7.722 E0.01464
G1 X-0.597 Y11.173 E0.14117
G1 X-1.103 Y11.173 E0.01464
G1 X2.348 Y7.722 E0.14117
G1 X1.842 Y7.722 E0.01464
G1 X-1.609 Y11.173 E0.14117
G1 X-2.115 Y11.173 E0.01464
G1 X1.335 Y7.722 E0.14117
G1 X0.829 Y7.722 E0.01464
G1 X-2.621 Y11.173 E0.14117
G1 X-3.128 Y11.173 E0.01464
G1 X0.323 Y7.722 E0.14117
G1 X-0.183 Y7.722 E0.01464
G1 X-3.634 Y11.173 E0.14117
G1 X-4.140 Y11.173 E0.01464
G1 X-0.689 Y7.722 E0.14117
G1 X-1.195 Y7.722 E0.01464
G1 X-4.646 Y11.173 E0.14117
G1 X-5.152 Y11.173 E0.01464
G1 X-1.701 Y7.722 E0.14117
G1 X-2.208 Y7.722 E0.01464
G1 X-5.658 Y11.173 E0.14117
G1 X-6.164 Y11.173 E0.01464
G1 X-2.714 Y7.722 E0.14117
G1 X-3.220 Y7.722 E0.01464
G1 X-6.671 Y11.173 E0.14117
G1 X-7.177 Y11.173 E0.01464
G1 X-3.726 Y7.722 E0.14117
G1 X-4.232 Y7.722 E0.01464
G1 X-7.683 Y11.173 E0.14117
G1 X-8.189 Y11.173 E0.01464
G1 X-4.738 Y7.722 E0.14117
G1 X-5.244 Y7.722 E0.01464
G1 X-8.695 Y11.173 E0.14117
G1 X-9.201 Y11.173 E0.01464
G1 X-5.751 Y7.722 E0.14117
G1 X-6.257 Y7.722 E0.01464
G1 X-9.707 Y11.173 E0.14117
G1 X-10.214 Y11.173 E0.01464
G1 X-6.763 Y7.722 E0.14117
G1 X-7.269 Y7.722 E0.01464
G1 X-10.720 Y11.173 E0.14117
G1 X-11.226 Y11.173 E0.01464
G1 X-7.775 Y7.722 E0.14117
G1 X-8.281 Y7.722 E0.01464
G1 X-11.732 Y11.173 E0.14117
G1 X-12.238 Y11.173 E0.01464
G1 X-8.787 Y7.722 E0.14117
G1 X-9.294 Y7.722 E0.01464
G1 X-12.744 Y11.173 E0.14117
G1 X-13.250 Y11.173 E0.01464
G1 X-9.800 Y7.722 E0.14117
G1 X-10.306 Y7.722 E0.01464
G1 X-13.757 Y11.173 E0.14117
G1 X-14.263 Y11.173 E0.01464
G1 X-10.812 Y7.722 E0.14117
G1 X-11.172 Y7.576 F15000.000
G1 X-14.769 Y11.173 E0.14716 F3940.679
G1 X-15.275 Y11.173 E0.01464
G1 X-11.172 Y7.070 E0.16786
G1 X-11.172 Y6.563 E0.01464
G1 X-15.781 Y11.173 E0.18857
G1 X-16.287 Y11.173 E0.01464
G1 X-11.172 Y6.057 E0.20928
G1 X-11.172 Y5.551 E0.01464
G1 X-16.793 Y11.173 E0.22998
G1 X-17.300 Y11.173 E0.01464
G1 X-11.172 Y5.045 E0.25069
G1 X-11.172 Y4.539 E0.01464
G1 X-17.806 Y11.173 E0.27140
G1 X-18.312 Y11.173 E0.01464
G1 X-11.172 Y4.033 E0.29211
G1 X-11.172 Y3.527 E0.01464
G1 X-18.803 Y11.158 E0.31220
G1 X-18.828 Y10.677 E0.01394
G1 X-11.172 Y3.020 E0.31323
G1 X-11.172 Y2.514 E0.01464
G1 X-18.828 Y10.170 E0.31323
G1 X-18.828 Y9.664 E0.01464
G1 X-11.172 Y2.008 E0.31323
