; generated by Slic3r 1.2.9 on 2024-07-09 at 06:35:53

; external perimeters extrusion width = 0.40mm
; perimeters extrusion width = 0.40mm
; infill extrusion width = 0.40mm
; solid infill extrusion width = 0.40mm
; top infill extrusion width = 0.40mm

M107
M104 S250 ; set temperature
M83
T0
M116


M109 S250 ; wait for temperature to be reached
G21 ; set units to millimeters
G90 ; use absolute coordinates
M83 ; use relative distances for extrusion
G1 E-3.20000 F3000.00000
G1 Z0.400 F15000.000
G1 X6.133 Y7.647 F15000.000
G1 Z0.350 F15000.000
G1 E3.20000 F3000.00000
G1 X-13.341 Y23.265 E2.20656 F960.000
G1 X-14.985 Y24.077 E0.16202
G1 X-16.000 Y24.200 E0.09040
G1 X-23.900 Y24.200 E0.69830
G1 X-25.690 Y23.804 E0.16202
G1 X-27.147 Y22.692 E0.16202
G1 X-28.000 Y21.070 E0.16202
G1 X-28.150 Y19.950 E0.09986
G1 X-28.150 Y-19.950 E3.52684
G1 X-27.754 Y-21.740 E0.16202
G1 X-26.642 Y-23.197 E0.16202
G1 X-25.020 Y-24.050 E0.16202
G1 X-23.900 Y-24.200 E0.09986
G1 X23.900 Y-24.200 E4.22513
G1 X25.690 Y-23.804 E0.16202
G1 X27.147 Y-22.692 E0.16202 F960.000
G1 X28.000 Y-21.070 E0.16202
G1 X28.150 Y-19.950 E0.09986
G1 X28.150 Y-12.050 E0.69830
G1 X27.754 Y-10.260 E0.16202
G1 X26.559 Y-8.735 E0.17132
G1 X6.180 Y7.609 E2.30911
G1 X5.789 Y7.122 F15000.000
G1 X-13.732 Y22.778 E2.21186 F960.000
G1 X-16.000 Y23.575 E0.21249
G1 X-23.900 Y23.575 E0.69830
G1 X-25.544 Y23.180 E0.14948
G1 X-26.831 Y22.083 E0.14948
G1 X-27.525 Y19.950 E0.19825
G1 X-27.525 Y-19.950 E3.52684
G1 X-27.130 Y-21.594 E0.14948
G1 X-26.033 Y-22.881 E0.14948
G1 X-23.900 Y-23.575 E0.19825
G1 X23.900 Y-23.575 E4.22513
G1 X25.544 Y-23.180 E0.14948
G1 X26.831 Y-22.083 E0.14948 F960.000
G1 X27.525 Y-19.950 E0.19825
G1 X27.525 Y-12.050 E0.69830
G1 X27.130 Y-10.406 E0.14948
G1 X26.168 Y-9.222 E0.13483
G1 X5.836 Y7.084 E2.30381
G1 E-3.20000 F3000.00000
G1 Z0.750 F15000.000
G1 X-18.201 Y9.676 F15000.000
G1 Z0.350 F15000.000
G1 E3.20000 F3000.00000
G1 X-18.171 Y10.000 E0.02879 F600.000
G1 X-18.202 Y10.333 E0.02959
G1 X-18.296 Y10.655 E0.02960
G1 X-18.448 Y10.953 E0.02961
G1 X-18.653 Y11.218 E0.02960
G1 X-18.904 Y11.440 E0.02961
G1 X-19.206 Y11.618 E0.03097
G1 X-19.601 Y11.746 E0.03673
G1 X-19.950 Y11.779 E0.03098
G1 X-20.299 Y11.746 E0.03098
G1 X-20.694 Y11.618 E0.03673
G1 X-20.996 Y11.440 E0.03097
G1 X-21.259 Y11.207 E0.03107
G1 X-21.555 Y10.799 E0.04455
G1 X-21.697 Y10.343 E0.04222
G1 X-21.729 Y10.000 E0.03043
G1 X-21.698 Y9.667 E0.02959
G1 X-21.604 Y9.345 E0.02960
G1 X-21.452 Y9.047 E0.02961
G1 X-21.247 Y8.782 E0.02960
G1 X-20.996 Y8.560 E0.02961
G1 X-20.707 Y8.390 E0.02961
G1 X-20.379 Y8.272 E0.03085
G1 X-19.973 Y8.220 E0.03622 F600.000
G1 X-19.618 Y8.252 E0.03146
G1 X-19.295 Y8.346 E0.02975
G1 X-18.997 Y8.498 E0.02959
G1 X-18.732 Y8.703 E0.02960
G1 X-18.514 Y8.950 E0.02915
G1 X-18.304 Y9.297 E0.03587
G1 X-18.217 Y9.618 E0.02933
G1 X-18.820 Y9.781 F15000.000
G1 X-18.798 Y10.000 E0.01946 F600.000
G1 X-18.819 Y10.216 E0.01915
G1 X-18.879 Y10.424 E0.01916
G1 X-18.978 Y10.617 E0.01916
G1 X-19.111 Y10.788 E0.01916
G1 X-19.273 Y10.932 E0.01916
G1 X-19.465 Y11.045 E0.01965
G1 X-19.729 Y11.131 E0.02455
G1 X-19.950 Y11.152 E0.01965
G1 X-20.171 Y11.131 E0.01966
G1 X-20.435 Y11.045 E0.02455
G1 X-20.627 Y10.932 E0.01965
G1 X-20.794 Y10.784 E0.01969
G1 X-20.989 Y10.515 E0.02936
G1 X-21.081 Y10.219 E0.02742
G1 X-21.102 Y10.000 E0.01945
G1 X-21.081 Y9.784 E0.01915
G1 X-21.021 Y9.576 E0.01916
G1 X-20.922 Y9.383 E0.01916
G1 X-20.789 Y9.212 E0.01916
G1 X-20.627 Y9.068 E0.01917
G1 X-20.440 Y8.958 E0.01916
G1 X-20.232 Y8.883 E0.01961
G1 X-19.961 Y8.848 E0.02412 F600.000
G1 X-19.735 Y8.869 E0.02007
G1 X-19.526 Y8.929 E0.01921
G1 X-19.333 Y9.028 E0.01915
G1 X-19.162 Y9.161 E0.01916
G1 X-19.020 Y9.322 E0.01900
G1 X-18.884 Y9.546 E0.02315
G1 X-18.836 Y9.723 E0.01623
G1 X-18.615 Y9.860 F15000.000
G1 X-17.600 Y16.319 F15000.000
G1 X-17.600 Y18.350 E0.17953 F600.000
G1 X-22.300 Y18.350 E0.41548
G1 X-22.300 Y11.277 E0.62520
G1 X-22.041 Y11.193 E0.02410
G1 X-21.725 Y11.630 E0.04764
G1 X-21.365 Y11.947 E0.04246 F600.000
G1 X-20.953 Y12.191 E0.04230
G1 X-20.426 Y12.362 E0.04891
G1 X-19.950 Y12.407 E0.04230
G1 X-19.474 Y12.362 E0.04230
G1 X-18.947 Y12.191 E0.04891
G1 X-18.535 Y11.947 E0.04230
G1 X-18.195 Y11.648 E0.04006
G1 X-17.853 Y11.207 E0.04934
G1 X-17.600 Y11.293 E0.02368
G1 X-17.600 Y16.259 E0.43893
G1 E-3.20000 F3000.00000
G1 Z0.750 F15000.000
G1 X-20.204 Y7.619 F15000.000
G1 Z0.350 F15000.000
G1 E3.20000 F3000.00000
G1 X-20.526 Y7.661 E0.02876 F600.000
G1 X-20.974 Y7.822 E0.04210
G1 X-21.365 Y8.053 E0.04006
G1 X-21.705 Y8.352 E0.04006
G1 X-22.047 Y8.793 E0.04934
G1 X-22.300 Y8.707 E0.02368
G1 X-22.300 Y1.277 E0.65670
G1 X-22.041 Y1.193 E0.02410
G1 X-21.725 Y1.630 E0.04764
G1 X-21.365 Y1.947 E0.04246 F600.000
G1 X-20.953 Y2.191 E0.04230
G1 X-20.426 Y2.362 E0.04891
G1 X-19.950 Y2.407 E0.04230
G1 X-19.474 Y2.362 E0.04230
G1 X-18.947 Y2.191 E0.04891
G1 X-18.535 Y1.947 E0.04230
G1 X-18.195 Y1.648 E0.04006
G1 X-17.853 Y1.207 E0.04934
G1 X-17.600 Y1.293 E0.02368
G1 X-17.600 Y8.724 E0.65684
G1 X-17.874 Y8.801 E0.02515
G1 X-18.008 Y8.579 E0.02294
G1 X-18.302 Y8.245 E0.03930
G1 X-18.660 Y7.968 E0.04005
G1 X-19.064 Y7.762 E0.04002
G1 X-19.501 Y7.635 E0.04029
G1 X-19.984 Y7.591 E0.04285
G1 X-20.144 Y7.612 E0.01425
G1 X-19.950 Y1.779 F15000.000
G1 X-20.299 Y1.746 E0.03098 F600.000
G1 X-20.694 Y1.618 E0.03673
G1 X-20.996 Y1.440 E0.03097
G1 X-21.259 Y1.207 E0.03107
G1 X-21.555 Y0.799 E0.04455
G1 X-21.697 Y0.343 E0.04221
G1 X-21.729 Y0.000 E0.03043
G1 X-21.698 Y-0.333 E0.02960
G1 X-21.604 Y-0.655 E0.02960
G1 X-21.452 Y-0.953 E0.02961
G1 X-21.247 Y-1.218 E0.02960
G1 X-20.996 Y-1.440 E0.02961
G1 X-20.707 Y-1.610 E0.02961
G1 X-20.379 Y-1.728 E0.03085
G1 X-19.973 Y-1.780 E0.03622 F600.000
G1 X-19.618 Y-1.748 E0.03146
G1 X-19.295 Y-1.654 E0.02975
G1 X-18.997 Y-1.502 E0.02959
G1 X-18.732 Y-1.297 E0.02960
G1 X-18.514 Y-1.050 E0.02915
G1 X-18.304 Y-0.703 E0.03587
G1 X-18.201 Y-0.324 E0.03464
G1 X-18.171 Y0.000 E0.02879
G1 X-18.202 Y0.333 E0.02960
G1 X-18.296 Y0.655 E0.02960
G1 X-18.448 Y0.953 E0.02961
G1 X-18.653 Y1.218 E0.02960
G1 X-18.904 Y1.440 E0.02961
G1 X-19.206 Y1.618 E0.03097
G1 X-19.601 Y1.746 E0.03673
G1 X-19.890 Y1.774 E0.02568
G1 X-19.949 Y1.152 F15000.000
G1 X-20.171 Y1.131 E0.01973 F600.000
G1 X-20.435 Y1.045 E0.02455
G1 X-20.627 Y0.932 E0.01965
G1 X-20.794 Y0.784 E0.01969
G1 X-20.989 Y0.515 E0.02936
G1 X-21.081 Y0.219 E0.02742
G1 X-21.102 Y0.000 E0.01945
G1 X-21.081 Y-0.216 E0.01915
G1 X-21.021 Y-0.424 E0.01916
G1 X-20.922 Y-0.617 E0.01916
G1 X-20.789 Y-0.788 E0.01916
G1 X-20.627 Y-0.932 E0.01917
G1 X-20.440 Y-1.042 E0.01916
G1 X-20.232 Y-1.117 E0.01961
G1 X-19.961 Y-1.152 E0.02412 F600.000
G1 X-19.735 Y-1.131 E0.02007
G1 X-19.526 Y-1.071 E0.01921
G1 X-19.333 Y-0.972 E0.01915
G1 X-19.162 Y-0.839 E0.01916
G1 X-19.020 Y-0.678 E0.01900
G1 X-18.884 Y-0.454 E0.02315
G1 X-18.819 Y-0.212 E0.02214
G1 X-18.798 Y0.000 E0.01887
G1 X-18.819 Y0.216 E0.01915
G1 X-18.879 Y0.424 E0.01916
G1 X-18.978 Y0.617 E0.01916
G1 X-19.111 Y0.788 E0.01916
G1 X-19.273 Y0.932 E0.01916
G1 X-19.465 Y1.045 E0.01965
G1 X-19.729 Y1.131 E0.02455
G1 X-19.889 Y1.146 E0.01428
G1 X-20.067 Y1.341 F15000.000
G1 E-3.20000 F3000.00000
G1 Z0.750 F15000.000
G1 X-19.838 Y-13.224 F15000.000
G1 Z0.350 F15000.000
G1 E3.20000 F3000.00000
G1 X-20.173 Y-13.235 E0.02960 F600.000
G1 X-20.500 Y-13.308 E0.02960
G1 X-20.807 Y-13.441 E0.02959
G1 X-21.084 Y-13.629 E0.02961
G1 X-21.321 Y-13.866 E0.02960
G1 X-21.518 Y-14.156 E0.03096
G1 X-21.671 Y-14.542 E0.03676
G1 X-21.726 Y-14.888 E0.03097
G1 X-21.715 Y-15.223 E0.02960
G1 X-21.639 Y-15.565 E0.03097
G1 X-21.462 Y-15.941 E0.03675
G1 X-21.247 Y-16.218 E0.03097
G1 X-20.996 Y-16.439 E0.02960
G1 X-20.708 Y-16.610 E0.02960
G1 X-20.393 Y-16.723 E0.02960
G1 X-20.046 Y-16.778 E0.03097 F600.000
G1 X-19.631 Y-16.752 E0.03676
G1 X-19.295 Y-16.654 E0.03097
G1 X-18.997 Y-16.502 E0.02960
G1 X-18.732 Y-16.297 E0.02960
G1 X-18.511 Y-16.046 E0.02960
G1 X-18.340 Y-15.758 E0.02960
G1 X-18.227 Y-15.443 E0.02960
G1 X-18.174 Y-15.112 E0.02960
G1 X-18.185 Y-14.777 E0.02960
G1 X-18.258 Y-14.450 E0.02960
G1 X-18.391 Y-14.143 E0.02960
G1 X-18.579 Y-13.866 E0.02960
G1 X-18.816 Y-13.629 E0.02960
G1 X-19.106 Y-13.432 E0.03097
G1 X-19.492 Y-13.279 E0.03675
G1 X-19.779 Y-13.234 E0.02567
G1 X-19.877 Y-13.851 F15000.000
G1 X-20.094 Y-13.857 E0.01924 F600.000
G1 X-20.306 Y-13.905 E0.01916
G1 X-20.505 Y-13.991 E0.01915
G1 X-20.684 Y-14.113 E0.01916
G1 X-20.837 Y-14.266 E0.01916
G1 X-20.962 Y-14.450 E0.01965
G1 X-21.065 Y-14.708 E0.02456
G1 X-21.099 Y-14.928 E0.01965
G1 X-21.093 Y-15.144 E0.01916
G1 X-21.044 Y-15.361 E0.01965
G1 X-20.926 Y-15.613 E0.02456
G1 X-20.789 Y-15.788 E0.01965
G1 X-20.627 Y-15.932 E0.01916
G1 X-20.440 Y-16.042 E0.01916
G1 X-20.236 Y-16.115 E0.01916
G1 X-20.017 Y-16.150 E0.01965 F600.000
G1 X-19.740 Y-16.133 E0.02456
G1 X-19.526 Y-16.071 E0.01965
G1 X-19.333 Y-15.972 E0.01916
G1 X-19.162 Y-15.839 E0.01916
G1 X-19.018 Y-15.677 E0.01916
G1 X-18.908 Y-15.490 E0.01916
G1 X-18.835 Y-15.286 E0.01916
G1 X-18.801 Y-15.072 E0.01916
G1 X-18.807 Y-14.856 E0.01916
G1 X-18.855 Y-14.644 E0.01916
G1 X-18.941 Y-14.445 E0.01916
G1 X-19.063 Y-14.266 E0.01916
G1 X-19.216 Y-14.113 E0.01916
G1 X-19.400 Y-13.988 E0.01965
G1 X-19.658 Y-13.885 E0.02456
G1 X-19.818 Y-13.860 E0.01427
G1 X-19.980 Y-13.659 F15000.000
G1 X-22.300 Y-8.175 F15000.000
G1 X-22.300 Y-13.724 E0.49051 F960.000
G1 X-22.036 Y-13.806 E0.02448
G1 X-21.805 Y-13.466 E0.03632
G1 X-21.484 Y-13.145 E0.04005
G1 X-21.109 Y-12.891 E0.04005
G1 X-20.694 Y-12.711 E0.04003
G1 X-20.252 Y-12.612 E0.04004
G1 X-19.799 Y-12.598 E0.04004
G1 X-19.326 Y-12.673 E0.04229
G1 X-18.811 Y-12.877 E0.04895
G1 X-18.416 Y-13.145 E0.04229
G1 X-18.095 Y-13.466 E0.04004
G1 X-17.857 Y-13.803 E0.03653
G1 X-17.661 Y-14.256 E0.04362
G1 X-17.562 Y-14.698 E0.04004
G1 X-17.548 Y-15.151 E0.04005
G1 X-17.619 Y-15.599 E0.04005
G1 X-17.772 Y-16.025 E0.04004
G1 X-18.003 Y-16.415 E0.04004
G1 X-18.302 Y-16.755 E0.04004
G1 X-18.660 Y-17.032 E0.04005
G1 X-19.064 Y-17.238 E0.04004
G1 X-19.523 Y-17.371 E0.04229
G1 X-20.076 Y-17.406 E0.04895
G1 X-20.549 Y-17.331 E0.04229
G1 X-20.975 Y-17.178 E0.04004
G1 X-21.365 Y-16.947 E0.04004
G1 X-21.705 Y-16.648 E0.04004
G1 X-22.047 Y-16.207 E0.04935
G1 X-22.300 Y-16.293 E0.02368
G1 X-22.300 Y-18.350 E0.18181
G1 X-12.326 Y-18.350 E0.88168
G1 X-12.250 Y-18.074 E0.02529
G1 X-12.465 Y-17.947 E0.02205 F960.000
G1 X-12.805 Y-17.648 E0.04004
G1 X-13.098 Y-17.270 E0.04229
G1 X-13.334 Y-16.769 E0.04895
G1 X-13.438 Y-16.302 E0.04229
G1 X-13.452 Y-15.849 E0.04004
G1 X-13.381 Y-15.401 E0.04005
G1 X-13.228 Y-14.975 E0.04004
G1 X-12.997 Y-14.585 E0.04004
G1 X-12.698 Y-14.245 E0.04004
G1 X-12.257 Y-13.903 E0.04935
G1 X-12.343 Y-13.650 E0.02368
G1 X-17.600 Y-13.650 E0.46463
G1 X-17.600 Y-1.276 E1.09378
G1 X-17.874 Y-1.199 E0.02515
G1 X-18.008 Y-1.421 E0.02294
G1 X-18.302 Y-1.755 E0.03930
G1 X-18.660 Y-2.032 E0.04005
G1 X-19.064 Y-2.238 E0.04002
G1 X-19.501 Y-2.365 E0.04029
G1 X-19.984 Y-2.409 E0.04285
G1 X-20.526 Y-2.339 E0.04831
G1 X-20.974 Y-2.178 E0.04210
G1 X-21.365 Y-1.947 E0.04006
G1 X-21.705 Y-1.648 E0.04006
G1 X-22.047 Y-1.207 E0.04934
G1 X-22.300 Y-1.293 E0.02368
G1 X-22.300 Y-8.115 E0.60297
G1 X-12.489 Y-14.954 F15000.000
G1 X-12.660 Y-15.242 E0.02960 F600.000
G1 X-12.773 Y-15.558 E0.02960
G1 X-12.826 Y-15.888 E0.02960
G1 X-12.815 Y-16.223 E0.02960
G1 X-12.739 Y-16.565 E0.03097
G1 X-12.562 Y-16.941 E0.03675
G1 X-12.347 Y-17.218 E0.03097
G1 X-12.096 Y-17.439 E0.02960
G1 X-11.808 Y-17.610 E0.02960
G1 X-11.493 Y-17.723 E0.02960
G1 X-11.162 Y-17.776 E0.02960 F600.000
G1 X-10.827 Y-17.765 E0.02960
G1 X-10.500 Y-17.692 E0.02960
G1 X-10.193 Y-17.559 E0.02960
G1 X-9.916 Y-17.371 E0.02960
G1 X-9.679 Y-17.134 E0.02960
G1 X-9.482 Y-16.844 E0.03097
G1 X-9.329 Y-16.458 E0.03675
G1 X-9.274 Y-16.112 E0.03097
G1 X-9.285 Y-15.777 E0.02960
G1 X-9.358 Y-15.450 E0.02960
G1 X-9.491 Y-15.143 E0.02960
G1 X-9.679 Y-14.866 E0.02961
G1 X-9.927 Y-14.618 E0.03097
G1 X-10.278 Y-14.395 E0.03675
G1 X-10.608 Y-14.277 E0.03097
G1 X-10.954 Y-14.222 E0.03097
G1 X-11.369 Y-14.248 E0.03675
G1 X-11.705 Y-14.346 E0.03097
G1 X-12.003 Y-14.498 E0.02960
G1 X-12.268 Y-14.703 E0.02960
G1 X-12.450 Y-14.909 E0.02430
G1 X-11.981 Y-15.322 F15000.000
G1 X-12.092 Y-15.510 E0.01924 F600.000
G1 X-12.165 Y-15.714 E0.01916
G1 X-12.199 Y-15.928 E0.01916
G1 X-12.193 Y-16.144 E0.01916
G1 X-12.144 Y-16.361 E0.01965
G1 X-12.026 Y-16.613 E0.02456
G1 X-11.889 Y-16.788 E0.01965
G1 X-11.727 Y-16.932 E0.01916
G1 X-11.540 Y-17.042 E0.01916
G1 X-11.336 Y-17.115 E0.01916
G1 X-11.122 Y-17.149 E0.01916 F600.000
G1 X-10.906 Y-17.143 E0.01916
G1 X-10.694 Y-17.095 E0.01916
G1 X-10.495 Y-17.009 E0.01916
G1 X-10.316 Y-16.887 E0.01916
G1 X-10.163 Y-16.734 E0.01916
G1 X-10.038 Y-16.550 E0.01965
G1 X-9.935 Y-16.292 E0.02456
G1 X-9.901 Y-16.072 E0.01965
G1 X-9.907 Y-15.856 E0.01916
G1 X-9.955 Y-15.644 E0.01916
G1 X-10.041 Y-15.445 E0.01916
G1 X-10.163 Y-15.266 E0.01916
G1 X-10.320 Y-15.109 E0.01965
G1 X-10.554 Y-14.960 E0.02455
G1 X-10.764 Y-14.885 E0.01965
G1 X-10.983 Y-14.850 E0.01965
G1 X-11.260 Y-14.867 E0.02456
G1 X-11.474 Y-14.929 E0.01965
G1 X-11.667 Y-15.028 E0.01916
G1 X-11.838 Y-15.161 E0.01916
G1 X-11.941 Y-15.277 E0.01377
G1 X-12.198 Y-15.306 F15000.000
G1 E-3.20000 F3000.00000
G1 Z0.750 F15000.000
G1 X-8.656 Y-15.886 F15000.000
G1 Z0.350 F15000.000
G1 E3.20000 F3000.00000
G1 X-8.648 Y-16.151 E0.02344 F600.000
G1 X-8.723 Y-16.624 E0.04229
G1 X-8.927 Y-17.139 E0.04895
G1 X-9.195 Y-17.534 E0.04229
G1 X-9.516 Y-17.855 E0.04004
G1 X-9.856 Y-18.086 E0.03632
G1 X-9.774 Y-18.350 E0.02448
G1 X2.674 Y-18.350 E1.10036
G1 X2.750 Y-18.074 E0.02529
G1 X2.535 Y-17.947 E0.02205 F600.000
G1 X2.195 Y-17.648 E0.04005
G1 X1.918 Y-17.290 E0.04005
G1 X1.712 Y-16.886 E0.04002
G1 X1.586 Y-16.451 E0.04004
G1 X1.543 Y-16.000 E0.04007
G1 X1.588 Y-15.524 E0.04230
G1 X1.759 Y-14.997 E0.04891
G1 X2.003 Y-14.585 E0.04230
G1 X2.302 Y-14.245 E0.04006
G1 X2.743 Y-13.903 E0.04934
G1 X2.657 Y-13.650 E0.02368
G1 X-9.782 Y-13.650 E1.09946
G1 X-9.860 Y-13.920 E0.02488
G1 X-9.534 Y-14.127 E0.03421
G1 X-9.195 Y-14.466 E0.04229
G1 X-8.941 Y-14.841 E0.04005
G1 X-8.761 Y-15.256 E0.04004
G1 X-8.662 Y-15.698 E0.04005
G1 X-8.658 Y-15.826 E0.01130
G1 X2.171 Y-16.000 F15000.000
G1 X2.202 Y-16.334 E0.02962 F600.000
G1 X2.296 Y-16.655 E0.02960
G1 X2.448 Y-16.953 E0.02959
G1 X2.653 Y-17.218 E0.02960
G1 X2.904 Y-17.439 E0.02961
G1 X3.192 Y-17.610 E0.02959
G1 X3.521 Y-17.728 E0.03088
G1 X3.928 Y-17.780 E0.03622 F600.000
G1 X4.273 Y-17.749 E0.03063
G1 X4.678 Y-17.640 E0.03709
G1 X5.147 Y-17.320 E0.05020
G1 X5.390 Y-17.046 E0.03237
G1 X5.568 Y-16.744 E0.03097
G1 X5.696 Y-16.349 E0.03673
G1 X5.729 Y-15.998 E0.03113
G1 X5.695 Y-15.644 E0.03145
G1 X5.567 Y-15.255 E0.03620
G1 X5.390 Y-14.954 E0.03088
G1 X5.168 Y-14.703 E0.02961
G1 X4.903 Y-14.498 E0.02960
G1 X4.605 Y-14.346 E0.02961
G1 X4.283 Y-14.252 E0.02960
G1 X3.950 Y-14.221 E0.02960
G1 X3.617 Y-14.252 E0.02960
G1 X3.295 Y-14.346 E0.02960
G1 X2.997 Y-14.498 E0.02961
G1 X2.732 Y-14.703 E0.02959
G1 X2.510 Y-14.954 E0.02961
G1 X2.332 Y-15.256 E0.03097
G1 X2.204 Y-15.651 E0.03673
G1 X2.176 Y-15.940 E0.02568
G1 X2.798 Y-15.999 F15000.000
G1 X2.819 Y-16.216 E0.01924 F600.000
G1 X2.879 Y-16.424 E0.01916
G1 X2.978 Y-16.617 E0.01915
G1 X3.111 Y-16.788 E0.01916
G1 X3.273 Y-16.932 E0.01916
G1 X3.460 Y-17.042 E0.01916
G1 X3.669 Y-17.117 E0.01962
G1 X3.939 Y-17.152 E0.02412 F600.000
G1 X4.162 Y-17.132 E0.01977
G1 X4.413 Y-17.064 E0.02302
G1 X4.731 Y-16.848 E0.03395
G1 X4.882 Y-16.677 E0.02015
G1 X4.995 Y-16.485 E0.01965
G1 X5.081 Y-16.221 E0.02454
G1 X5.102 Y-15.999 E0.01971
G1 X5.079 Y-15.773 E0.02006
G1 X4.995 Y-15.514 E0.02411
G1 X4.882 Y-15.323 E0.01962
G1 X4.738 Y-15.161 E0.01916
G1 X4.567 Y-15.028 E0.01916
G1 X4.374 Y-14.929 E0.01916
G1 X4.166 Y-14.869 E0.01916
G1 X3.950 Y-14.848 E0.01916
G1 X3.734 Y-14.869 E0.01916
G1 X3.526 Y-14.929 E0.01916
G1 X3.333 Y-15.028 E0.01916
G1 X3.162 Y-15.161 E0.01915
G1 X3.018 Y-15.323 E0.01917
G1 X2.905 Y-15.515 E0.01965
G1 X2.819 Y-15.779 E0.02454
G1 X2.804 Y-15.939 E0.01428
G1 X2.613 Y-16.114 F15000.000
