; generated by Slic3r 1.2.9 on 2024-07-28 at 07:09:36

; external perimeters extrusion width = 0.40mm
; perimeters extrusion width = 0.40mm
; infill extrusion width = 0.40mm
; solid infill extrusion width = 0.40mm
; top infill extrusion width = 0.40mm

M107
M104 S250 ; set temperature
M83
T0
M116


M109 S250 ; wait for temperature to be reached
G21 ; set units to millimeters
G90 ; use absolute coordinates
M83 ; use relative distances for extrusion
G1 E-3.20000 F3000.00000
G1 Z0.400 F15000.000
G1 X0.000 Y24.200 F15000.000
G1 Z0.350 F15000.000
G1 E3.20000 F3000.00000
G1 X-24.950 Y24.200 E2.20538 F960.000
G1 X-26.740 Y23.804 E0.16202
G1 X-28.197 Y22.692 E0.16202
G1 X-29.050 Y21.070 E0.16202
G1 X-29.200 Y19.950 E0.09986
G1 X-29.200 Y-19.950 E3.52684
G1 X-28.804 Y-21.740 E0.16202
G1 X-27.692 Y-23.197 E0.16202
G1 X-26.070 Y-24.050 E0.16202
G1 X-24.950 Y-24.200 E0.09986
G1 X24.950 Y-24.200 E4.41076
G1 X26.740 Y-23.804 E0.16202
G1 X28.197 Y-22.692 E0.16202 F960.000
G1 X29.050 Y-21.070 E0.16202
G1 X29.200 Y-19.950 E0.09986
G1 X29.200 Y19.950 E3.52684
G1 X28.804 Y21.740 E0.16202
G1 X27.692 Y23.197 E0.16202
G1 X26.070 Y24.050 E0.16202
G1 X24.950 Y24.200 E0.09986
G1 X0.060 Y24.200 E2.20008
G1 X0.060 Y23.575 F15000.000
G1 X-24.950 Y23.575 E2.21068 F960.000
G1 X-26.594 Y23.180 E0.14948
G1 X-27.881 Y22.083 E0.14948
G1 X-28.575 Y19.950 E0.19825
G1 X-28.575 Y-19.950 E3.52684
G1 X-28.180 Y-21.594 E0.14948
G1 X-27.083 Y-22.881 E0.14948
G1 X-24.950 Y-23.575 E0.19825
G1 X24.950 Y-23.575 E4.41076
G1 X26.594 Y-23.180 E0.14948
G1 X27.881 Y-22.083 E0.14948 F960.000
G1 X28.575 Y-19.950 E0.19825
G1 X28.575 Y19.950 E3.52684
G1 X28.180 Y21.594 E0.14948
G1 X27.083 Y22.881 E0.14948
G1 X24.950 Y23.575 E0.19825
G1 X0.120 Y23.575 E2.19477
G1 E-3.20000 F3000.00000
G1 Z0.750 F15000.000
G1 X5.866 Y16.371 F15000.000
G1 Z0.350 F15000.000
G1 E3.20000 F3000.00000
G1 X5.629 Y16.134 E0.02962 F600.000
G1 X5.441 Y15.857 E0.02960
G1 X5.302 Y15.536 E0.03095
G1 X5.224 Y15.127 E0.03676
G1 X5.235 Y14.777 E0.03097
G1 X5.308 Y14.450 E0.02961
G1 X5.441 Y14.143 E0.02959
G1 X5.638 Y13.853 E0.03096
G1 X5.941 Y13.568 E0.03678
G1 X6.243 Y13.390 E0.03097
G1 X6.557 Y13.277 E0.02958
G1 X6.888 Y13.224 E0.02959 F600.000
G1 X7.223 Y13.235 E0.02961
G1 X7.550 Y13.308 E0.02962
G1 X7.857 Y13.441 E0.02959
G1 X8.134 Y13.629 E0.02959
G1 X8.371 Y13.866 E0.02961
G1 X8.559 Y14.143 E0.02960
G1 X8.698 Y14.464 E0.03096
G1 X8.776 Y14.873 E0.03676
G1 X8.765 Y15.223 E0.03097
G1 X8.692 Y15.550 E0.02961
G1 X8.559 Y15.857 E0.02959
G1 X8.362 Y16.147 E0.03096
G1 X8.059 Y16.432 E0.03678
G1 X7.757 Y16.610 E0.03098
G1 X7.442 Y16.723 E0.02957
G1 X7.112 Y16.776 E0.02959
G1 X6.777 Y16.765 E0.02961
G1 X6.450 Y16.692 E0.02962
G1 X6.143 Y16.559 E0.02959
G1 X5.916 Y16.405 E0.02429
G1 X6.267 Y15.888 F15000.000
G1 X6.113 Y15.734 E0.01924 F600.000
G1 X5.991 Y15.555 E0.01916
G1 X5.903 Y15.351 E0.01964
G1 X5.851 Y15.078 E0.02456
G1 X5.857 Y14.856 E0.01965
G1 X5.905 Y14.644 E0.01917
G1 X5.991 Y14.445 E0.01915
G1 X6.116 Y14.261 E0.01965
G1 X6.318 Y14.071 E0.02457
G1 X6.510 Y13.958 E0.01965
G1 X6.714 Y13.885 E0.01915
G1 X6.928 Y13.851 E0.01915 F600.000
G1 X7.144 Y13.857 E0.01916
G1 X7.356 Y13.905 E0.01917
G1 X7.555 Y13.991 E0.01915
G1 X7.734 Y14.113 E0.01916
G1 X7.887 Y14.266 E0.01916
G1 X8.009 Y14.445 E0.01916
G1 X8.097 Y14.649 E0.01964
G1 X8.149 Y14.922 E0.02456
G1 X8.143 Y15.144 E0.01965
G1 X8.095 Y15.356 E0.01916
G1 X8.009 Y15.555 E0.01915
G1 X7.884 Y15.739 E0.01965
G1 X7.682 Y15.929 E0.02457
G1 X7.490 Y16.042 E0.01965
G1 X7.286 Y16.115 E0.01915
G1 X7.072 Y16.149 E0.01915
G1 X6.856 Y16.143 E0.01916
G1 X6.644 Y16.095 E0.01917
G1 X6.445 Y16.009 E0.01915
G1 X6.316 Y15.922 E0.01378
G1 X6.060 Y15.957 F15000.000
G1 X6.469 Y17.337 F15000.000
G1 X6.698 Y17.388 E0.02078 F600.000
G1 X7.151 Y17.402 E0.04006
G1 X7.599 Y17.331 E0.04002
G1 X8.024 Y17.178 E0.04000
G1 X8.436 Y16.935 E0.04230
G1 X8.840 Y16.555 E0.04899
G1 X9.086 Y16.194 E0.03855
G1 X9.350 Y16.276 E0.02448
G1 X9.350 Y18.350 E0.18336 F600.000
G1 X4.650 Y18.350 E0.41548
G1 X4.650 Y16.276 E0.18336
G1 X4.915 Y16.194 E0.02448
G1 X5.145 Y16.534 E0.03631
G1 X5.466 Y16.855 E0.04007
G1 X5.840 Y17.109 E0.04003
G1 X6.256 Y17.289 E0.04002
G1 X6.410 Y17.324 E0.01399
G1 X4.650 Y6.579 F15000.000
G1 X4.650 Y1.293 E0.46719 F600.000
G1 X4.903 Y1.207 E0.02368
G1 X5.245 Y1.648 E0.04934
G1 X5.585 Y1.947 E0.04006
G1 X5.997 Y2.191 E0.04229
G1 X6.524 Y2.362 E0.04891
G1 X7.000 Y2.407 E0.04231
G1 X7.476 Y2.362 E0.04230
G1 X8.003 Y2.191 E0.04891
G1 X8.415 Y1.947 E0.04230
G1 X8.755 Y1.648 E0.04006
G1 X9.097 Y1.207 E0.04934
G1 X9.350 Y1.293 E0.02368
G1 X9.350 Y13.724 E1.09878 F600.000
G1 X9.086 Y13.806 E0.02448
G1 X8.855 Y13.466 E0.03631
G1 X8.534 Y13.145 E0.04007
G1 X8.160 Y12.891 E0.04003
G1 X7.744 Y12.711 E0.04002
G1 X7.302 Y12.612 E0.04008
G1 X6.849 Y12.598 E0.04006
G1 X6.401 Y12.669 E0.04002
G1 X5.976 Y12.822 E0.04000
G1 X5.564 Y13.065 E0.04230
G1 X5.160 Y13.445 E0.04900
G1 X4.915 Y13.806 E0.03855
G1 X4.650 Y13.724 E0.02448
G1 X4.650 Y6.639 E0.62629
G1 X6.279 Y1.625 F15000.000
G1 X5.954 Y1.440 E0.03307 F600.000
G1 X5.703 Y1.218 E0.02961
G1 X5.498 Y0.953 E0.02959
G1 X5.346 Y0.655 E0.02961
G1 X5.252 Y0.333 E0.02960
G1 X5.221 Y0.000 E0.02960
G1 X5.252 Y-0.333 E0.02960
G1 X5.346 Y-0.655 E0.02960
G1 X5.498 Y-0.953 E0.02961
G1 X5.703 Y-1.218 E0.02960
G1 X5.954 Y-1.440 E0.02961
G1 X6.243 Y-1.610 E0.02961
G1 X6.571 Y-1.728 E0.03085
G1 X6.977 Y-1.780 E0.03622 F600.000
G1 X7.332 Y-1.748 E0.03146
G1 X7.655 Y-1.654 E0.02975
G1 X7.953 Y-1.502 E0.02958
G1 X8.230 Y-1.288 E0.03096
G1 X8.495 Y-0.967 E0.03676
G1 X8.654 Y-0.655 E0.03098
G1 X8.748 Y-0.333 E0.02960
G1 X8.779 Y0.000 E0.02960
G1 X8.748 Y0.333 E0.02960
G1 X8.654 Y0.655 E0.02960
G1 X8.502 Y0.953 E0.02961
G1 X8.297 Y1.218 E0.02960
G1 X8.046 Y1.440 E0.02961
G1 X7.744 Y1.618 E0.03097
G1 X7.349 Y1.746 E0.03673
G1 X7.000 Y1.779 E0.03098
G1 X6.651 Y1.746 E0.03098
G1 X6.336 Y1.644 E0.02927
G1 X6.529 Y1.050 F15000.000
G1 X6.323 Y0.932 E0.02099 F600.000
G1 X6.161 Y0.788 E0.01917
G1 X6.028 Y0.617 E0.01916
G1 X5.929 Y0.424 E0.01916
G1 X5.869 Y0.216 E0.01916
G1 X5.848 Y0.000 E0.01915
G1 X5.869 Y-0.216 E0.01915
G1 X5.929 Y-0.424 E0.01916
G1 X6.028 Y-0.617 E0.01916
G1 X6.161 Y-0.788 E0.01916
G1 X6.323 Y-0.932 E0.01917
G1 X6.510 Y-1.042 E0.01916
G1 X6.718 Y-1.117 E0.01961
G1 X6.989 Y-1.152 E0.02412 F600.000
G1 X7.215 Y-1.131 E0.02007
G1 X7.424 Y-1.071 E0.01921
G1 X7.617 Y-0.972 E0.01915
G1 X7.793 Y-0.836 E0.01965
G1 X7.970 Y-0.622 E0.02456
G1 X8.071 Y-0.424 E0.01966
G1 X8.131 Y-0.216 E0.01916
G1 X8.152 Y0.000 E0.01916
G1 X8.131 Y0.216 E0.01916
G1 X8.071 Y0.424 E0.01916
G1 X7.972 Y0.617 E0.01916
G1 X7.839 Y0.788 E0.01916
G1 X7.677 Y0.932 E0.01916
G1 X7.485 Y1.045 E0.01965
G1 X7.221 Y1.131 E0.02455
G1 X7.000 Y1.152 E0.01965
G1 X6.779 Y1.131 E0.01966
G1 X6.586 Y1.068 E0.01787
G1 X6.333 Y1.183 F15000.000
G1 E-3.20000 F3000.00000
G1 Z0.750 F15000.000
G1 X6.966 Y-2.409 F15000.000
G1 Z0.350 F15000.000
G1 E3.20000 F3000.00000
G1 X6.424 Y-2.339 E0.04831 F600.000
G1 X5.976 Y-2.178 E0.04210
G1 X5.585 Y-1.947 E0.04006
G1 X5.245 Y-1.648 E0.04006
G1 X4.903 Y-1.207 E0.04934
G1 X4.650 Y-1.293 E0.02368
G1 X4.650 Y-8.707 E0.65526
G1 X4.903 Y-8.793 E0.02368
G1 X5.245 Y-8.352 E0.04934
G1 X5.585 Y-8.053 E0.04006
G1 X5.997 Y-7.809 E0.04230
G1 X6.524 Y-7.638 E0.04891
G1 X7.000 Y-7.593 E0.04230
G1 X7.476 Y-7.638 E0.04230
G1 X8.003 Y-7.809 E0.04891
G1 X8.415 Y-8.053 E0.04230
G1 X8.755 Y-8.352 E0.04006
G1 X9.097 Y-8.793 E0.04934
G1 X9.350 Y-8.707 E0.02368
G1 X9.350 Y-0.914 E0.68878 F600.000
G1 X8.668 Y-1.739 E0.09465
G1 X8.290 Y-2.032 E0.04227
G1 X7.886 Y-2.238 E0.04002
G1 X7.449 Y-2.365 E0.04029
G1 X7.026 Y-2.404 E0.03754
G1 X4.650 Y-15.795 F15000.000
G1 X4.650 Y-18.350 E0.22588 F600.000
G1 X9.350 Y-18.350 E0.41548
G1 X9.350 Y-11.276 E0.62534
G1 X9.074 Y-11.200 E0.02529 F600.000
G1 X8.947 Y-11.415 E0.02205
G1 X8.648 Y-11.755 E0.04004
G1 X8.290 Y-12.032 E0.04005
G1 X7.886 Y-12.238 E0.04004
G1 X7.448 Y-12.365 E0.04029
G1 X6.966 Y-12.409 E0.04282
G1 X6.424 Y-12.339 E0.04832
G1 X5.975 Y-12.178 E0.04214
G1 X5.585 Y-11.947 E0.04004
G1 X5.245 Y-11.648 E0.04004
G1 X4.903 Y-11.207 E0.04935
G1 X4.650 Y-11.293 E0.02368
G1 X4.650 Y-15.735 E0.39259
G1 X6.242 Y-11.610 F15000.000
G1 X6.571 Y-11.728 E0.03088 F600.000
G1 X6.978 Y-11.780 E0.03622 F600.000
G1 X7.332 Y-11.748 E0.03144
G1 X7.655 Y-11.654 E0.02975
G1 X7.953 Y-11.502 E0.02960
G1 X8.218 Y-11.297 E0.02961
G1 X8.439 Y-11.046 E0.02960
G1 X8.618 Y-10.744 E0.03097
G1 X8.746 Y-10.349 E0.03675
G1 X8.779 Y-10.000 E0.03097
G1 X8.748 Y-9.667 E0.02960
G1 X8.654 Y-9.345 E0.02960
G1 X8.502 Y-9.047 E0.02961
G1 X8.297 Y-8.782 E0.02960
G1 X8.046 Y-8.560 E0.02961
G1 X7.744 Y-8.382 E0.03097
G1 X7.349 Y-8.254 E0.03673
G1 X7.000 Y-8.221 E0.03098
G1 X6.651 Y-8.254 E0.03098
G1 X6.256 Y-8.382 E0.03673
G1 X5.954 Y-8.560 E0.03097
G1 X5.703 Y-8.782 E0.02961
G1 X5.498 Y-9.047 E0.02960
G1 X5.346 Y-9.345 E0.02961
G1 X5.252 Y-9.667 E0.02960
G1 X5.221 Y-10.000 E0.02960
G1 X5.252 Y-10.333 E0.02960
G1 X5.346 Y-10.655 E0.02960
G1 X5.498 Y-10.953 E0.02960
G1 X5.703 Y-11.218 E0.02960
G1 X5.954 Y-11.439 E0.02960
G1 X6.191 Y-11.579 E0.02430
G1 X6.509 Y-11.042 F15000.000
G1 X6.718 Y-11.117 E0.01970 F600.000
G1 X6.989 Y-11.152 E0.02412 F600.000
G1 X7.215 Y-11.131 E0.02006
G1 X7.424 Y-11.071 E0.01921
G1 X7.617 Y-10.972 E0.01916
G1 X7.788 Y-10.839 E0.01916
G1 X7.932 Y-10.677 E0.01916
G1 X8.045 Y-10.486 E0.01965
G1 X8.131 Y-10.221 E0.02455
G1 X8.152 Y-10.000 E0.01965
G1 X8.131 Y-9.784 E0.01915
G1 X8.071 Y-9.576 E0.01916
G1 X7.972 Y-9.383 E0.01916
G1 X7.839 Y-9.212 E0.01916
G1 X7.677 Y-9.068 E0.01916
G1 X7.485 Y-8.955 E0.01965
G1 X7.221 Y-8.869 E0.02455
G1 X7.000 Y-8.848 E0.01965
G1 X6.779 Y-8.869 E0.01966
G1 X6.515 Y-8.955 E0.02455
G1 X6.323 Y-9.068 E0.01965
G1 X6.161 Y-9.212 E0.01916
G1 X6.028 Y-9.383 E0.01916
G1 X5.929 Y-9.576 E0.01916
G1 X5.869 Y-9.784 E0.01916
G1 X5.848 Y-10.000 E0.01915
G1 X5.869 Y-10.216 E0.01916
G1 X5.929 Y-10.424 E0.01916
G1 X6.028 Y-10.617 E0.01916
G1 X6.161 Y-10.788 E0.01916
G1 X6.323 Y-10.932 E0.01916
G1 X6.457 Y-11.011 E0.01377
G1 X6.534 Y-11.263 F15000.000
G1 X4.025 Y-11.011 F15000.000
G1 X4.025 Y-18.975 E0.70397 F960.000
G1 X9.975 Y-18.975 E0.52595
G1 X9.975 Y18.975 E3.35449
G1 X4.025 Y18.975 E0.52595 F960.000
G1 X4.025 Y-10.951 E2.64522
G1 X3.400 Y-10.951 F15000.000
G1 X3.400 Y-19.600 E0.76451 F960.000
G1 X10.600 Y-19.600 E0.63642
G1 X10.600 Y19.600 E3.46496
G1 X3.400 Y19.600 E0.63642 F960.000
G1 X3.400 Y-10.891 E2.69516
G1 X3.746 Y-11.151 F15000.000
G1 X4.713 Y-10.942 F15000.000
G1 X4.647 Y-10.479 E0.08764 F960.000
G1 X4.623 Y-10.027 E0.08478
G1 X4.641 Y-9.579 E0.08395
G1 X4.713 Y-9.058 E0.09852
G1 X5.028 Y-12.451 F15000.000
G1 X5.328 Y-12.152 E0.03877 F960.000
G1 X5.887 Y-12.509 E0.06076
G1 X5.028 Y-13.367 E0.11124
G1 X5.028 Y-14.283 E0.08389
G1 X6.586 Y-12.726 E0.20173
G1 X7.472 Y-12.756 E0.08121
G1 X5.028 Y-15.199 E0.31651
G1 X5.028 Y-16.115 E0.08389
G1 X8.967 Y-12.176 E0.51021
G1 X8.972 Y-13.087 E0.08345
G1 X5.028 Y-17.031 E0.51084
G1 X5.036 Y-17.939 E0.08322
G1 X8.972 Y-14.003 E0.50988
G1 X8.972 Y-14.919 E0.08389
G1 X5.919 Y-17.972 E0.39546
G1 X6.835 Y-17.972 E0.08389
G1 X8.972 Y-15.835 E0.27682
G1 X8.972 Y-16.751 E0.08389
G1 X7.751 Y-17.972 E0.15817
G1 X8.667 Y-17.972 E0.08389
G1 X8.972 Y-17.667 E0.03953
G1 X9.284 Y-10.933 F15000.000
G1 X9.351 Y-10.509 E0.08053 F960.000
G1 X9.377 Y-10.027 E0.09050
G1 X9.359 Y-9.579 E0.08396
G1 X9.287 Y-9.058 E0.09852
G1 X8.972 Y-7.549 F15000.000
G1 X8.672 Y-7.848 E0.03827 F960.000
G1 X8.120 Y-7.496 E0.05920
G1 X8.972 Y-6.644 E0.10887
G1 X8.972 Y-5.740 E0.08175
G1 X7.445 Y-7.267 E0.19520
G1 X6.567 Y-7.241 E0.07940
G1 X8.972 Y-4.836 E0.30744
G1 X8.972 Y-3.932 E0.08175
G1 X5.059 Y-7.845 E0.50029
G1 X5.028 Y-6.972 E0.07899
G1 X8.972 Y-3.028 E0.50426
G1 X8.943 Y-2.153 E0.07922
G1 X5.028 Y-6.068 E0.50062
G1 X5.028 Y-5.164 E0.08175
G1 X7.433 Y-2.759 E0.30746
G1 X6.565 Y-2.723 E0.07855
G1 X5.028 Y-4.260 E0.19647
G1 X5.028 Y-3.356 E0.08175
G1 X5.880 Y-2.504 E0.10887
G1 X5.328 Y-2.152 E0.05920
G1 X5.028 Y-2.451 E0.03827
G1 X4.713 Y-0.942 F15000.000
G1 X4.641 Y-0.421 E0.09853 F960.000
G1 X4.623 Y0.027 E0.08396
G1 X4.647 Y0.478 E0.08476
G1 X4.713 Y0.942 E0.08767
G1 X8.972 Y2.451 F15000.000
G1 X8.672 Y2.152 E0.03961 F960.000
G1 X8.100 Y2.516 E0.06344
G1 X8.972 Y3.387 E0.11532
G1 X8.972 Y4.323 E0.08757
G1 X7.387 Y2.739 E0.20969
G1 X6.463 Y2.749 E0.08656
G1 X8.972 Y5.259 E0.33209
G1 X8.972 Y6.194 E0.08757
G1 X5.028 Y2.251 E0.52192
G1 X5.028 Y3.187 E0.08757
G1 X8.972 Y7.130 E0.52192
G1 X8.972 Y8.066 E0.08757
G1 X5.028 Y4.122 E0.52192
G1 X5.028 Y5.058 E0.08757
G1 X8.972 Y9.001 E0.52192
G1 X8.972 Y9.937 E0.08757
G1 X5.028 Y5.994 E0.52192
G1 X5.028 Y6.929 E0.08757
G1 X8.972 Y10.873 E0.52192
G1 X8.972 Y11.808 E0.08757
G1 X5.028 Y7.865 E0.52192
G1 X5.028 Y8.801 E0.08757
G1 X8.972 Y12.744 E0.52192
G1 X7.535 Y12.243 F15000.000
G1 X5.028 Y9.737 E0.33180 F960.000
G1 X5.028 Y10.672 E0.08757
G1 X6.625 Y12.269 E0.21138
G1 X5.905 Y12.484 E0.07038
G1 X5.028 Y11.608 E0.11602
G1 X5.028 Y12.544 E0.08757
G1 X5.328 Y12.843 E0.03961
G1 X4.701 Y14.067 F15000.000
G1 X4.634 Y14.673 E0.11430 F960.000
G1 X4.624 Y15.143 E0.08808
G1 X4.695 Y15.935 E0.14904
G1 X4.962 Y17.518 F15000.000
G1 X5.554 Y17.697 E0.11582 F960.000
G1 X6.066 Y17.803 E0.09796
G1 X6.480 Y17.851 E0.07811
G1 X6.478 Y17.866 F15000.000
G1 X7.166 Y17.877 E0.06083 F960.000
G1 X7.552 Y17.848 E0.03421
G1 X7.555 Y17.864 F15000.000
G1 X8.315 Y17.728 E0.14476 F960.000
G1 X9.038 Y17.531 E0.14035
G1 X9.299 Y15.933 F15000.000
G1 X9.366 Y15.327 E0.11429 F960.000
G1 X9.376 Y14.857 E0.08808
G1 X9.305 Y14.065 E0.14903
G1 X9.287 Y0.942 F15000.000
G1 X9.353 Y0.479 E0.08766 F960.000
G1 X9.376 Y0.057 E0.07918
G1 X9.208 Y-0.364 E0.08491
G1 X9.213 Y-0.366 F15000.000
G1 X8.991 Y-0.784 E0.04176 F960.000
G1 X8.851 Y-0.998 E0.02261
G1 E-3.20000 F3000.00000
G1 Z0.750 F15000.000
G1 X19.941 Y13.568 F15000.000
G1 Z0.350 F15000.000
G1 E3.20000 F3000.00000
G1 X20.243 Y13.390 E0.03097 F600.000
G1 X20.557 Y13.277 E0.02958
G1 X20.888 Y13.224 E0.02959 F600.000
G1 X21.223 Y13.235 E0.02961
G1 X21.550 Y13.308 E0.02962
G1 X21.857 Y13.441 E0.02959
G1 X22.134 Y13.629 E0.02959
G1 X22.371 Y13.866 E0.02961
G1 X22.559 Y14.143 E0.02960
G1 X22.698 Y14.464 E0.03096
G1 X22.776 Y14.873 E0.03676
G1 X22.765 Y15.223 E0.03097
G1 X22.692 Y15.550 E0.02961
G1 X22.559 Y15.857 E0.02959
G1 X22.362 Y16.147 E0.03096
G1 X22.059 Y16.432 E0.03678
G1 X21.757 Y16.610 E0.03098
G1 X21.442 Y16.723 E0.02957
G1 X21.112 Y16.776 E0.02959
G1 X20.777 Y16.765 E0.02961
G1 X20.450 Y16.692 E0.02962
G1 X20.143 Y16.559 E0.02959
G1 X19.866 Y16.371 E0.02959
G1 X19.629 Y16.134 E0.02962
G1 X19.441 Y15.857 E0.02960
G1 X19.302 Y15.536 E0.03095
G1 X19.224 Y15.127 E0.03676
G1 X19.235 Y14.777 E0.03097
G1 X19.308 Y14.450 E0.02961
G1 X19.441 Y14.143 E0.02959
G1 X19.638 Y13.853 E0.03096
G1 X19.897 Y13.609 E0.03148
G1 X20.318 Y14.071 F15000.000
G1 X20.510 Y13.958 E0.01965 F600.000
G1 X20.714 Y13.885 E0.01915
G1 X20.928 Y13.851 E0.01915 F600.000
G1 X21.144 Y13.857 E0.01916
G1 X21.356 Y13.905 E0.01917
G1 X21.555 Y13.991 E0.01915
G1 X21.734 Y14.113 E0.01916
G1 X21.887 Y14.266 E0.01916
G1 X22.009 Y14.445 E0.01916
G1 X22.097 Y14.649 E0.01964
G1 X22.149 Y14.922 E0.02456
G1 X22.143 Y15.144 E0.01965
G1 X22.095 Y15.356 E0.01916
G1 X22.009 Y15.555 E0.01915
G1 X21.884 Y15.739 E0.01965
G1 X21.682 Y15.929 E0.02457
G1 X21.490 Y16.042 E0.01965
G1 X21.286 Y16.115 E0.01915
G1 X21.072 Y16.149 E0.01915
G1 X20.856 Y16.143 E0.01916
G1 X20.644 Y16.095 E0.01917
G1 X20.445 Y16.009 E0.01915
G1 X20.266 Y15.887 E0.01916
G1 X20.113 Y15.734 E0.01916
G1 X19.991 Y15.555 E0.01916
G1 X19.903 Y15.351 E0.01964
G1 X19.851 Y15.078 E0.02456
G1 X19.857 Y14.856 E0.01965
G1 X19.905 Y14.644 E0.01917
G1 X19.991 Y14.445 E0.01915
G1 X20.116 Y14.261 E0.01965
G1 X20.275 Y14.112 E0.01927
G1 X20.300 Y13.850 F15000.000
G1 X19.198 Y18.350 F15000.000
G1 X18.650 Y18.350 E0.04844 F600.000
G1 X18.650 Y16.276 E0.18336
G1 X18.915 Y16.194 E0.02448
G1 X19.145 Y16.534 E0.03631
G1 X19.466 Y16.855 E0.04007
G1 X19.840 Y17.109 E0.04003
G1 X20.256 Y17.289 E0.04002
G1 X20.698 Y17.388 E0.04007
G1 X21.151 Y17.402 E0.04006
