; generated by Slic3r 1.2.9 on 2024-07-09 at 06:21:39

; external perimeters extrusion width = 0.40mm
; perimeters extrusion width = 0.40mm
; infill extrusion width = 0.40mm
; solid infill extrusion width = 0.40mm
; top infill extrusion width = 0.40mm

M107
M104 S250 ; set temperature
M83
T0
M116


M109 S250 ; wait for temperature to be reached
G21 ; set units to millimeters
G90 ; use absolute coordinates
M83 ; use relative distances for extrusion
G1 E-3.20000 F3000.00000
G1 Z0.400 F15000.000
G1 X8.200 Y0.000 F15000.000
G1 Z0.350 F15000.000
G1 E3.20000 F3000.00000
G1 X8.200 Y19.950 E1.76342 F960.000
G1 X7.804 Y21.740 E0.16202
G1 X6.692 Y23.197 E0.16202
G1 X5.070 Y24.050 E0.16202
G1 X3.950 Y24.200 E0.09986
G1 X-3.950 Y24.200 E0.69830
G1 X-5.740 Y23.804 E0.16202
G1 X-7.197 Y22.692 E0.16202
G1 X-8.050 Y21.070 E0.16202
G1 X-8.200 Y19.950 E0.09986
G1 X-8.200 Y-19.950 E3.52684
G1 X-7.804 Y-21.740 E0.16202
G1 X-6.692 Y-23.197 E0.16202
G1 X-5.070 Y-24.050 E0.16202
G1 X-3.950 Y-24.200 E0.09986
G1 X3.950 Y-24.200 E0.69830
G1 X5.740 Y-23.804 E0.16202
G1 X7.197 Y-22.692 E0.16202 F960.000
G1 X8.050 Y-21.070 E0.16202
G1 X8.200 Y-19.950 E0.09986
G1 X8.200 Y-0.060 E1.75812
G1 X7.575 Y-0.060 F15000.000
G1 X7.575 Y19.950 E1.76872 F960.000
G1 X7.180 Y21.594 E0.14948
G1 X6.083 Y22.881 E0.14948
G1 X3.950 Y23.575 E0.19825
G1 X-3.950 Y23.575 E0.69830
G1 X-5.594 Y23.180 E0.14948
G1 X-6.881 Y22.083 E0.14948
G1 X-7.575 Y19.950 E0.19825
G1 X-7.575 Y-19.950 E3.52684
G1 X-7.180 Y-21.594 E0.14948
G1 X-6.083 Y-22.881 E0.14948
G1 X-3.950 Y-23.575 E0.19825
G1 X3.950 Y-23.575 E0.69830
G1 X5.594 Y-23.180 E0.14948
G1 X6.881 Y-22.083 E0.14948 F960.000
G1 X7.575 Y-19.950 E0.19825
G1 X7.575 Y-0.120 E1.75281
G1 E-3.20000 F3000.00000
G1 Z0.750 F15000.000
G1 X0.857 Y13.441 F15000.000
G1 Z0.350 F15000.000
G1 E3.20000 F3000.00000
G1 X1.134 Y13.629 E0.02959 F600.000
G1 X1.371 Y13.866 E0.02961
G1 X1.559 Y14.143 E0.02960
G1 X1.698 Y14.464 E0.03096
G1 X1.776 Y14.873 E0.03676
G1 X1.765 Y15.223 E0.03097
G1 X1.692 Y15.550 E0.02961
G1 X1.559 Y15.857 E0.02959
G1 X1.362 Y16.147 E0.03096
G1 X1.059 Y16.432 E0.03678
G1 X0.757 Y16.610 E0.03098
G1 X0.442 Y16.723 E0.02957
G1 X0.112 Y16.776 E0.02959
G1 X-0.223 Y16.765 E0.02961
G1 X-0.550 Y16.692 E0.02962
G1 X-0.857 Y16.559 E0.02959
G1 X-1.134 Y16.371 E0.02959
G1 X-1.371 Y16.134 E0.02962
G1 X-1.559 Y15.857 E0.02960
G1 X-1.698 Y15.536 E0.03095
G1 X-1.776 Y15.127 E0.03676
G1 X-1.765 Y14.777 E0.03097
G1 X-1.692 Y14.450 E0.02961
G1 X-1.559 Y14.143 E0.02959
G1 X-1.362 Y13.853 E0.03096
G1 X-1.059 Y13.568 E0.03678
G1 X-0.757 Y13.390 E0.03097
G1 X-0.443 Y13.277 E0.02958
G1 X-0.112 Y13.224 E0.02959 F600.000
G1 X0.223 Y13.235 E0.02961
G1 X0.550 Y13.308 E0.02962
G1 X0.802 Y13.417 E0.02428
G1 X0.554 Y13.990 F15000.000
G1 X0.734 Y14.113 E0.01925 F600.000
G1 X0.887 Y14.266 E0.01916
G1 X1.009 Y14.445 E0.01916
G1 X1.097 Y14.649 E0.01964
G1 X1.149 Y14.922 E0.02456
G1 X1.143 Y15.144 E0.01965
G1 X1.095 Y15.356 E0.01916
G1 X1.009 Y15.555 E0.01915
G1 X0.884 Y15.739 E0.01965
G1 X0.682 Y15.929 E0.02457
G1 X0.490 Y16.042 E0.01965
G1 X0.286 Y16.115 E0.01915
G1 X0.072 Y16.149 E0.01915
G1 X-0.144 Y16.143 E0.01916
G1 X-0.356 Y16.095 E0.01917
G1 X-0.555 Y16.009 E0.01915
G1 X-0.734 Y15.887 E0.01916
G1 X-0.887 Y15.734 E0.01916
G1 X-1.009 Y15.555 E0.01916
G1 X-1.097 Y15.351 E0.01964
G1 X-1.149 Y15.078 E0.02456
G1 X-1.143 Y14.856 E0.01965
G1 X-1.095 Y14.644 E0.01917
G1 X-1.009 Y14.445 E0.01915
G1 X-0.884 Y14.261 E0.01965
G1 X-0.682 Y14.071 E0.02457
G1 X-0.490 Y13.958 E0.01965
G1 X-0.286 Y13.885 E0.01915
G1 X-0.072 Y13.851 E0.01915 F600.000
G1 X0.144 Y13.857 E0.01916
G1 X0.356 Y13.905 E0.01917
G1 X0.499 Y13.967 E0.01375
G1 X0.743 Y13.883 F15000.000
G1 X2.086 Y16.194 F15000.000
G1 X2.350 Y16.276 E0.02448 F600.000
G1 X2.350 Y18.350 E0.18336 F600.000
G1 X-2.350 Y18.350 E0.41548
G1 X-2.350 Y16.276 E0.18336
G1 X-2.085 Y16.194 E0.02448
G1 X-1.855 Y16.534 E0.03631
G1 X-1.534 Y16.855 E0.04007
G1 X-1.160 Y17.109 E0.04003
G1 X-0.744 Y17.289 E0.04002
G1 X-0.302 Y17.388 E0.04007
G1 X0.151 Y17.402 E0.04006
G1 X0.599 Y17.331 E0.04002
G1 X1.024 Y17.178 E0.04000
G1 X1.436 Y16.935 E0.04230
G1 X1.840 Y16.555 E0.04899
G1 X2.052 Y16.244 E0.03324
G1 X-2.350 Y7.310 F15000.000
G1 X-2.350 Y1.293 E0.53185 F600.000
G1 X-2.097 Y1.207 E0.02368
G1 X-1.755 Y1.648 E0.04934
G1 X-1.415 Y1.947 E0.04006
G1 X-1.003 Y2.191 E0.04229
G1 X-0.476 Y2.362 E0.04891
G1 X0.000 Y2.407 E0.04231
G1 X0.476 Y2.362 E0.04230
G1 X1.003 Y2.191 E0.04891
G1 X1.415 Y1.947 E0.04230
G1 X1.755 Y1.648 E0.04006
G1 X2.097 Y1.207 E0.04934
G1 X2.350 Y1.293 E0.02368
G1 X2.350 Y13.724 E1.09878 F600.000
G1 X2.086 Y13.806 E0.02448
G1 X1.855 Y13.466 E0.03631
G1 X1.534 Y13.145 E0.04007
G1 X1.160 Y12.891 E0.04003
G1 X0.744 Y12.711 E0.04002
G1 X0.302 Y12.612 E0.04008
G1 X-0.151 Y12.598 E0.04006
G1 X-0.599 Y12.669 E0.04002
G1 X-1.024 Y12.822 E0.04000
G1 X-1.436 Y13.065 E0.04230
G1 X-1.840 Y13.445 E0.04900
G1 X-2.085 Y13.806 E0.03855
G1 X-2.350 Y13.724 E0.02448
G1 X-2.350 Y7.370 E0.56163
G1 X-0.506 Y1.695 F15000.000
G1 X-0.744 Y1.618 E0.02214 F600.000
G1 X-1.046 Y1.440 E0.03097
G1 X-1.297 Y1.218 E0.02961
G1 X-1.502 Y0.953 E0.02959
G1 X-1.654 Y0.655 E0.02961
G1 X-1.748 Y0.333 E0.02960
G1 X-1.779 Y0.000 E0.02960
G1 X-1.748 Y-0.333 E0.02960
G1 X-1.654 Y-0.655 E0.02960
G1 X-1.502 Y-0.953 E0.02961
G1 X-1.297 Y-1.218 E0.02960
G1 X-1.046 Y-1.440 E0.02961
G1 X-0.757 Y-1.610 E0.02961
G1 X-0.429 Y-1.728 E0.03085
G1 X-0.023 Y-1.780 E0.03622 F600.000
G1 X0.332 Y-1.748 E0.03146
G1 X0.655 Y-1.654 E0.02975
G1 X0.953 Y-1.502 E0.02958
G1 X1.230 Y-1.288 E0.03096
G1 X1.495 Y-0.967 E0.03676
G1 X1.654 Y-0.655 E0.03098
G1 X1.748 Y-0.333 E0.02960
G1 X1.779 Y0.000 E0.02960
G1 X1.748 Y0.333 E0.02960
G1 X1.654 Y0.655 E0.02960
G1 X1.502 Y0.953 E0.02961
G1 X1.297 Y1.218 E0.02960
G1 X1.046 Y1.440 E0.02961
G1 X0.744 Y1.618 E0.03097
G1 X0.349 Y1.746 E0.03673
G1 X0.000 Y1.779 E0.03098
G1 X-0.349 Y1.746 E0.03098
G1 X-0.449 Y1.714 E0.00929
G1 X-0.256 Y1.119 F15000.000
G1 X-0.485 Y1.045 E0.02135 F600.000
G1 X-0.677 Y0.932 E0.01965
G1 X-0.839 Y0.788 E0.01917
G1 X-0.972 Y0.617 E0.01916
G1 X-1.071 Y0.424 E0.01916
G1 X-1.131 Y0.216 E0.01916
G1 X-1.152 Y0.000 E0.01915
G1 X-1.131 Y-0.216 E0.01915
G1 X-1.071 Y-0.424 E0.01916
G1 X-0.972 Y-0.617 E0.01916
G1 X-0.839 Y-0.788 E0.01916
G1 X-0.677 Y-0.932 E0.01917
G1 X-0.490 Y-1.042 E0.01916
G1 X-0.282 Y-1.117 E0.01961
G1 X-0.011 Y-1.152 E0.02412 F600.000
G1 X0.215 Y-1.131 E0.02007
G1 X0.424 Y-1.071 E0.01921
G1 X0.617 Y-0.972 E0.01915
G1 X0.793 Y-0.836 E0.01965
G1 X0.970 Y-0.622 E0.02456
G1 X1.071 Y-0.424 E0.01966
G1 X1.131 Y-0.216 E0.01916
G1 X1.152 Y0.000 E0.01916
G1 X1.131 Y0.216 E0.01916
G1 X1.071 Y0.424 E0.01916
G1 X0.972 Y0.617 E0.01916
G1 X0.839 Y0.788 E0.01916
G1 X0.677 Y0.932 E0.01916
G1 X0.485 Y1.045 E0.01965
G1 X0.221 Y1.131 E0.02455
G1 X0.000 Y1.152 E0.01965
G1 X-0.198 Y1.133 E0.01755
G1 X-0.425 Y1.292 F15000.000
G1 E-3.20000 F3000.00000
G1 Z0.750 F15000.000
G1 X2.350 Y-3.439 F15000.000
G1 Z0.350 F15000.000
G1 E3.20000 F3000.00000
G1 X2.350 Y-0.914 E0.22312 F600.000
G1 X1.668 Y-1.739 E0.09465
G1 X1.290 Y-2.032 E0.04227
G1 X0.886 Y-2.238 E0.04002
G1 X0.449 Y-2.365 E0.04029
G1 X-0.034 Y-2.409 E0.04285
G1 X-0.576 Y-2.339 E0.04831
G1 X-1.024 Y-2.178 E0.04210
G1 X-1.415 Y-1.947 E0.04006
G1 X-1.755 Y-1.648 E0.04006
G1 X-2.097 Y-1.207 E0.04934
G1 X-2.350 Y-1.293 E0.02368
G1 X-2.350 Y-8.707 E0.65526
G1 X-2.097 Y-8.793 E0.02368
G1 X-1.755 Y-8.352 E0.04934
G1 X-1.415 Y-8.053 E0.04006
G1 X-1.003 Y-7.809 E0.04230
G1 X-0.476 Y-7.638 E0.04891
G1 X0.000 Y-7.593 E0.04230
G1 X0.476 Y-7.638 E0.04230
G1 X1.003 Y-7.809 E0.04891
G1 X1.415 Y-8.053 E0.04230
G1 X1.755 Y-8.352 E0.04006
G1 X2.097 Y-8.793 E0.04934
G1 X2.350 Y-8.707 E0.02368
G1 X2.350 Y-3.499 E0.46035 F600.000
G1 E-3.20000 F3000.00000
G1 Z0.750 F15000.000
G1 X-2.350 Y-15.763 F15000.000
G1 Z0.350 F15000.000
G1 E3.20000 F3000.00000
G1 X-2.350 Y-18.350 E0.22868 F600.000
G1 X2.350 Y-18.350 E0.41548
G1 X2.350 Y-11.276 E0.62534
G1 X2.074 Y-11.200 E0.02529 F600.000
G1 X1.947 Y-11.415 E0.02205
G1 X1.648 Y-11.755 E0.04004
G1 X1.290 Y-12.032 E0.04005
G1 X0.886 Y-12.238 E0.04004
G1 X0.448 Y-12.365 E0.04029
G1 X-0.034 Y-12.409 E0.04282
G1 X-0.576 Y-12.339 E0.04832
G1 X-1.025 Y-12.178 E0.04214
G1 X-1.415 Y-11.947 E0.04004
G1 X-1.755 Y-11.648 E0.04004
G1 X-2.097 Y-11.207 E0.04935
G1 X-2.350 Y-11.293 E0.02368
G1 X-2.350 Y-15.703 E0.38978
G1 X-0.758 Y-11.610 F15000.000
G1 X-0.429 Y-11.728 E0.03088 F600.000
G1 X-0.022 Y-11.780 E0.03622 F600.000
G1 X0.332 Y-11.748 E0.03144
G1 X0.655 Y-11.654 E0.02975
G1 X0.953 Y-11.502 E0.02960
G1 X1.218 Y-11.297 E0.02961
G1 X1.439 Y-11.046 E0.02960
G1 X1.618 Y-10.744 E0.03097
G1 X1.746 Y-10.349 E0.03675
G1 X1.779 Y-10.000 E0.03097
G1 X1.748 Y-9.667 E0.02960
G1 X1.654 Y-9.345 E0.02960
G1 X1.502 Y-9.047 E0.02961
G1 X1.297 Y-8.782 E0.02960
G1 X1.046 Y-8.560 E0.02961
G1 X0.744 Y-8.382 E0.03097
G1 X0.349 Y-8.254 E0.03673
G1 X0.000 Y-8.221 E0.03098
G1 X-0.349 Y-8.254 E0.03098
G1 X-0.744 Y-8.382 E0.03673
G1 X-1.046 Y-8.560 E0.03097
G1 X-1.297 Y-8.782 E0.02961
G1 X-1.502 Y-9.047 E0.02960
G1 X-1.654 Y-9.345 E0.02961
G1 X-1.748 Y-9.667 E0.02960
G1 X-1.779 Y-10.000 E0.02960
G1 X-1.748 Y-10.333 E0.02960
G1 X-1.654 Y-10.655 E0.02960
G1 X-1.502 Y-10.953 E0.02960
G1 X-1.297 Y-11.218 E0.02960
G1 X-1.046 Y-11.439 E0.02960
G1 X-0.809 Y-11.579 E0.02430
G1 X-0.491 Y-11.042 F15000.000
G1 X-0.282 Y-11.117 E0.01970 F600.000
G1 X-0.011 Y-11.152 E0.02412 F600.000
G1 X0.215 Y-11.131 E0.02006
G1 X0.424 Y-11.071 E0.01921
G1 X0.617 Y-10.972 E0.01916
G1 X0.788 Y-10.839 E0.01916
G1 X0.932 Y-10.677 E0.01916
G1 X1.045 Y-10.486 E0.01965
G1 X1.131 Y-10.221 E0.02455
G1 X1.152 Y-10.000 E0.01965
G1 X1.131 Y-9.784 E0.01915
G1 X1.071 Y-9.576 E0.01916
G1 X0.972 Y-9.383 E0.01916
G1 X0.839 Y-9.212 E0.01916
G1 X0.677 Y-9.068 E0.01916
G1 X0.485 Y-8.955 E0.01965
G1 X0.221 Y-8.869 E0.02455
G1 X0.000 Y-8.848 E0.01965
G1 X-0.221 Y-8.869 E0.01966
G1 X-0.485 Y-8.955 E0.02455
G1 X-0.677 Y-9.068 E0.01965
G1 X-0.839 Y-9.212 E0.01916
G1 X-0.972 Y-9.383 E0.01916
G1 X-1.071 Y-9.576 E0.01916
G1 X-1.131 Y-9.784 E0.01916
G1 X-1.152 Y-10.000 E0.01915
G1 X-1.131 Y-10.216 E0.01916
G1 X-1.071 Y-10.424 E0.01916
G1 X-0.972 Y-10.617 E0.01916
G1 X-0.839 Y-10.788 E0.01916
G1 X-0.677 Y-10.932 E0.01916
G1 X-0.543 Y-11.011 E0.01377
G1 X-0.466 Y-11.263 F15000.000
G1 X-2.975 Y-11.011 F15000.000
G1 X-2.975 Y-18.975 E0.70397 F960.000
G1 X2.975 Y-18.975 E0.52595
G1 X2.975 Y18.975 E3.35449
G1 X-2.975 Y18.975 E0.52595 F960.000
G1 X-2.975 Y-10.951 E2.64522
G1 X-3.600 Y-10.951 F15000.000
G1 X-3.600 Y-19.600 E0.76451 F960.000
G1 X3.600 Y-19.600 E0.63642
G1 X3.600 Y19.600 E3.46496
G1 X-3.600 Y19.600 E0.63642 F960.000
G1 X-3.600 Y-10.891 E2.69516
G1 X-3.254 Y-11.151 F15000.000
G1 X-2.287 Y-10.942 F15000.000
G1 X-2.353 Y-10.479 E0.08764 F960.000
G1 X-2.377 Y-10.027 E0.08478
G1 X-2.359 Y-9.579 E0.08395
G1 X-2.287 Y-9.058 E0.09852
G1 X-1.972 Y-12.451 F15000.000
G1 X-1.672 Y-12.152 E0.03877 F960.000
G1 X-1.113 Y-12.509 E0.06076
G1 X-1.972 Y-13.367 E0.11124
G1 X-1.972 Y-14.283 E0.08389
G1 X-0.414 Y-12.726 E0.20173
G1 X0.472 Y-12.756 E0.08121
G1 X-1.972 Y-15.199 E0.31651
G1 X-1.972 Y-16.115 E0.08389
G1 X1.967 Y-12.176 E0.51021
G1 X1.972 Y-13.087 E0.08345
G1 X-1.972 Y-17.031 E0.51084
G1 X-1.964 Y-17.939 E0.08322
G1 X1.972 Y-14.003 E0.50988
G1 X1.972 Y-14.919 E0.08389
G1 X-1.081 Y-17.972 E0.39546
G1 X-0.165 Y-17.972 E0.08389
G1 X1.972 Y-15.835 E0.27682
G1 X1.972 Y-16.751 E0.08389
G1 X0.751 Y-17.972 E0.15817
G1 X1.667 Y-17.972 E0.08389
G1 X1.972 Y-17.667 E0.03953
G1 X2.284 Y-10.933 F15000.000
G1 X2.351 Y-10.509 E0.08053 F960.000
G1 X2.377 Y-10.027 E0.09050
G1 X2.359 Y-9.579 E0.08396
G1 X2.287 Y-9.058 E0.09852
G1 X1.972 Y-7.549 F15000.000
G1 X1.672 Y-7.848 E0.03827 F960.000
G1 X1.120 Y-7.496 E0.05920
G1 X1.972 Y-6.644 E0.10887
G1 X1.972 Y-5.740 E0.08175
G1 X0.445 Y-7.267 E0.19520
G1 X-0.433 Y-7.241 E0.07940
G1 X1.972 Y-4.836 E0.30744
G1 X1.972 Y-3.932 E0.08175
G1 X-1.941 Y-7.845 E0.50029
G1 X-1.972 Y-6.972 E0.07899
G1 X1.972 Y-3.028 E0.50426
G1 X1.943 Y-2.153 E0.07922
G1 X-1.972 Y-6.068 E0.50062
G1 X-1.972 Y-5.164 E0.08175
G1 X0.433 Y-2.759 E0.30746
G1 X-0.435 Y-2.723 E0.07855
G1 X-1.972 Y-4.260 E0.19647
G1 X-1.972 Y-3.356 E0.08175
G1 X-1.120 Y-2.504 E0.10887
G1 X-1.672 Y-2.152 E0.05920
G1 X-1.972 Y-2.451 E0.03827
G1 X-2.287 Y-0.942 F15000.000
G1 X-2.359 Y-0.421 E0.09853 F960.000
G1 X-2.377 Y0.027 E0.08396
G1 X-2.353 Y0.478 E0.08476
G1 X-2.287 Y0.942 E0.08767
G1 X1.972 Y2.451 F15000.000
G1 X1.672 Y2.152 E0.03961 F960.000
G1 X1.100 Y2.516 E0.06344
G1 X1.972 Y3.387 E0.11532
G1 X1.972 Y4.323 E0.08757
G1 X0.387 Y2.739 E0.20969
G1 X-0.537 Y2.749 E0.08656
G1 X1.972 Y5.259 E0.33209
G1 X1.972 Y6.194 E0.08757
G1 X-1.972 Y2.251 E0.52192
G1 X-1.972 Y3.187 E0.08757
G1 X1.972 Y7.130 E0.52192
G1 X1.972 Y8.066 E0.08757
G1 X-1.972 Y4.122 E0.52192
G1 X-1.972 Y5.058 E0.08757
G1 X1.972 Y9.001 E0.52192
G1 X1.972 Y9.937 E0.08757
G1 X-1.972 Y5.994 E0.52192
G1 X-1.972 Y6.929 E0.08757
G1 X1.972 Y10.873 E0.52192
G1 X1.972 Y11.808 E0.08757
G1 X-1.972 Y7.865 E0.52192
G1 X-1.972 Y8.801 E0.08757
G1 X1.972 Y12.744 E0.52192
G1 X0.535 Y12.243 F15000.000
G1 X-1.972 Y9.737 E0.33180 F960.000
G1 X-1.972 Y10.672 E0.08757
G1 X-0.375 Y12.269 E0.21138
G1 X-1.095 Y12.484 E0.07038
G1 X-1.972 Y11.608 E0.11602
G1 X-1.972 Y12.544 E0.08757
G1 X-1.672 Y12.843 E0.03961
G1 X-2.299 Y14.067 F15000.000
G1 X-2.366 Y14.673 E0.11430 F960.000
G1 X-2.376 Y15.143 E0.08808
G1 X-2.305 Y15.935 E0.14904
G1 X-2.038 Y17.518 F15000.000
G1 X-1.446 Y17.697 E0.11582 F960.000
G1 X-0.934 Y17.803 E0.09796
G1 X-0.520 Y17.851 E0.07811
G1 X-0.522 Y17.866 F15000.000
G1 X0.166 Y17.877 E0.06083 F960.000
G1 X0.552 Y17.848 E0.03421
G1 X0.555 Y17.864 F15000.000
G1 X1.315 Y17.728 E0.14476 F960.000
G1 X2.038 Y17.531 E0.14035
G1 X2.299 Y15.933 F15000.000
G1 X2.366 Y15.327 E0.11429 F960.000
G1 X2.376 Y14.857 E0.08808
G1 X2.305 Y14.065 E0.14903
G1 X2.287 Y0.942 F15000.000
G1 X2.353 Y0.479 E0.08766 F960.000
G1 X2.376 Y0.057 E0.07918
G1 X2.208 Y-0.364 E0.08491
G1 X2.213 Y-0.366 F15000.000
G1 X1.991 Y-0.784 E0.04176 F960.000
G1 X1.851 Y-0.998 E0.02261
M104 S246 ; set temperature
G1 E-3.20000 F3000.00000
G1 Z0.750 F15000.000
G1 X0.321 Y13.312 F15000.000
G1 Z0.550 F15000.000
G1 E3.20000 F3000.00000
G1 X0.633 Y13.402 E0.00937 F2400.000
G1 X0.921 Y13.549 E0.00933
G1 X1.188 Y13.756 E0.00975
G1 X1.444 Y14.066 E0.01162
G1 X1.598 Y14.368 E0.00976
G1 X1.688 Y14.678 E0.00934
G1 X1.718 Y15.000 E0.00933
G1 X1.688 Y15.322 E0.00933
G1 X1.598 Y15.633 E0.00933
G1 X1.450 Y15.922 E0.00938
G1 X1.239 Y16.192 E0.00989
G1 X0.933 Y16.445 E0.01146
G1 X0.633 Y16.598 E0.00972
G1 X0.322 Y16.688 E0.00933
G1 X0.000 Y16.718 E0.00934
G1 X-0.336 Y16.686 E0.00976
G1 X-0.719 Y16.562 E0.01161
G1 X-1.010 Y16.390 E0.00975
G1 X-1.253 Y16.176 E0.00934
G1 X-1.451 Y15.921 E0.00933
G1 X-1.598 Y15.633 E0.00934
G1 X-1.688 Y15.322 E0.00934
G1 X-1.718 Y15.000 E0.00933
G1 X-1.688 Y14.678 E0.00933
G1 X-1.598 Y14.368 E0.00934
G1 X-1.451 Y14.079 E0.00934
G1 X-1.253 Y13.824 E0.00933
G1 X-1.010 Y13.610 E0.00934
G1 X-0.731 Y13.445 E0.00934
G1 X-0.414 Y13.331 E0.00972
G1 X-0.020 Y13.281 E0.01147 F2400.000
G1 X0.261 Y13.306 E0.00816
G1 X0.228 Y13.662 F15000.000
G1 X0.501 Y13.736 E0.00814 F2400.000
G1 X0.728 Y13.852 E0.00738
G1 X0.938 Y14.014 E0.00764
G1 X1.144 Y14.264 E0.00934
G1 X1.264 Y14.500 E0.00764
G1 X1.336 Y14.745 E0.00739
G1 X1.360 Y15.000 E0.00738
G1 X1.336 Y15.255 E0.00738
G1 X1.264 Y15.500 E0.00739
G1 X1.148 Y15.729 E0.00741
G1 X0.982 Y15.941 E0.00776
G1 X0.736 Y16.144 E0.00921
G1 X0.501 Y16.264 E0.00762
G1 X0.255 Y16.335 E0.00738
G1 X0.000 Y16.360 E0.00739
G1 X-0.264 Y16.335 E0.00764
G1 X-0.571 Y16.235 E0.00933
G1 X-0.799 Y16.100 E0.00764
G1 X-0.991 Y15.931 E0.00739
G1 X-1.148 Y15.729 E0.00738
G1 X-1.264 Y15.501 E0.00739
G1 X-1.336 Y15.255 E0.00739
G1 X-1.360 Y15.000 E0.00738
G1 X-1.336 Y14.745 E0.00738
G1 X-1.264 Y14.500 E0.00739
G1 X-1.148 Y14.271 E0.00739
G1 X-0.991 Y14.069 E0.00738
G1 X-0.799 Y13.900 E0.00739
G1 X-0.579 Y13.770 E0.00739
G1 X-0.330 Y13.680 E0.00762
G1 X-0.014 Y13.640 E0.00921 F2400.000
G1 X0.169 Y13.656 E0.00529
G1 X0.136 Y14.012 F15000.000
