; generated by Slic3r 1.2.9 on 2024-07-09 at 06:50:33

; external perimeters extrusion width = 0.40mm
; perimeters extrusion width = 0.40mm
; infill extrusion width = 0.40mm
; solid infill extrusion width = 0.40mm
; top infill extrusion width = 0.40mm

M107
M104 S250 ; set temperature
M83
T0
M116


M109 S250 ; wait for temperature to be reached
G21 ; set units to millimeters
G90 ; use absolute coordinates
M83 ; use relative distances for extrusion
G1 E-3.20000 F3000.00000
G1 Z0.400 F15000.000
G1 X13.887 Y7.307 F15000.000
G1 Z0.350 F15000.000
G1 E3.20000 F3000.00000
G1 X1.563 Y30.730 E2.33952 F960.000
G1 X0.380 Y32.130 E0.16202
G1 X-2.198 Y33.001 E0.24051
G1 X-10.098 Y33.001 E0.69830
G1 X-11.887 Y32.606 E0.16202
G1 X-13.442 Y31.374 E0.17533
G1 X-27.244 Y13.771 E1.97720
G1 X-28.038 Y12.119 E0.16202
G1 X-28.150 Y11.149 E0.08630
G1 X-28.150 Y-28.751 E3.52684
G1 X-27.754 Y-30.541 E0.16202
G1 X-26.642 Y-31.998 E0.16202
G1 X-25.020 Y-32.851 E0.16202
G1 X-23.900 Y-33.001 E0.09986
G1 X23.900 Y-33.001 E4.22513
G1 X25.690 Y-32.606 E0.16202
G1 X27.147 Y-31.493 E0.16202 F960.000
G1 X28.000 Y-29.871 E0.16202
G1 X28.150 Y-28.751 E0.09986
G1 X28.150 Y-20.851 E0.69830
G1 X27.661 Y-18.872 E0.18017
G1 X13.915 Y7.253 E2.60945
G1 X13.362 Y6.963 F15000.000
G1 X1.010 Y30.439 E2.34483 F960.000
G1 X-0.104 Y31.711 E0.14948
G1 X-2.198 Y32.376 E0.19414
G1 X-10.098 Y32.376 E0.69830
G1 X-11.742 Y31.982 E0.14948
G1 X-12.950 Y30.988 E0.13827
G1 X-26.753 Y13.385 E1.97720
G1 X-27.525 Y11.149 E0.20916
G1 X-27.525 Y-28.751 E3.52684
G1 X-27.130 Y-30.396 E0.14948
G1 X-26.033 Y-31.682 E0.14948
G1 X-23.900 Y-32.376 E0.19825
G1 X23.900 Y-32.376 E4.22513
G1 X25.544 Y-31.982 E0.14948
G1 X26.831 Y-30.884 E0.14948 F960.000
G1 X27.525 Y-28.751 E0.19825
G1 X27.525 Y-20.851 E0.69830
G1 X27.108 Y-19.163 E0.15367
G1 X13.390 Y6.909 E2.60415
G1 E-3.20000 F3000.00000
G1 Z0.750 F15000.000
G1 X-18.202 Y1.532 F15000.000
G1 Z0.350 F15000.000
G1 E3.20000 F3000.00000
G1 X-18.296 Y1.854 E0.02960 F600.000
G1 X-18.448 Y2.152 E0.02961
G1 X-18.653 Y2.417 E0.02960
G1 X-18.904 Y2.638 E0.02961
G1 X-19.206 Y2.817 E0.03097
G1 X-19.601 Y2.945 E0.03673
G1 X-19.950 Y2.978 E0.03098
G1 X-20.299 Y2.945 E0.03098
G1 X-20.694 Y2.817 E0.03673
G1 X-20.996 Y2.638 E0.03097
G1 X-21.259 Y2.406 E0.03107
G1 X-21.555 Y1.998 E0.04455
G1 X-21.697 Y1.542 E0.04222
G1 X-21.729 Y1.199 E0.03043
G1 X-21.698 Y0.865 E0.02959
G1 X-21.604 Y0.544 E0.02960
G1 X-21.452 Y0.245 E0.02961
G1 X-21.247 Y-0.019 E0.02960
G1 X-20.996 Y-0.241 E0.02961
G1 X-20.707 Y-0.411 E0.02961
G1 X-20.379 Y-0.529 E0.03085
G1 X-19.973 Y-0.582 E0.03622 F600.000
G1 X-19.618 Y-0.549 E0.03146
G1 X-19.295 Y-0.455 E0.02975
G1 X-18.997 Y-0.303 E0.02959
G1 X-18.732 Y-0.098 E0.02960
G1 X-18.514 Y0.149 E0.02915
G1 X-18.304 Y0.496 E0.03587
G1 X-18.201 Y0.875 E0.03464
G1 X-18.171 Y1.199 E0.02879
G1 X-18.197 Y1.472 E0.02429
G1 X-18.819 Y1.414 F15000.000
G1 X-18.879 Y1.623 E0.01924 F600.000
G1 X-18.978 Y1.816 E0.01916
G1 X-19.111 Y1.987 E0.01916
G1 X-19.273 Y2.131 E0.01916
G1 X-19.465 Y2.244 E0.01965
G1 X-19.729 Y2.329 E0.02455
G1 X-19.950 Y2.350 E0.01965
G1 X-20.171 Y2.329 E0.01966
G1 X-20.435 Y2.244 E0.02455
G1 X-20.627 Y2.131 E0.01965
G1 X-20.794 Y1.983 E0.01969
G1 X-20.989 Y1.714 E0.02936
G1 X-21.081 Y1.418 E0.02742
G1 X-21.102 Y1.199 E0.01945
G1 X-21.081 Y0.983 E0.01915
G1 X-21.021 Y0.775 E0.01916
G1 X-20.922 Y0.582 E0.01916
G1 X-20.789 Y0.410 E0.01916
G1 X-20.627 Y0.267 E0.01917
G1 X-20.440 Y0.157 E0.01916
G1 X-20.232 Y0.082 E0.01961
G1 X-19.961 Y0.047 E0.02412 F600.000
G1 X-19.735 Y0.067 E0.02007
G1 X-19.526 Y0.128 E0.01921
G1 X-19.333 Y0.226 E0.01915
G1 X-19.162 Y0.359 E0.01916
G1 X-19.020 Y0.521 E0.01900
G1 X-18.884 Y0.745 E0.02315
G1 X-18.819 Y0.986 E0.02214
G1 X-18.798 Y1.199 E0.01887
G1 X-18.813 Y1.354 E0.01377
G1 X-18.658 Y1.561 F15000.000
G1 X-17.600 Y7.556 F15000.000
G1 X-17.600 Y9.549 E0.17615 F600.000
G1 X-22.300 Y9.549 E0.41548
G1 X-22.300 Y2.476 E0.62520
G1 X-22.041 Y2.392 E0.02410
G1 X-21.725 Y2.828 E0.04764
G1 X-21.365 Y3.146 E0.04246 F600.000
G1 X-20.953 Y3.390 E0.04230
G1 X-20.426 Y3.561 E0.04891
G1 X-19.950 Y3.606 E0.04230
G1 X-19.474 Y3.561 E0.04230
G1 X-18.947 Y3.390 E0.04891
G1 X-18.535 Y3.146 E0.04230
G1 X-18.195 Y2.846 E0.04006
G1 X-17.853 Y2.405 E0.04934
G1 X-17.600 Y2.492 E0.02368
G1 X-17.600 Y7.496 E0.44231
G1 E-3.20000 F3000.00000
G1 Z0.750 F15000.000
G1 X-20.953 Y-0.987 F15000.000
G1 Z0.350 F15000.000
G1 E3.20000 F3000.00000
G1 X-21.365 Y-0.749 E0.04205 F600.000
G1 X-21.705 Y-0.449 E0.04006
G1 X-22.047 Y-0.008 E0.04934
G1 X-22.300 Y-0.095 E0.02368
G1 X-22.300 Y-7.524 E0.65670
G1 X-22.041 Y-7.608 E0.02410
G1 X-21.725 Y-7.172 E0.04764
G1 X-21.365 Y-6.854 E0.04246 F600.000
G1 X-20.953 Y-6.610 E0.04230
G1 X-20.426 Y-6.439 E0.04891
G1 X-19.950 Y-6.394 E0.04230
G1 X-19.474 Y-6.439 E0.04230
G1 X-18.947 Y-6.610 E0.04891
G1 X-18.535 Y-6.854 E0.04230
G1 X-18.195 Y-7.154 E0.04006
G1 X-17.853 Y-7.595 E0.04934
G1 X-17.600 Y-7.508 E0.02368
G1 X-17.600 Y-0.077 E0.65684
G1 X-17.874 Y-0.000 E0.02515
G1 X-18.008 Y-0.222 E0.02294
G1 X-18.302 Y-0.556 E0.03930
G1 X-18.660 Y-0.833 E0.04005
G1 X-19.064 Y-1.039 E0.04002
G1 X-19.501 Y-1.166 E0.04029
G1 X-19.984 Y-1.210 E0.04285
G1 X-20.526 Y-1.140 E0.04831
G1 X-20.896 Y-1.007 E0.03477
G1 X-20.299 Y-7.055 F15000.000
G1 X-20.694 Y-7.183 E0.03673 F600.000
G1 X-20.996 Y-7.362 E0.03097
G1 X-21.259 Y-7.594 E0.03107
G1 X-21.555 Y-8.002 E0.04455
G1 X-21.697 Y-8.458 E0.04221
G1 X-21.729 Y-8.801 E0.03043
G1 X-21.698 Y-9.135 E0.02960
G1 X-21.604 Y-9.456 E0.02960
G1 X-21.452 Y-9.755 E0.02961
G1 X-21.247 Y-10.019 E0.02960
G1 X-20.996 Y-10.241 E0.02961
G1 X-20.707 Y-10.411 E0.02961
G1 X-20.379 Y-10.529 E0.03085
G1 X-19.973 Y-10.582 E0.03622 F600.000
G1 X-19.618 Y-10.549 E0.03146
G1 X-19.295 Y-10.455 E0.02975
G1 X-18.997 Y-10.303 E0.02959
G1 X-18.732 Y-10.098 E0.02960
G1 X-18.514 Y-9.851 E0.02915
G1 X-18.304 Y-9.504 E0.03587
G1 X-18.201 Y-9.125 E0.03464
G1 X-18.171 Y-8.801 E0.02879
G1 X-18.202 Y-8.468 E0.02960
G1 X-18.296 Y-8.146 E0.02960
G1 X-18.448 Y-7.848 E0.02961
G1 X-18.653 Y-7.583 E0.02960
G1 X-18.904 Y-7.362 E0.02961
G1 X-19.206 Y-7.183 E0.03097
G1 X-19.601 Y-7.055 E0.03673
G1 X-19.950 Y-7.022 E0.03098
G1 X-20.239 Y-7.049 E0.02568
G1 X-20.171 Y-7.671 F15000.000
G1 X-20.435 Y-7.756 E0.02455 F600.000
G1 X-20.627 Y-7.869 E0.01965
G1 X-20.794 Y-8.017 E0.01969
G1 X-20.989 Y-8.286 E0.02936
G1 X-21.081 Y-8.582 E0.02742
G1 X-21.102 Y-8.801 E0.01945
G1 X-21.081 Y-9.017 E0.01915
G1 X-21.021 Y-9.225 E0.01916
G1 X-20.922 Y-9.418 E0.01916
G1 X-20.789 Y-9.590 E0.01916
G1 X-20.627 Y-9.733 E0.01917
G1 X-20.440 Y-9.843 E0.01916
G1 X-20.232 Y-9.918 E0.01961
G1 X-19.961 Y-9.953 E0.02412 F600.000
G1 X-19.735 Y-9.933 E0.02007
G1 X-19.526 Y-9.872 E0.01921
G1 X-19.333 Y-9.774 E0.01915
G1 X-19.162 Y-9.641 E0.01916
G1 X-19.020 Y-9.479 E0.01900
G1 X-18.884 Y-9.255 E0.02315
G1 X-18.819 Y-9.014 E0.02214
G1 X-18.798 Y-8.801 E0.01887
G1 X-18.819 Y-8.585 E0.01915
G1 X-18.879 Y-8.377 E0.01916
G1 X-18.978 Y-8.184 E0.01916
G1 X-19.111 Y-8.013 E0.01916
G1 X-19.273 Y-7.869 E0.01916
G1 X-19.465 Y-7.756 E0.01965
G1 X-19.729 Y-7.671 E0.02455
G1 X-19.950 Y-7.650 E0.01965
G1 X-20.112 Y-7.665 E0.01435
G1 X-20.364 Y-7.470 F15000.000
G1 E-3.20000 F3000.00000
G1 Z0.750 F15000.000
G1 X-19.838 Y-22.025 F15000.000
G1 Z0.350 F15000.000
G1 E3.20000 F3000.00000
G1 X-20.173 Y-22.036 E0.02960 F600.000
G1 X-20.500 Y-22.109 E0.02960
G1 X-20.807 Y-22.242 E0.02959
G1 X-21.084 Y-22.430 E0.02961
G1 X-21.321 Y-22.667 E0.02960
G1 X-21.518 Y-22.957 E0.03096
G1 X-21.671 Y-23.343 E0.03676
G1 X-21.726 Y-23.690 E0.03097
G1 X-21.715 Y-24.024 E0.02960
G1 X-21.639 Y-24.366 E0.03097
G1 X-21.462 Y-24.742 E0.03675
G1 X-21.247 Y-25.019 E0.03097
G1 X-20.996 Y-25.241 E0.02960
G1 X-20.708 Y-25.411 E0.02960
G1 X-20.393 Y-25.525 E0.02960
G1 X-20.046 Y-25.579 E0.03097 F600.000
G1 X-19.631 Y-25.553 E0.03676
G1 X-19.295 Y-25.456 E0.03097
G1 X-18.997 Y-25.304 E0.02960
G1 X-18.732 Y-25.098 E0.02960
G1 X-18.511 Y-24.847 E0.02960
G1 X-18.340 Y-24.559 E0.02960
G1 X-18.227 Y-24.244 E0.02960
G1 X-18.174 Y-23.913 E0.02960
G1 X-18.185 Y-23.578 E0.02960
G1 X-18.258 Y-23.251 E0.02960
G1 X-18.391 Y-22.944 E0.02960
G1 X-18.579 Y-22.667 E0.02960
G1 X-18.816 Y-22.430 E0.02960
G1 X-19.106 Y-22.233 E0.03097
G1 X-19.492 Y-22.080 E0.03675
G1 X-19.779 Y-22.035 E0.02567
G1 X-19.877 Y-22.652 F15000.000
G1 X-20.094 Y-22.659 E0.01924 F600.000
G1 X-20.306 Y-22.706 E0.01916
G1 X-20.505 Y-22.792 E0.01915
G1 X-20.684 Y-22.914 E0.01916
G1 X-20.837 Y-23.067 E0.01916
G1 X-20.962 Y-23.251 E0.01965
G1 X-21.065 Y-23.509 E0.02456
G1 X-21.099 Y-23.729 E0.01965
G1 X-21.093 Y-23.946 E0.01916
G1 X-21.044 Y-24.162 E0.01965
G1 X-20.926 Y-24.414 E0.02456
G1 X-20.789 Y-24.590 E0.01965
G1 X-20.627 Y-24.733 E0.01916
G1 X-20.440 Y-24.843 E0.01916
G1 X-20.236 Y-24.917 E0.01916
G1 X-20.017 Y-24.951 E0.01965 F600.000
G1 X-19.740 Y-24.934 E0.02456
G1 X-19.526 Y-24.872 E0.01965
G1 X-19.333 Y-24.774 E0.01916
G1 X-19.162 Y-24.641 E0.01916
G1 X-19.018 Y-24.478 E0.01916
G1 X-18.908 Y-24.292 E0.01916
G1 X-18.835 Y-24.088 E0.01916
G1 X-18.801 Y-23.874 E0.01916
G1 X-18.807 Y-23.657 E0.01916
G1 X-18.855 Y-23.445 E0.01916
G1 X-18.941 Y-23.246 E0.01916
G1 X-19.063 Y-23.067 E0.01916
G1 X-19.216 Y-22.914 E0.01916
G1 X-19.400 Y-22.789 E0.01965
G1 X-19.658 Y-22.687 E0.02456
G1 X-19.818 Y-22.661 E0.01427
G1 X-19.980 Y-22.460 F15000.000
G1 E-3.20000 F3000.00000
G1 Z0.750 F15000.000
G1 X-19.265 Y-26.097 F15000.000
G1 Z0.350 F15000.000
G1 E3.20000 F3000.00000
G1 X-19.523 Y-26.173 E0.02382 F960.000
G1 X-20.076 Y-26.207 E0.04895
G1 X-20.549 Y-26.133 E0.04229
G1 X-20.975 Y-25.979 E0.04004
G1 X-21.365 Y-25.748 E0.04004
G1 X-21.705 Y-25.449 E0.04004
G1 X-22.047 Y-25.008 E0.04935
G1 X-22.300 Y-25.095 E0.02368
G1 X-22.300 Y-27.151 E0.18181
G1 X-12.326 Y-27.151 E0.88168
G1 X-12.250 Y-26.875 E0.02529
G1 X-12.465 Y-26.748 E0.02205 F960.000
G1 X-12.805 Y-26.449 E0.04004
G1 X-13.098 Y-26.071 E0.04229
G1 X-13.334 Y-25.570 E0.04895
G1 X-13.438 Y-25.103 E0.04229
G1 X-13.452 Y-24.650 E0.04004
G1 X-13.381 Y-24.203 E0.04005
G1 X-13.228 Y-23.776 E0.04004
G1 X-12.997 Y-23.386 E0.04004
G1 X-12.698 Y-23.047 E0.04004
G1 X-12.257 Y-22.704 E0.04935
G1 X-12.343 Y-22.451 E0.02368
G1 X-17.600 Y-22.451 E0.46463
G1 X-17.600 Y-10.077 E1.09378
G1 X-17.874 Y-10.000 E0.02515
G1 X-18.008 Y-10.222 E0.02294
G1 X-18.302 Y-10.556 E0.03930
G1 X-18.660 Y-10.833 E0.04005
G1 X-19.064 Y-11.039 E0.04002
G1 X-19.501 Y-11.166 E0.04029
G1 X-19.984 Y-11.210 E0.04285
G1 X-20.526 Y-11.140 E0.04831
G1 X-20.974 Y-10.979 E0.04210
G1 X-21.365 Y-10.749 E0.04006
G1 X-21.705 Y-10.449 E0.04006
G1 X-22.047 Y-10.008 E0.04934
G1 X-22.300 Y-10.095 E0.02368
G1 X-22.300 Y-22.525 E1.09878
G1 X-22.036 Y-22.607 E0.02448
G1 X-21.805 Y-22.267 E0.03632
G1 X-21.484 Y-21.947 E0.04005
G1 X-21.109 Y-21.692 E0.04005
G1 X-20.694 Y-21.512 E0.04003
G1 X-20.252 Y-21.413 E0.04004
G1 X-19.799 Y-21.399 E0.04004
G1 X-19.326 Y-21.474 E0.04229
G1 X-18.811 Y-21.678 E0.04895
G1 X-18.416 Y-21.947 E0.04229
G1 X-18.095 Y-22.267 E0.04004
G1 X-17.857 Y-22.604 E0.03653
G1 X-17.661 Y-23.057 E0.04362
G1 X-17.562 Y-23.500 E0.04004
G1 X-17.548 Y-23.952 E0.04005
G1 X-17.619 Y-24.400 E0.04005
G1 X-17.772 Y-24.826 E0.04004
G1 X-18.003 Y-25.216 E0.04004
G1 X-18.302 Y-25.556 E0.04004
G1 X-18.660 Y-25.834 E0.04005
G1 X-19.064 Y-26.039 E0.04004
G1 X-19.207 Y-26.081 E0.01317
G1 X-12.815 Y-25.024 F15000.000
G1 X-12.739 Y-25.366 E0.03097 F600.000
G1 X-12.562 Y-25.742 E0.03675
G1 X-12.347 Y-26.019 E0.03097
G1 X-12.096 Y-26.241 E0.02960
G1 X-11.808 Y-26.411 E0.02960
G1 X-11.493 Y-26.525 E0.02960
G1 X-11.162 Y-26.577 E0.02960 F600.000
G1 X-10.827 Y-26.566 E0.02960
G1 X-10.500 Y-26.493 E0.02960
G1 X-10.193 Y-26.360 E0.02960
G1 X-9.916 Y-26.172 E0.02960
G1 X-9.679 Y-25.935 E0.02960
G1 X-9.482 Y-25.646 E0.03097
G1 X-9.329 Y-25.259 E0.03675
G1 X-9.274 Y-24.913 E0.03097
G1 X-9.285 Y-24.578 E0.02960
G1 X-9.358 Y-24.251 E0.02960
G1 X-9.491 Y-23.944 E0.02960
G1 X-9.679 Y-23.667 E0.02961
G1 X-9.927 Y-23.419 E0.03097
G1 X-10.278 Y-23.197 E0.03675
G1 X-10.608 Y-23.078 E0.03097
G1 X-10.954 Y-23.023 E0.03097
G1 X-11.369 Y-23.049 E0.03675
G1 X-11.705 Y-23.147 E0.03097
G1 X-12.003 Y-23.299 E0.02960
G1 X-12.268 Y-23.504 E0.02960
G1 X-12.489 Y-23.755 E0.02960
G1 X-12.660 Y-24.044 E0.02960
G1 X-12.773 Y-24.359 E0.02960
G1 X-12.826 Y-24.690 E0.02960
G1 X-12.817 Y-24.964 E0.02430
G1 X-12.193 Y-24.945 F15000.000
G1 X-12.144 Y-25.163 E0.01973 F600.000
G1 X-12.026 Y-25.414 E0.02456
G1 X-11.889 Y-25.590 E0.01965
G1 X-11.727 Y-25.733 E0.01916
G1 X-11.540 Y-25.843 E0.01916
G1 X-11.336 Y-25.917 E0.01916
G1 X-11.122 Y-25.951 E0.01916 F600.000
G1 X-10.906 Y-25.944 E0.01916
G1 X-10.694 Y-25.896 E0.01916
G1 X-10.495 Y-25.810 E0.01916
G1 X-10.316 Y-25.689 E0.01916
G1 X-10.163 Y-25.535 E0.01916
G1 X-10.038 Y-25.351 E0.01965
G1 X-9.935 Y-25.093 E0.02456
G1 X-9.901 Y-24.874 E0.01965
G1 X-9.907 Y-24.657 E0.01916
G1 X-9.955 Y-24.445 E0.01916
G1 X-10.041 Y-24.246 E0.01916
G1 X-10.163 Y-24.067 E0.01916
G1 X-10.320 Y-23.910 E0.01965
G1 X-10.554 Y-23.761 E0.02455
G1 X-10.764 Y-23.686 E0.01965
G1 X-10.983 Y-23.651 E0.01965
G1 X-11.260 Y-23.668 E0.02456
G1 X-11.474 Y-23.731 E0.01965
G1 X-11.667 Y-23.829 E0.01916
G1 X-11.838 Y-23.962 E0.01916
G1 X-11.982 Y-24.124 E0.01916
G1 X-12.092 Y-24.311 E0.01916
G1 X-12.165 Y-24.515 E0.01916
G1 X-12.199 Y-24.729 E0.01916
G1 X-12.194 Y-24.885 E0.01377
G1 X-12.366 Y-25.085 F15000.000
G1 E-3.20000 F3000.00000
G1 Z0.750 F15000.000
G1 X-9.206 Y-22.451 F15000.000
G1 Z0.350 F15000.000
G1 E3.20000 F3000.00000
G1 X-9.782 Y-22.451 E0.05093 F600.000
G1 X-9.860 Y-22.721 E0.02488
G1 X-9.534 Y-22.929 E0.03421
G1 X-9.195 Y-23.267 E0.04229
G1 X-8.941 Y-23.642 E0.04005
G1 X-8.761 Y-24.057 E0.04004
G1 X-8.662 Y-24.500 E0.04005
G1 X-8.648 Y-24.952 E0.04005
G1 X-8.723 Y-25.425 E0.04229
G1 X-8.927 Y-25.940 E0.04895
G1 X-9.195 Y-26.335 E0.04229
G1 X-9.516 Y-26.656 E0.04004
G1 X-9.856 Y-26.887 E0.03632
G1 X-9.774 Y-27.151 E0.02448
G1 X2.674 Y-27.151 E1.10036
G1 X2.750 Y-26.875 E0.02529
G1 X2.535 Y-26.748 E0.02205 F600.000
G1 X2.195 Y-26.449 E0.04005
G1 X1.918 Y-26.091 E0.04005
G1 X1.712 Y-25.687 E0.04002
G1 X1.586 Y-25.252 E0.04004
G1 X1.543 Y-24.801 E0.04007
G1 X1.588 Y-24.325 E0.04230
G1 X1.759 Y-23.799 E0.04891
G1 X2.003 Y-23.387 E0.04230
G1 X2.302 Y-23.047 E0.04006
G1 X2.743 Y-22.704 E0.04934
G1 X2.657 Y-22.451 E0.02368
G1 X-9.146 Y-22.451 E1.04323
G1 X2.204 Y-24.452 F15000.000
G1 X2.171 Y-24.801 E0.03098 F600.000
G1 X2.202 Y-25.135 E0.02962
G1 X2.296 Y-25.456 E0.02960
G1 X2.448 Y-25.755 E0.02959
G1 X2.653 Y-26.019 E0.02960
G1 X2.904 Y-26.241 E0.02961
G1 X3.192 Y-26.411 E0.02959
G1 X3.521 Y-26.529 E0.03088
G1 X3.928 Y-26.582 E0.03622 F600.000
G1 X4.273 Y-26.550 E0.03063
G1 X4.678 Y-26.441 E0.03709
G1 X5.147 Y-26.122 E0.05020
G1 X5.390 Y-25.847 E0.03237
G1 X5.568 Y-25.545 E0.03097
G1 X5.696 Y-25.150 E0.03673
G1 X5.729 Y-24.800 E0.03113
G1 X5.695 Y-24.445 E0.03145
G1 X5.567 Y-24.056 E0.03620
G1 X5.390 Y-23.755 E0.03088
G1 X5.168 Y-23.504 E0.02961
G1 X4.903 Y-23.299 E0.02960
G1 X4.605 Y-23.147 E0.02961
G1 X4.283 Y-23.053 E0.02960
G1 X3.950 Y-23.022 E0.02960
G1 X3.617 Y-23.053 E0.02960
G1 X3.295 Y-23.147 E0.02960
G1 X2.997 Y-23.299 E0.02961
G1 X2.732 Y-23.504 E0.02959
G1 X2.510 Y-23.755 E0.02961
G1 X2.332 Y-24.057 E0.03097
G1 X2.222 Y-24.395 E0.03142
G1 X2.819 Y-24.580 F15000.000
G1 X2.798 Y-24.801 E0.01966 F600.000
G1 X2.819 Y-25.017 E0.01917
G1 X2.879 Y-25.225 E0.01916
G1 X2.978 Y-25.418 E0.01915
G1 X3.111 Y-25.590 E0.01916
G1 X3.273 Y-25.733 E0.01916
G1 X3.460 Y-25.843 E0.01916
G1 X3.669 Y-25.918 E0.01962
G1 X3.939 Y-25.953 E0.02412 F600.000
G1 X4.162 Y-25.933 E0.01977
G1 X4.413 Y-25.865 E0.02302
G1 X4.731 Y-25.649 E0.03395
G1 X4.882 Y-25.478 E0.02015
G1 X4.995 Y-25.287 E0.01965
G1 X5.081 Y-25.023 E0.02454
G1 X5.102 Y-24.801 E0.01971
G1 X5.079 Y-24.575 E0.02006
G1 X4.995 Y-24.315 E0.02411
G1 X4.882 Y-24.124 E0.01962
G1 X4.738 Y-23.962 E0.01916
G1 X4.567 Y-23.829 E0.01916
G1 X4.374 Y-23.731 E0.01916
G1 X4.166 Y-23.670 E0.01916
G1 X3.950 Y-23.650 E0.01916
G1 X3.734 Y-23.670 E0.01916
G1 X3.526 Y-23.731 E0.01916
G1 X3.333 Y-23.829 E0.01916
